yagami-light7/MecArm_Kinematics/results/tcp_pose_6d_demo/null_space/20260423_001427/trajectory.csv
step,time,pos_err_norm,rot_err_norm,err_6d_norm,qdot_max,line_dev,phase_error,sigma_min,condition_number,joint_center_cost,joint_margin_min,qdot_norm,px,py,pz,roll,pitch,yaw,r11,r12,r13,r21,r22,r23,r31,r32,r33,epx,epy,epz,erx,ery,erz,q1,q2,q3,q4,q5,q6,qdot1,qdot2,qdot3,qdot4,qdot5,qdot6,qdot_null1,qdot_null2,qdot_null3,qdot_null4,qdot_null5,qdot_null6,qdot_primary_norm,qdot_null_norm,qdot_null_ratio,null_task_leak_norm
0,0.0,0.0,8.620652195328901e-10,8.620652195328901e-10,0.01726913893158312,0.0,0.0,4.5365982948088026e-05,17317.968371345567,1.000065834973094,2.0978295931017737e-06,0.02085857546804429,0.3340806509489974,0.0010019155657902898,0.33093286030734786,-1.6757040199877338e-10,2.8786084627085984e-10,-1.2229417478692994e-10,0.9999999999414647,2.1832294947712118e-10,-4.556171412373189e-10,-1.2229413565316075e-10,1.0000000001134242,1.6757067017938358e-10,-2.8786104749878305e-10,2.5807600501082106e-10,1.0000000003226814,0.0,0.0,0.0,4.2564667531331177e-10,7.434781889873462e-10,-9.602881350464613e-11,5.749111035057381e-09,-1.726913893158312e-05,8.391318372407095e-06,-6.032920171862894e-11,1.5700081512424833,1.2568517491764276e-10,5.749111035057381e-06,-0.01726913893158312,0.008391318372407095,-6.032920171862893e-08,0.00815124248314136,1.2568517491764275e-07,5.749728157864904e-06,-0.017269137312310903,0.008391315431546479,-6.242429648664598e-08,0.008151250806383067,1.2358702703451686e-07,9.472040084535738e-09,0.020858576197100888,2201888.3073398443,0.0026342967539648714
1,0.001,2.531144908175697e-06,7.26153747011072e-07,2.633247768532612e-06,0.0171793179347382,1.091291400886305e-06,2.2838077030585462e-06,4.491174283233632e-05,17493.143140948316,1.0000485174265472,4.183137191133953e-06,0.02075195031379588,0.33408305925057036,0.0010019174815403898,0.3309336424474959,-4.3115590350161466e-11,7.268659376003483e-07,5.594711205117367e-09,0.9999999999412006,-5.4986821104093415e-09,7.261224598646698e-07,5.594711204788402e-09,1.0000000001134242,4.311965280051431e-11,-7.268659378348308e-07,3.825310623817302e-10,1.0000000003224176,-2.407413572713679e-06,-2.3597502185786212e-09,-7.816961479223394e-07,5.96946772621978e-10,-7.261303522284116e-07,-5.798234680793397e-09,1.0449991204054197e-08,-3.4448456866321324e-05,1.673254876453581e-05,3.112691995473016e-10,1.570016271484483,6.708243727723951e-10,4.7008801689968166e-06,-0.0171793179347382,0.008341230392128716,3.715984012659305e-07,0.008120241999800687,5.451391978547522e-07,5.749586290079829e-06,-0.017268456021021027,0.008391098965549975,-6.15635169667023e-08,0.00815080277322938,1.2275830552853192e-07,0.00010662035327830371,0.02085774997750901,195.62634281879681,0.0026342403788880493
2,0.002,5.0427533386725875e-06,1.4460817961566188e-06,5.245999789922707e-06,0.01711171585078936,2.1769258163789968e-06,4.548665213508729e-06,4.4459220180035475e-05,17671.21479882249,1.0000312701673422,6.2593233230574944e-06,0.020673137355056756,0.33408545512549964,0.0010019190471983904,0.33093441863522477,9.32288601040657e-10,1.444711485180511e-06,1.0244769140801528e-08,0.9999999999404212,-1.0148738369155272e-08,1.4439680080177708e-06,1.0244769140191158e-08,1.0000000001134244,-9.322738080275125e-10,-1.4447114856461912e-06,1.3579350421899505e-09,1.0000000003216387,-4.7970796057672516e-06,-7.029856337673057e-09,-1.554779428647457e-06,1.6894544175920605e-09,-1.4460438070047603e-06,-1.0344812347403703e-08,1.2071978008762035e-08,-5.156017271711069e-05,2.5037293292229978e-05,1.9772066251933065e-09,1.570024370805344,2.4749140982535427e-09,1.6219868047078374e-06,-0.01711171585078936,0.008304744527694167,1.6659374256460048e-06,0.008099320861139698,1.8040897254811479e-06,5.7494487419683756e-06,-0.017267778438457133,0.008390883697257797,-6.070147750019602e-08,0.00815035714757405,1.2192774208135865e-07,0.0001854805575486738,0.020856928252460258,112.44805609633197,0.002634184298928301
3,0.003,7.532728981861546e-06,2.1593343280164814e-06,7.836117064868752e-06,0.017066333410577075,3.2574990284278766e-06,6.791958921685057e-06,4.400785342158297e-05,17852.479696882005,1.0000140693949051,8.329783605550554e-06,0.02062213401600581,0.33408784166984073,0.001001919584449038,0.33093519150220485,4.460205953445975e-09,2.152361964506321e-06,1.1759513300270934e-08,0.9999999999391481,-1.166347397725853e-08,2.1516184878292433e-06,1.1759513299555347e-08,1.0000000001134242,-4.460180651965646e-09,-2.15236196519919e-06,4.885852222802356e-09,1.0000000003203666,-7.166792785728848e-06,-1.5982687548215732e-08,-2.319230828162766e-06,3.767251946392323e-09,-2.1592999962458287e-06,-1.157904037157242e-08,8.592208918094588e-09,-6.862650612768776e-05,3.3319134422202214e-05,5.796300667652302e-09,1.5700324592996966,6.374390125668606e-09,-3.479769090667447e-06,-0.017066333410577075,0.008281841129972238,3.819094042458995e-06,0.008088494352525651,3.899476027415063e-06,5.7493224778186695e-06,-0.017267103584055903,0.008390669315438942,-5.982793530927926e-08,0.008149913286278255,1.2108427369850248e-07,0.00023672562249392093,0.020856109833580407,88.10246024810233,0.0026341284378349713
4,0.004,9.999001155929685e-06,2.8662177601310413e-06,1.0401693533496061e-05,0.017043170594509275,4.3336082798750794e-06,9.011096680916105e-06,4.355708008689549e-05,18037.255624463127,0.9999968913199171,1.0397908673221798e-05,0.020598938606908677,0.3340902219801079,0.0010019184175581416,0.33093596367051403,1.2235547313661924e-08,2.848359930844217e-06,8.078496435052079e-09,0.9999999999374083,-7.98243155530895e-09,2.8476164547520944e-06,8.078496434546431e-09,1.0000000001134244,-1.2235524310590357e-08,-2.8483599317594838e-06,1.26611937045773e-08,1.000000000318627,-9.514369534446843e-06,-3.118255588138198e-08,-3.0750323781192357e-06,6.8939858929106775e-09,-2.8662000388348896e-06,-7.3524711484043544e-09,-2.004384762809114e-09,-8.566967672219705e-05,4.159163469288719e-05,1.2623775704439502e-08,1.570040547076991,1.3202633753435773e-08,-1.0596593680903701e-05,-0.017043170594509275,0.008272500270684978,6.827475036787201e-06,0.008087777294290442,6.828243627767166e-06,5.749214431403686e-06,-0.017266430477985477,0.008390455509110505,-5.893267379528186e-08,0.008149470546643037,1.2021686708025297e-07,0.00026062247966108663,0.020855293533380507,80.02108444551536,0.0026340727193741127
5,0.005,1.2439527658845065e-05,3.567063245121942e-06,1.294085733519504e-05,0.017042226636863243,5.4058546001519745e-06,1.120350768363076e-05,4.310633683174987e-05,18225.883312827198,0.9999797121650174,1.2467084109787363e-05,0.02060355030498,0.334092599153165,0.0010019148733707817,0.33093673775263627,2.5946576442947844e-08,3.5312530277664678e-06,-2.850815583599342e-09,0.9999999999352298,2.9469376884327144e-09,3.5305095521243057e-06,-2.8508157458036104e-09,1.000000000113424,-2.5946586788929023e-08,-3.531253029044959e-06,2.6372223016490892e-08,1.0000000003164489,-1.1837647871326684e-05,-5.4585728640052164e-08,-3.822167140232757e-06,1.1132870134922005e-08,-3.5670430650049837e-06,4.475075674017304e-09,-2.1725083946557314e-08,-0.00010271190335906028,4.986833643914945e-05,2.3311262096771265e-08,1.570048644261033,2.3789979523839493e-08,-1.9720699183748202e-05,-0.017042226636863243,0.00827670174626226,1.068748639233176e-05,0.00809718404204929,1.058734577040372e-05,5.749131506003165e-06,-0.017265758141170432,0.008390241967545202,-5.800550245239104e-08,0.008149028286426333,1.1931451852677316e-07,0.0002577194181499659,0.020854478165287186,80.91931230510825,0.002634017067330701
6,0.006,1.4852297694812455e-05,4.262237857895133e-06,1.5451777191397947e-05,0.01706350002992501,6.4748451198756365e-06,1.3366642341633145e-05,4.265505946346332e-05,18418.728118089053,0.9999625081655019,1.454069038018713e-05,0.02063596909943082,0.33409497628612034,0.00100190828130919,0.3309375163514618,4.727491864642275e-08,4.199593981457639e-06,-2.307305102533519e-08,0.9999999999326461,2.316927998622936e-08,4.19885050523261e-06,-2.307305084522295e-08,1.000000000113423,-4.727501552190738e-08,-4.199593982904398e-06,4.770056483138774e-08,1.0000000003138652,-1.4134487279715557e-05,-8.814044050024263e-08,-4.5606191923508455e-06,1.6546688199587772e-08,-4.262126220103059e-06,2.6035519854982343e-08,-5.256938774064635e-08,-0.0001197754033889853,5.816276152074852e-05,3.8706793946025444e-08,1.57005676098952,3.8963724425619864e-08,-3.084430379408904e-05,-0.01706350002992501,0.008294425081599065,1.5395531849254176e-05,0.008116728486966979,1.5173744901780375e-05,5.749080574406806e-06,-0.01726508559531942,0.008390028380280358,-5.703625672058248e-08,0.008148585863861208,1.1836625378305779e-07,0.00022933849529364845,0.020853662543676252,90.92962097813229,0.0026339614055112016
7,0.007,1.723533489030548e-05,4.952155894048468e-06,1.7932668980939242e-05,0.017106988528130137,7.541195364128585e-06,1.5497972166096523e-05,4.2202682967107524e-05,18616.181906485574,0.9999452555700252,1.6622102763645315e-05,0.0206961957023152,0.33409735647622135,0.001001897973370706,0.33093830206028685,7.789556466519798e-08,4.8519405937419435e-06,-5.462493612995445e-08,0.9999999999296926,5.472134499564065e-08,4.851197115067485e-06,-5.462493616302177e-08,1.00000000011342,-7.789582961794816e-08,-4.851940595603302e-06,7.832121073914067e-08,1.0000000003109115,-1.6402768573398063e-05,-1.3378690569016555e-07,-5.290373613686672e-06,2.319779611694399e-08,-4.951744668115592e-06,5.945252730623978e-08,-9.652901935088956e-08,-0.00013688239191711544,6.648841105458126e-05,5.965480538839009e-08,1.570064907413576,5.9548138603478387e-08,-4.395963161024321e-05,-0.017106988528130137,0.008325649533832741,2.0948011442364644e-05,0.00814642405600414,2.0584414177858522e-05,5.7490684788993744e-06,-0.017264411862950697,0.008389814437125545,-5.6014797792172013e-08,0.008148142637673017,1.1736112783764762e-07,0.000179536121510284,0.020852845483903575,116.14846746347162,0.0026339056577458267
8,0.008,1.9586700421548494e-05,5.637290218251204e-06,2.0381802530892076e-05,0.017172689152184194,8.605531514995967e-06,1.7594989648986002e-05,4.174864153103822e-05,18818.66517038236,0.9999279306412991,1.8714691287665536e-05,0.020784231427851924,0.3340997428207506,0.0010018832841252865,0.33093909746281436,1.194768799450685e-07,5.486855737313334e-06,-9.953530533124422e-08,0.999999999926407,9.963199186759168e-08,5.486112251266301e-06,-9.953530515013756e-08,1.0000000001134122,-1.1947742626682895e-07,-5.486855739212856e-06,1.199025262410558e-07,1.0000000003076253,-1.8640393763758034e-05,-1.934573297225975e-07,-6.011416471773945e-06,3.1148125045158356e-08,-5.636191594451618e-06,1.068415168827336e-07,-1.5558793191050297e-07,-0.00015405508106929963,7.485876515066214e-05,8.699612540455609e-08,1.5700730936972882,8.636447759453574e-08,-5.9058912559613395e-05,-0.017172689152184194,0.008370354096080885,2.7341320016166e-05,0.008186283712174596,2.6816338991057347e-05,5.749102031226098e-06,-0.017263735967419522,0.008389599828171198,-5.4931012353395375e-08,0.008147697967097849,1.1628822465702287e-07,0.0001257469941106687,0.020852025802338477,165.8252412631158,0.002633849747890929
9,0.009000000000000001,2.1904496277345813e-05,6.3181836082823675e-06,2.2797508663716405e-05,0.017260598193025476,9.668492636271386e-06,1.965520814711824e-05,4.1292368572361444e-05,19026.629406745,0.9999105096567876,2.082182066295052e-05,0.02090007804392654,0.33410213841692515,0.0010018635507132747,0.3309399051331544,1.736806121144241e-07,6.102907348815023e-06,-1.598251038181786e-07,0.9999999999228292,1.5992219540637177e-07,6.102163847252623e-06,-1.5982510400267e-07,1.0000000001133962,-1.7368158775592464e-07,-6.102907350879344e-06,1.7410625857694484e-07,1.0000000003040481,-2.0845285930937152e-05,-2.690759213848544e-07,-6.723734808145032e-06,4.045918322431764e-08,-6.315758210990233e-06,1.7030966728364736e-07,-2.3172231423938376e-07,-0.0001713156792623251,8.328728265180207e-05,1.2156797111935898e-07,1.570081330017243,1.202309961092462e-07,-7.613438232888078e-05,-0.017260598193025476,0.00842851750113993,3.457184571480289e-05,0.008236319954710278,3.3866518514710474e-05,5.749188012541387e-06,-0.017263056932945026,0.008389384243796975,-5.3774812280575035e-08,0.008147251211900398,1.1513665687463753e-07,0.00013606508238358633,0.02085120231639638,153.24432836023,0.00263379359983135
10,0.01,2.418686867659571e-05,6.995460020847557e-06,2.517818653680529e-05,0.017370711215819817,1.073073284792931e-05,2.1676161766452576e-05,4.08332967624626e-05,19240.55979479308,0.999892968909407,2.2946850219244956e-05,0.02104373760080225,0.33410454636179554,0.0010018381128427106,0.33094072763582494,2.4216189675740907e-07,6.698668423954501e-06,-2.3750739819305977e-07,0.9999999999190003,2.3760505221402423e-07,6.697924893148133e-06,-2.3750739833920514e-07,1.0000000001133666,-2.421634878179996e-07,-6.698668426355359e-06,2.425875427758406e-07,1.0000000003002207,-2.3015389094438454e-05,-3.625589042727511e-07,-7.427316625230329e-06,5.1192058536457284e-08,-6.990733758968034e-06,2.5195592401045125e-07,-3.2690059653270224e-07,-0.0001886863904781449,9.178740087697983e-05,1.6420393957290187e-07,1.570089626562062,1.6196296338034511e-07,-9.517828229331851e-05,-0.017370711215819817,0.008500118225177749,4.26359684535429e-05,0.00829654481924208,4.1731967271098915e-05,5.749333173337195e-06,-0.017262373784637842,0.008389167374680116,-5.2536134271900876e-08,0.00814680173239265,1.1389556541611874e-07,0.0002453789684563067,0.020850373844572407,84.97213062216042,0.0026337371374827406
11,0.011,2.6432011667190763e-05,7.669835697813082e-06,2.7522311320199046e-05,0.01750302306386298,1.1792923442359033e-05,2.3655405248208356e-05,4.037085805212925e-05,19460.978215502575,0.9998752847082172,2.5093133842093155e-05,0.021215212242422756,0.3341069697521475,0.0010018063127866673,0.3309415675257528,3.2656926407526043e-07,7.272717012618557e-06,-3.345873800242316e-07,0.9999999999149626,3.3468578697177745e-07,7.271973430179879e-06,-3.345873799512699e-07,1.000000000113315,-3.2657169742161505e-07,-7.272717014865024e-06,3.269949101492031e-07,1.000000000296187,-2.514866808611682e-05,-4.758145283479797e-07,-8.122150872980072e-06,6.340742156164704e-08,-7.66140551342822e-06,3.5387100637165347e-07,-4.4308345598180236e-07,-0.0002061894135420079,0.00010037253536837262,2.157339979443991e-07,1.5700979935319401,2.1237268010253704e-07,-0.00011618285944910012,-0.01750302306386298,0.008585134491392794,5.153005837149724e-05,0.008366969877938923,5.040971672219193e-05,5.749544233353489e-06,-0.017261685548527705,0.0083889489118041,-5.120493942552688e-08,0.008146348889452221,1.1255411907098848e-07,0.00040677283693243613,0.020849539206474997,51.255976953746476,0.00263368028479392
12,0.012,2.8638170931951877e-05,8.342130007365463e-06,2.9828442255462835e-05,0.01765752786242581,1.2855754932252165e-05,2.5590513856700677e-05,3.9904483696588814e-05,19688.44666198762,0.9998574333791186,2.7264019910501845e-05,0.02141450400628004,0.3341094116844046,0.001001767495380539,0.3309424273482755,4.285446473240029e-07,7.82363621087967e-06,-4.530623738396855e-07,0.9999999999107575,4.5316175871279743e-07,7.822892544005061e-06,-4.5306237370171993e-07,1.0000000001132296,-4.285481918914883e-07,-7.823636213422774e-06,4.2897029328692327e-07,1.0000000002919907,-2.7243108424779283e-05,-6.107430814493008e-07,-8.808227436429839e-06,7.716552724366197e-08,-8.328058786652687e-06,4.78137414609499e-07,-5.822238223296294e-07,-0.0002238469414044337,0.00010905607964200738,2.769844722009941e-07,1.5701064411381798,2.722694969760726e-07,-0.00013914036634782694,-0.01765752786242581,0.008683544273634766,6.125047425659497e-05,0.008447606239618965,5.989681687353558e-05,5.749827881470452e-06,-0.017260991251591338,0.008388728546467092,-4.977121276056829e-08,0.008145892044541319,1.1110151400757103e-07,0.0006029214480082001,0.020848697222859935,34.57945849688353,0.002633622965749118
13,0.013000000000000001,3.08036478282602e-05,9.013275900733934e-06,3.209523114093791e-05,0.01783421902256992,1.3919939018890202e-05,2.747908326779349e-05,3.9433604280627056e-05,19923.571097822412,0.9998393912655432,2.9462851235506738e-05,0.021641614617958924,0.33411187525453256,0.0010017210080189287,0.3309433096391423,5.497233899198761e-07,8.350014159219654e-06,-5.949218446765769e-07,0.9999999999064262,5.950224671955601e-07,8.349270359874622e-06,-5.949218445079293e-07,1.0000000001130962,-5.497283573048667e-07,-8.35001416191021e-06,5.501490357162631e-07,1.0000000002876752,-2.9296716191618e-05,-7.692369004019296e-07,-9.485537122710941e-06,9.252621722004354e-08,-8.990976933497313e-06,6.268294370857923e-07,-7.462668833602399e-07,-0.00024168116042700362,0.00011785140494202695,3.487780341542373e-07,1.5701149796027296,3.4245983487721166e-07,-0.00016404306103061053,-0.01783421902256992,0.008795325300019568,7.179356195324316e-05,0.008538464549856108,7.019033790113904e-05,5.750190775580295e-06,-0.01726028992178062,0.008388505970290705,-4.8224962675280366e-08,0.008145430559725336,1.0952697322545384e-07,0.0008296231722526075,0.020847846715664607,25.1292965141377,0.0026335651043703323
14,0.014,3.292680369326289e-05,9.684329837641967e-06,3.432143129094288e-05,0.018033089244881912,1.4986210472549887e-05,2.931872945963146e-05,3.8957649742893386e-05,20167.00583040481,0.9998211347291491,3.169296499963031e-05,0.02189654528618613,0.3341143635579451,0.0010016662006527264,0.33094421692451703,6.917342516565839e-07,8.850444034536054e-06,-7.621474042984744e-07,0.999999999902009,7.622495593101902e-07,8.849700035316183e-06,-7.621474044168811e-07,1.0000000001128944,-6.917409965525298e-07,-8.850444037358449e-06,6.921598973419485e-07,1.0000000002832836,-3.130751790791919e-05,-9.53180382318175e-07,-1.015407164928206e-05,1.0954892242879565e-07,-9.650441354310116e-06,8.020131575343904e-07,-9.371500903266539e-07,-0.0002597142496718855,0.00012677185999852123,4.3193368690523576e-07,1.5701236191577206,4.2374720667633346e-07,-0.00019088320696641404,-0.018033089244881912,0.008920455056494268,8.315565275099849e-05,0.008639554991033388,8.128737179912183e-05,5.750639542442008e-06,-0.01725958058805081,0.008388280875228242,-4.65562203504665e-08,0.0081449637976925,1.0781974595333306e-07,0.0010855058943973173,0.02084698650804258,19.20485793438474,0.002633506624719468
15,0.015,3.5006064444992017e-05,1.0356481023013507e-05,3.650590701663189e-05,0.018254130523169296,1.605532891332938e-05,3.110708860390835e-05,3.847604940099002e-05,20419.45847660307,0.9998026401505092,3.395769269723102e-05,0.02217929650394916,0.33411687968941123,0.0010016024257858175,0.3309451517209789,8.561994166988995e-07,9.323524046145337e-06,-9.567128200771435e-07,0.9999999998975428,9.568168355819168e-07,9.3227797555058e-06,-9.567128197977777e-07,1.0000000001125995,-8.562083359525301e-07,-9.323524049295595e-06,8.566250622732419e-07,1.0000000002788578,-3.3273560413826786e-05,-1.1644499955277155e-06,-1.0813823630995145e-05,1.282926651044662e-07,-1.0306731500600784e-05,1.0057464624063204e-06,-1.1568031633168401e-06,-0.0002779683801950548,0.00013583077078892407,5.272667486554652e-07,1.570132370045003,5.169322407198473e-07,-0.0002196530729901861,-0.018254130523169296,0.009058910790402833,9.533306175022947e-05,0.008750887282384975,9.318503404351385e-05,5.751180777515962e-06,-0.017258862280389618,0.008388052953574018,-4.475503908945342e-08,0.008144491121772679,1.0596910698375424e-07,0.0013699974940879454,0.02084611542439896,15.2161704668378,0.0026334474509007544
16,0.016,3.703992551583668e-05,1.1031059768515437e-05,3.8647643677658914e-05,0.018497334148096973,1.7128080482667446e-05,3.2841816959440486e-05,3.7988231975557256e-05,20681.69561325748,0.9997838839298033,3.626036007572744e-05,0.022489867860504876,0.3341194267429642,0.0010015290384718057,0.33094611653552636,1.0447345006880937e-06,9.76785743089792e-06,-1.1805840189893502e-06,0.9999999998930623,1.1806902566884436e-06,9.767112726287441e-06,-1.1805840186437345e-06,1.0000000001121812,-1.0447460316950593e-06,-9.767857434178281e-06,1.0451601461514137e-06,1.0000000002744374,-3.51929107487714e-05,-1.4049142905234874e-06,-1.146478656949279e-05,1.4881606088606794e-07,-1.0960124878419537e-05,1.2400790482994776e-06,-1.4071480965606386e-06,-0.0002964657143431518,0.00014504144030290977,6.355888348640467e-07,1.5701412425156829,6.22812705995289e-07,-0.0002503449332437985,-0.018497334148096973,0.009210669513985711,0.00010832208620858152,0.00887247068002265,0.00010588046527544173,5.7518210447802396e-06,-0.01725813402984584,0.00838782189797164,-4.2811493598602313e-08,0.008144011895957277,1.0396435594857987e-07,0.0016828144577146903,0.020845232290425453,12.387124547495715,0.0026333875070628752
17,0.017,3.902695715429804e-05,1.1709544785842492e-05,4.0745758353662606e-05,0.018762690710773477,1.8205279395883673e-05,3.45205907661116e-05,3.749362561485773e-05,20954.549219901088,0.9997648424875075,3.860428707770196e-05,0.022828257868388557,0.33412200781181167,0.0010014453963105502,0.3309471138655788,1.2589485578473614e-06,1.0182052447849088e-05,-1.4357190982750012e-06,0.999999999888597,1.4358279500917775e-06,1.0181307169076365e-05,-1.4357190979408018e-06,1.0000000001116007,-1.2589631755632943e-06,-1.0182052451027102e-05,1.2593742033661925e-06,1.000000000270059,-3.706365603334261e-05,-1.6764339107197893e-06,-1.2106954840440665e-05,1.7117732159283942e-07,-1.1610897053680563e-05,1.5070524294315138e-06,-1.6900991636790453e-06,-0.00031522840505392527,0.00015441714831080784,7.577078387353527e-07,1.5701502468296598,7.421835390014406e-07,-0.0002829510671184066,-0.018762690710773477,0.009375708007898071,0.00012211900387130596,0.0090043139769153,0.00011937083300615147,5.752566876527687e-06,-0.01725739486855872,0.008387587401423164,-4.0715679207117064e-08,0.008143525484918706,1.0179481653394932e-07,0.002023796586200391,0.02084433593313626,10.299620063087056,0.0026333267174012526
18,0.018000000000000002,4.0965810136319986e-05,1.2393569200481936e-05,4.279951118473378e-05,0.01905019010630886,1.9287769364794468e-05,3.61411061404419e-05,3.69916579184679e-05,21238.92404244313,0.9997454922650831,4.09927877838696e-05,0.023194463808634252,0.334124625988247,0.0010013508594446073,0.33094814619897966,1.5004440889754278e-06,1.0564722372929936e-05,-1.7240683312103044e-06,0.9999999998841718,1.7241802166787518e-06,1.056397631508596e-05,-1.7240683312049732e-06,1.0000000001108116,-1.5004623021506667e-06,-1.0564722376191216e-05,1.5008697343277255e-06,1.0000000002657567,-3.8883903351993876e-05,-1.980861603117579e-06,-1.2740323682980392e-05,1.954342564482378e-07,-1.2259321656868639e-05,1.8086999452569695e-06,-2.0075629228776803e-06,-0.0003342785951602341,0.0001639711511354784,8.944279100101397e-07,1.5701593932551627,8.758368723341242e-07,-0.0003174637591986349,-0.01905019010630886,0.009554002824670553,0.00013672007127478691,0.009146425502890103,0.00013365333333268363,5.753424773144329e-06,-0.01725664382978767,0.008387349157298002,-3.845771102276276e-08,0.008143031254030505,9.944983563139059e-08,0.0023928430636637054,0.02084342518090441,8.71073639918537,0.0026332650061602963
19,0.019,4.285522193093418e-05,1.3084925072574795e-05,4.4808317429965155e-05,0.019359821537267848,2.037642488266154e-05,3.7701078973301704e-05,3.64817559619266e-05,21535.806028950232,0.9997258097256648,4.342917035690502e-05,0.02358848159638789,0.33412728436356315,0.0010012447905554725,0.330949216014,1.7708170476637974e-06,1.0914485495838733e-05,-2.047574176433642e-06,0.9999999998798055,2.047689537555935e-06,1.0913738399058459e-05,-2.047574176071461e-06,1.0000000001097589,-1.7708393944659194e-06,-1.0914485499082666e-05,1.7712426926830283e-06,1.0000000002615583,-4.065177963857858e-05,-2.3200422287678914e-06,-1.3364889188571816e-05,2.216442748616312e-07,-1.290567038730852e-05,2.1470467681132536e-06,-2.36143822208574e-06,-0.00035363841669750195,0.0001737166814276201,1.0465494320490496e-06,1.5701686920682874,1.024562065013297e-06,-0.0003538752992080598,-0.019359821537267848,0.009745530292141695,0.0001521215220389099,0.009298813124556498,0.0001487251926791727,5.754401202867902e-06,-0.01725587994794148,0.008387106859341511,-3.6027723026225005e-08,0.008142528569387348,9.691878242770966e-08,0.0027898842649416943,0.02084249886349753,7.470739599465922,0.002633202297635496
20,0.02,4.469402336497089e-05,1.3785566216599504e-05,4.677176028824245e-05,0.01969157351712401,2.1472152360094265e-05,3.919824482771233e-05,3.5963346319966785e-05,21846.272020418768,0.9997057713547477,4.591673698612569e-05,0.024010305668405833,0.33412998602796684,0.0010011265548598857,0.33095032577934147,2.0716568482903597e-06,1.1229965113823681e-05,-2.408171282386462e-06,0.9999999998755091,2.408290580792488e-06,1.1229216654386892e-05,-2.40817128200551e-06,1.0000000001083775,-2.071683890479468e-06,-1.1229965117327823e-05,2.072082493476124e-06,1.0000000002574876,-4.2365431561997013e-05,-2.6958127732996592e-06,-1.3980648289890762e-05,2.4986438821502913e-07,-1.3550213018883466e-05,2.5241099109651554e-06,-2.7536162040437913e-06,-0.00037332999021462594,0.00018366694794450276,1.2148689971849984e-06,1.5701781535525325,1.189145734564241e-06,-0.0003921779819580512,-0.01969157351712401,0.009950266516882668,0.00016831956513594891,0.009461484245252541,0.00016458366955094398,5.755502601528762e-06,-0.01725510225860856,0.008386860201684406,-3.341586710402999e-08,0.008142016797825015,9.419104743354824e-08,0.0032148680249240863,0.02084155581211488,6.482865126671616,0.0026331385161757186
21,0.021,4.6481145839406704e-05,1.4497609120504936e-05,4.868960452453011e-05,0.020045433873650098,2.2575891104910045e-05,4.0630358838711535e-05,3.54358550905815e-05,22171.500912886997,0.9996853536608749,4.8458783833020526e-05,0.024459928892850653,0.33413273407049426,0.0010009955201056872,0.33095147795414015,2.4045463740129946e-06,1.1509789528130199e-05,-2.80778649841551e-06,0.9999999998712852,2.8079102083347673e-06,1.1509039306623753e-05,-2.807786498140156e-06,1.0000000001065905,-2.4045786893342637e-06,-1.150978953188414e-05,2.4049720191432478e-06,1.0000000002535612,-4.402302541367531e-05,-3.1100023569973715e-06,-1.4587598750670505e-05,2.8015121193242914e-07,-1.4193217404197407e-05,2.9418982352536476e-06,-3.185980311339447e-06,-0.00039337542408827606,0.0001938351353320821,1.400179380327635e-06,1.5701877879983375,1.3703717908716363e-06,-0.0004323641072956556,-0.020045433873650098,0.010168187387579356,0.0001853103831426366,0.009634445804956341,0.00018122605630739545,5.756735372269917e-06,-0.017254309798587653,0.008386608878851851,-3.061231200986884e-08,0.008141495306941453,9.125604144068833e-08,0.0036677524109349833,0.02084059485942499,5.682116053310749,0.0026330735861854015
22,0.022,4.821562915116654e-05,1.5223331795983739e-05,5.056181093882447e-05,0.020421389752246118,2.3688614137624958e-05,4.1995195614283e-05,3.489870791837303e-05,22512.786553699883,0.9996645331763242,5.105860097761871e-05,0.024937342501135745,0.3341355315789291,0.0010008510565679527,0.3309526749879705,2.771061982986822e-06,1.1752592039560028e-05,-3.248338881434165e-06,0.9999999998671271,3.248467482927871e-06,1.175183956813805e-05,-3.2483388811795077e-06,1.0000000001043072,-2.771100157443263e-06,-1.1752592043235907e-05,2.7714876278950307e-06,1.0000000002497889,-4.562274699670965e-05,-3.5644322451591076e-06,-1.5185739155099132e-05,3.125609676105536e-07,-1.4834949479941641e-05,3.4024124587878955e-06,-3.660406291396254e-06,-0.0004137968138405222,0.00020423440391047483,1.6032695108021634e-06,1.5701976057026177,1.5690214718239085e-06,-0.00047442598005680703,-0.020421389752246118,0.010399268578392715,0.00020309013047452835,0.009817704280170134,0.00019864968095227218,5.758105885249659e-06,-0.017253501605917078,0.008386352585771936,-2.760724227181583e-08,0.008140963465116655,8.810319442508065e-08,0.0041485016733509485,0.020839614839601492,5.023407600013067,0.002633007432126549
23,0.023,4.989662997831615e-05,1.5965170425535487e-05,5.2388551706545494e-05,0.020819427619232594,2.4811328834793562e-05,4.329054913771631e-05,3.435133001819218e-05,22871.55268804355,0.9996432864577924,5.371947236569009e-05,0.025442536040937838,0.33413838163972076,0.0010006925370446788,0.33095391932084955,3.1727735168018967e-06,1.1957010942698076e-05,-3.7317397039160483e-06,0.9999999998630164,3.7318736751308464e-06,1.1956255632585011e-05,-3.731739703449367e-06,1.0000000001014264,-3.1728181348619884e-06,-1.1957010946255994e-05,3.173199161710105e-06,1.000000000246172,-4.7162801516120734e-05,-4.06091585800376e-06,-1.5775068898049582e-05,3.471494848232721e-07,-1.547567327212946e-05,3.90764516376266e-06,-4.1787622014148294e-06,-0.0004346162414597548,0.00021487788946276037,1.8249244424032961e-06,1.5702076169683015,1.7858733807630718e-06,-0.0005183559100185754,-0.020819427619232594,0.010643485552285531,0.00022165493160113275,0.01001126568380243,0.00021685190893916336,5.759620477324296e-06,-0.017252676719907344,0.008386091017785839,-2.4390857027740267e-08,0.00814042064153457,8.472195437833836e-08,0.004657083857852529,0.02083861458836321,4.474605830588949,0.002632939978521128
24,0.024,5.152343109067679e-05,1.672571372453994e-05,5.417022660974369e-05,0.021239533265075456,2.5945077395379185e-05,4.451423267117388e-05,3.379314619807742e-05,23249.37034113758,0.9996215900870828,5.6444675756772876e-05,0.025975497348913978,0.33414128733790516,0.0010005193368525093,0.3309552133832409,3.6112443067004563e-06,1.212168952324788e-05,-4.259892461444537e-06,0.9999999998589235,4.260032270409973e-06,1.2120930669753949e-05,-4.259892461037214e-06,1.0000000000978284,-3.6112959413256232e-06,-1.2121689526944576e-05,3.6116699518862205e-06,1.0000000002427019,-4.864141347094009e-05,-4.601258780619457e-06,-1.6355588174643554e-05,3.839722032110851e-07,-1.611565090176304e-05,4.459580804843551e-06,-4.74290841326951e-06,-0.00045585577472483026,0.0002257787030270915,2.0659253216483836e-06,1.5702178321038665,2.0217035257579577e-06,-0.0005641462118546807,-0.021239533265075456,0.010900813564331127,0.00024100087924508736,0.010215135565005954,0.00023583014499488613,5.761285451711506e-06,-0.01725183418117044,0.008385823870656301,-2.0953368794488632e-08,0.008139866206202835,8.110178607311474e-08,0.00519346933612889,0.020837592943009978,4.012268406792913,0.0026328711499530397
25,0.025,5.309545135013417e-05,1.750769499688858e-05,5.5907480163020596e-05,0.021681691807621244,2.7090937123083665e-05,4.566407865999795e-05,3.3223580882708386e-05,23647.978105065748,0.9995994206717879,5.92374826730208e-05,0.026536212541400133,0.33414425175702517,0.0010003308338222578,0.33095655959606,4.088031183346885e-06,1.2245276053590715e-05,-4.834692882482727e-06,0.9999999998548039,4.834838976282339e-06,1.2244512819163667e-05,-4.834692882033527e-06,1.0000000000933786,-4.088090382505708e-06,-1.224527605729435e-05,4.088456828255094e-06,1.000000000239361,-5.0056826546296396e-05,-5.187258772708803e-06,-1.6927297971425226e-05,4.2308417430141853e-07,-1.6755142589301492e-05,5.060195717332315e-06,-5.35469761836189e-06,-0.0004775374665324515,0.0002369499306920832,2.3270493542113224e-06,1.5702282614228755,2.277285360715752e-06,-0.0006117892050923806,-0.021681691807621244,0.011171227664991703,0.00026112403256293873,0.010429319009043961,0.0002555818349577943,5.763107077634991e-06,-0.01725097303165194,0.008385550840577105,-1.7285002172822534e-08,0.008139299529974955,7.723216976421408e-08,0.005757629868650384,0.020836548742462203,3.6189455060832945,0.0026328008710702674
26,0.026000000000000002,5.46122565718458e-05,1.831398193913609e-05,5.760121962542215e-05,0.022145887695190762,2.8250020523534656e-05,4.6737938639701795e-05,3.264205813624972e-05,24069.30590746991,0.9995767548459747,6.210115834885793e-05,0.027124666020851913,0.33414727797905497,0.0010001264082944625,0.33095796037067887,4.604684481712695e-06,1.232642378745652e-05,-5.458028935478865e-06,0.9999999998505992,5.458181729534026e-06,1.2325655185177475e-05,-5.458028934889792e-06,1.0000000000879248,-4.604751755986855e-06,-1.2326423791359647e-05,4.605110126232326e-06,1.0000000002361185,-5.140730350916556e-05,-5.820705778365352e-06,-1.7490200056813343e-05,4.64540063560092e-07,-1.739440666070083e-05,5.711458125427966e-06,-6.015974832434285e-06,-0.0004996833542276422,0.00024840463339543173,2.6090697695216284e-06,1.5702389152435126,2.5533898283488657e-06,-0.0006612772140723944,-0.022145887695190762,0.011454702703348495,0.000282020415310306,0.010653820637081673,0.00027610446763311365,5.765091589950701e-06,-0.017250092314662884,0.008385271624182839,-1.3375992487387361e-08,0.008138719984571385,7.310259982473061e-08,0.006349537988032352,0.02083548082729993,3.2814168311598975,0.0026327290665871263
27,0.027,5.607357131324036e-05,1.9147564321753977e-05,5.925263385940542e-05,0.022632104709713746,2.9423475210965453e-05,4.773368314230975e-05,3.2048001685112e-05,24515.50297313484,0.9995535692708701,6.503896168144584e-05,0.02774084049603432,0.33415036908432316,0.0009999054431145916,0.3309594181089302,5.162748049070132e-06,1.2363790958147547e-05,-6.131780837748124e-06,0.9999999998462333,6.131940703537158e-06,1.2363015831452079e-05,-6.131780836882343e-06,1.0000000000812947,-5.162823857352011e-06,-1.2363790962080165e-05,5.163173693700784e-06,1.0000000002329317,-5.269112610334359e-05,-6.503381935501823e-06,-1.804429697116472e-05,5.083941522862439e-07,-1.8033699552839652e-05,6.415328150573285e-06,-6.728577400343336e-06,-0.000522315458937356,0.0002601558467257834,2.912755783511449e-06,1.5702498038881185,2.8507854050120365e-06,-0.0007126025679090515,-0.022632104709713746,0.011751213330351656,0.00030368601398982076,0.010888644605993609,0.00029739557666317077,5.767245188752387e-06,-0.01724919107491092,0.008384985918557662,-9.216584353213972e-09,0.008138126942601269,6.870258330890335e-08,0.006969166582582634,0.020834388039801203,2.989509260530674,0.002632655661286204
28,0.028,5.7479291667487894e-05,2.0011539759057937e-05,6.0863212978978525e-05,0.023140325969768734,3.061248362566219e-05,4.864920160561632e-05,3.144083494083634e-05,24988.970861075173,0.9995298406355415,6.805414518194181e-05,0.028384717013550175,0.33415352815143895,0.0009996673236283163,0.33096093520311426,5.7637592552062245e-06,1.2356040772321109e-05,-6.8578210634662184e-06,0.9999999998416137,6.85798831559472e-06,1.2355257775140127e-05,-6.857821062689158e-06,1.0000000000732954,-5.763843986098773e-06,-1.2356040775990049e-05,5.764184899614833e-06,1.0000000002297438,-5.390659494691752e-05,-7.237061585345112e-06,-1.8589592019058188e-05,5.547003396290344e-07,-1.8673275818749136e-05,7.1737578198940325e-06,-7.494335000797204e-06,-0.0005454557849071247,0.00027221658072776724,3.238872559494959e-06,1.5702609376827268,3.1702381474255643e-06,-0.0007657576004538684,-0.023140325969768734,0.012060734001983871,0.00032611677598351,0.011133794608160115,0.0003194527424135279,5.769574038959439e-06,-0.01724826835853268,0.008384693421245338,-4.797030179145843e-09,0.008137519777583783,6.402163845174922e-08,0.007616488608409426,0.02083326922398182,2.735285285957673,0.0026325805800205956
29,0.029,5.882949913180165e-05,2.0909097857217368e-05,6.24347686894197e-05,0.023670533933597818,3.1818262561605385e-05,4.948240228262518e-05,3.0819981022496925e-05,25492.402679718987,0.9995055456575832,7.114995492755049e-05,0.02905627499860227,0.33415675825721886,0.0009994114376765647,0.33096251403600346,6.409248995975503e-06,1.2301841406436864e-05,-7.638014354327538e-06,0.9999999998366274,7.638189234422403e-06,1.2301048982026053e-05,-7.638014353072515e-06,1.0000000000637115,-6.40934295249692e-06,-1.230184141013356e-05,6.409674640162066e-06,1.0000000002264835,-5.505202943056897e-05,-8.023511281711861e-06,-1.912608926013526e-05,6.035121436166415e-07,-1.9313388133826226e-05,7.988691074724288e-06,-8.315069651057744e-06,-0.0005691263188407225,0.00028459981971020197,3.588181167159435e-06,1.5702723269565981,3.51251174129486e-06,-0.0008207346502605402,-0.023670533933597818,0.01238323898243471,0.0003493086076644757,0.011389273871240262,0.00034227359386929595,5.772084269884864e-06,-0.017247323213125578,0.008384393830258201,-1.0758860062515127e-10,0.008136897863970328,5.9049293098093263e-08,0.008291476886456092,0.02083212322563451,2.5124743768086426,0.0026325037477158315
30,0.03,6.012447562386604e-05,2.184350309564957e-05,6.396945518397444e-05,0.024222710402058506,3.304206250709925e-05,5.023121215261697e-05,3.0184862779277642e-05,26028.829864517727,0.999480661083798,7.432963051436092e-05,0.02975549230285157,0.3341600624766151,0.0009991371755905263,0.3309641569808481,7.1007417039581355e-06,1.2199866004536375e-05,-8.474217724874222e-06,0.9999999998311399,8.474400387626993e-06,1.2199062360964547e-05,-8.474217723651415e-06,1.0000000000523033,-7.1008450823895866e-06,-1.2199866008477667e-05,7.101167348033677e-06,1.000000000223062,-5.61257676177096e-05,-8.864489800236531e-06,-1.9653793500218342e-05,6.548827041960429e-07,-1.9954287301398505e-05,8.86206377920198e-06,-9.192595711610128e-06,-0.000593349029242781,0.0002973185220574437,3.961438539662321e-06,1.570283982041756,3.87836755185096e-06,-0.000877526060552384,-0.024222710402058506,0.01271870234724171,0.0003732573725028866,0.011655085157910259,0.00036585581055610043,5.774781974785084e-06,-0.017246354687781372,0.008384086844087316,4.861477157043584e-09,0.008136260577166921,5.377508306205755e-08,0.00899410395686583,0.020830948892370204,2.316067169109427,0.0026324250893721445
31,0.031,6.136471971337392e-05,2.2818076853387543e-05,6.546979041350325e-05,0.02479683652156938,3.428516680199662e-05,5.089357683304638e-05,2.953490281269448e-05,26601.678270149285,0.9994551636908794,7.75964050109597e-05,0.03048234525751696,0.3341634438826448,0.0009988439301865147,0.33096586640138287,7.839755353789002e-06,1.20487926742463e-05,-9.368280475374746e-06,0.9999999998249957,9.368470969351291e-06,1.2047975758149032e-05,-9.368280473821545e-06,1.000000000038806,-7.839868223990372e-06,-1.2048792677767789e-05,7.840180998031077e-06,1.0000000002193725,-5.7126166144894075e-05,-9.761748147454636e-06,-2.017271028376122e-05,7.088647842319657e-07,-2.0596222258167248e-05,9.795803728992948e-06,-1.0128719890801854e-05,-0.0006181458657643504,0.0003103856200438388,4.3593974288090305e-06,1.5702959132725216,4.268564676316388e-06,-0.0009361241791917251,-0.02479683652156938,0.01306709798639509,0.0003979588891467094,0.011931230765630164,0.00039019712446542766,5.7776732103900915e-06,-0.017245361833118193,0.008383772161711794,1.0119900982985992e-08,0.008135607293556156,4.8188550418844205e-08,0.009724341972952305,0.02082974507365752,2.1420210364312804,0.0026323445300664187
32,0.032,6.255096413156323e-05,2.3836179028498433e-05,6.693867749266292e-05,0.025392892786955213,3.554889061772574e-05,5.146746049338023e-05,2.8869523498769562e-05,27214.835808924567,0.9994290302860964,8.095350491281256e-05,0.03123680872987931,0.33416690554632106,0.0009985310967606815,0.3309676446518327,8.627801472371743e-06,1.184730448011706e-05,-1.032204419715299e-05,0.9999999998180131,1.0322242447903408e-05,1.1846471952386278e-05,-1.0322044195739378e-05,1.0000000000229268,-8.627923753567763e-06,-1.1847304483725285e-05,8.628227116391773e-06,1.0000000002152916,-5.805160012495314e-05,-1.0717029569739817e-05,-2.0682845885466872e-05,7.655107715744718e-07,-2.123944008070398e-05,1.0791830660060291e-05,-1.1125241249453187e-05,-0.0006435387585513056,0.00032381401965125026,4.7828063583018094e-06,1.570308130985048,4.68385999831574e-06,-0.0009965213586513322,-0.025392892786955213,0.013428399607411438,0.00042340892949277865,0.01221771252635442,0.00041529532199935203,5.780763996414738e-06,-0.017244343701313895,0.008383449482608487,1.567741565823725e-08,0.008134937390519882,4.227924172334221e-08,0.01048216262291003,0.020828510620863817,1.9870432627474746,0.002632261994954272
33,0.033,6.368419460718201e-05,2.4901189709485945e-05,6.837942593875178e-05,0.026010859044303725,3.6834579767134387e-05,5.19508457692706e-05,2.8188147010027045e-05,27872.734500695173,0.9994022377079732,8.44041500974107e-05,0.03201885618179685,0.33417045053658506,0.0009981980730835753,0.33096949407691933,9.466385143319656e-06,1.1594089444066924e-05,-1.1337342785022742e-05,0.9999999998099853,1.1337548573528325e-05,1.1593238649080378e-05,-1.1337342783460637e-05,1.0000000000043443,-9.466516581404662e-06,-1.15940894476977e-05,9.466810787117641e-06,1.0000000002106724,-5.890046305007113e-05,-1.173206956208545e-05,-2.1184207302682445e-05,8.248726808080612e-07,-2.188418599070275e-05,1.18520562575696e-05,-1.2183951205440648e-05,-0.0006695496175956093,0.0003376166003896428,5.2324095750433916e-06,1.5703206455168541,5.125008244243368e-06,-0.0010587099559874616,-0.026010859044303725,0.013802580738392545,0.00044960321674158185,0.012514531806256765,0.0004411482459276278,5.784060315050782e-06,-0.017243299346138937,0.008383118506761643,2.1543754705358285e-08,0.008134250246461661,3.603670615653031e-08,0.011267537071454082,0.02082724438729577,1.8484291867308296,0.002632177409272048
34,0.034,6.476567006565091e-05,2.6016491352650536e-05,6.979577237451628e-05,0.026650714493729542,3.814360935415739e-05,5.234173367868971e-05,2.7490195337579868e-05,28580.450642161162,0.9993747628269739,8.795155378017066e-05,0.03282845972881266,0.33417408192023973,0.0009978442593948382,0.33097141701186805,1.035700501716974e-05,1.1287840539608851e-05,-1.2416002443949026e-05,0.9999999998006788,1.2416215386250572e-05,1.1286968475118786e-05,-1.2416002442152818e-05,0.9999999999827052,-1.0357145157921977e-05,-1.1287840543073094e-05,1.0357430660579148e-05,1.0000000002053482,-5.96711666973615e-05,-1.2808595877022424e-05,-2.1676802247738713e-05,8.870021547942061e-07,-2.2530703361180154e-05,1.2978384164850256e-05,-1.3306633538258034e-05,-0.0006962003320893388,0.00035180621512068263,5.70894699848016e-06,1.5703334672063596,5.592762041600562e-06,-0.001122682332817386,-0.026650714493729542,0.014189614731039864,0.00047653742343676863,0.012821689505418052,0.0004677537973571943,5.78756811044185e-06,-0.017242227822990834,0.008382778934673206,2.7728654299114034e-08,0.008133545240829895,2.9450493610391348e-08,0.012080435915818382,0.020825945228241802,1.7239398786303666,0.0026320906983390018
35,0.035,6.579694420110044e-05,2.718545188567447e-05,7.119190024455763e-05,0.02731243769215702,3.947738227220526e-05,5.2638143538094306e-05,2.67750903126764e-05,29343.82793698408,0.9993465825461822,9.159892247108589e-05,0.03366559019890115,0.33417780276188336,0.0009974690583973835,0.3309734157824143,1.1301153316711776e-05,1.0927255688741866e-05,-1.3559841699262165e-05,0.9999999997898277,1.3560061223739434e-05,1.0926358974483463e-05,-1.3559841697409995e-05,0.9999999999576237,-1.1301301478578493e-05,-1.0927255692001411e-05,1.1301578960176695e-05,1.000000000199129,-6.036214103410931e-05,-1.3948328533019538e-05,-2.2160639140511584e-05,9.519504673957811e-07,-2.3179233723445345e-05,1.4172709992441129e-05,-1.4495064393553906e-05,-0.0007235127697814958,0.00036639568988434355,6.21315416797657e-06,1.5703466063924172,6.087871979321414e-06,-0.0011884308552958715,-0.02731243769215702,0.014589474763660928,0.0005042071694964099,0.01313918605754822,0.0004951099377208521,5.791293288136789e-06,-0.017241128188926994,0.00838243046737193,3.424185526533095e-08,0.008132821754140747,2.2510152684973366e-08,0.012920829152436338,0.020824612001012655,1.6117086414283466,0.0026320017875591344
36,0.036000000000000004,6.67798884070155e-05,2.8411409103574252e-05,7.25724580188938e-05,0.027996006555985165,4.0837327566702755e-05,5.2838112881355235e-05,2.60422536283643e-05,30169.629964161668,0.9993176738019856,9.534945593211624e-05,0.034530217189792184,0.3341816161238469,0.0009970718752517957,0.3309754927048109,1.230031584720237e-05,1.0511037758398345e-05,-1.4770671406871827e-05,0.9999999997771375,1.4770896729339004e-05,1.0510112601544441e-05,-1.477067140472389e-05,0.9999999999286805,-1.2300471091155281e-05,-1.0511037761597175e-05,1.23007414907228e-05,1.0000000001917992,-6.0971834126288815e-05,-1.5152979823105945e-05,-2.2635727101427694e-05,1.019768523775931e-06,-2.3830016771796344e-05,1.543692132727516e-05,-1.575101228765055e-05,-0.000751508776337481,0.00038139782372846495,6.7457621881951745e-06,1.5703600734138468,6.611086670088306e-06,-0.0012559478940966451,-0.027996006555985165,0.015002133844121406,0.0005326080202186042,0.01346702142962582,0.0005232146907668917,5.795241714526675e-06,-0.01723999950269936,0.008382072806423882,4.109310513636814e-08,0.008132079168001224,1.5205228628186808e-08,0.013788686151418927,0.02082324356498408,1.5101687959828638,0.002631910602423358
37,0.037,6.771671600384066e-05,2.96976566632057e-05,7.394257527047902e-05,0.028701398363798356,4.222489867210664e-05,5.293969737799445e-05,2.5291106861230208e-05,31065.730471839757,0.9992880135647558,9.92063471353138e-05,0.035422309124394945,0.3341855250661295,0.0009966521175704844,0.3309776500858357,1.3355972002138117e-05,1.003789455822357e-05,-1.605029476126063e-05,0.999999999762279,1.6050524860094714e-05,1.0036936717423839e-05,-1.6050294759032348e-05,0.999999999895418,-1.3356133100928197e-05,-1.0037894561245458e-05,1.3356397645714058e-05,1.0000000001831182,-6.14987120459709e-05,-1.64242543232464e-05,-2.3102075944747558e-05,1.0905068627684909e-06,-2.448329037132985e-05,1.6772897741924258e-05,-1.7076238112045618e-05,-0.0007802101747012793,0.0003968253885412552,7.307497672479002e-06,1.5703738786089685,7.1631528146599204e-06,-0.0013252258243950678,-0.028701398363798356,0.01542756481279028,0.0005617354842838276,0.013805195121618964,0.0005520661445716147,5.799419216262172e-06,-0.017238840824788472,0.008381705653942105,4.829216029008843e-08,0.008131316865132727,7.525261192253057e-09,0.01468397563709997,0.020821838781638922,1.4179973662999865,0.0026318170685114316
38,0.038,6.861000765896741e-05,3.104743189411684e-05,7.530787593727093e-05,0.029428589758953835,4.364157154122859e-05,5.294097075400668e-05,2.4521071492578714e-05,32041.352912115683,0.9992575788395311,0.00010317278222167789,0.0363418333035686,0.334189532646338,0.0009962091954117227,0.3309798902227981,1.4469594770805116e-05,9.506538835246658e-06,-1.7400507307030466e-05,0.9999999997448884,1.7400740894927355e-05,9.505543583036152e-06,-1.7400507304345643e-05,0.9999999998573404,-1.4469760175726911e-05,-9.50653883831365e-06,1.4470020414159013e-05,1.0000000001728164,-6.194125878222767e-05,-1.7763848900603308e-05,-2.3559696171071565e-05,1.1642156593224101e-06,-2.513929056246978e-05,1.8182510803905223e-05,-1.8472495137899006e-05,-0.0008096387644602332,0.00041269112888671155,7.899082684223592e-06,1.5703880323151345,7.744815268224443e-06,-0.0013962570258533892,-0.029428589758953835,0.01586574034545631,0.0005915850117445905,0.014153706166084988,0.0005816624535645219,5.803831579652453e-06,-0.017237651217438355,0.008381328712596968,5.584878815494014e-08,0.008130534229394614,-5.402175764272254e-10,0.015606665673004328,0.020820396514610238,1.3340707713941937,0.002631721111494022
39,0.039,6.946273782454154e-05,3.246390557209565e-05,7.667448800660449e-05,0.030177556752145958,4.508884268099693e-05,5.284002471392545e-05,2.3731568929765102e-05,33107.37474577912,0.9992263466666983,0.00010725194046072147,0.03728875595600411,0.33419364191962675,0.0009957425212735818,0.33098221540354805,1.5642650747160758e-05,8.915688273436473e-06,-1.882309694645201e-05,0.9999999997245657,1.8823332442834833e-05,8.91465035579922e-06,-1.8823096943548023e-05,0.9999999998139124,-1.5642818552601284e-05,-8.915688276364686e-06,1.5643076390181587e-05,1.0000000001605969,-6.229797615253663e-05,-1.91734527216921e-05,-2.4008598961788863e-05,1.2409447252999549e-06,-2.579825156920795e-05,1.966762408514441e-05,-1.994152902050728e-05,-0.0008398163212123791,0.0004290077618428859,8.521234676217714e-06,1.5704025448682624,8.356817108781957e-06,-0.0014690338826082742,-0.030177556752145958,0.01631663295617435,0.0006221519919941212,0.01451255312785065,0.0006120018405575146,5.808484550045502e-06,-0.017236429744690834,0.008380941685625825,6.377276949401057e-08,0.008129730645807878,-9.001685626444272e-09,0.016556723650327124,0.02081891562972366,1.2574296743821591,0.002631622657134622
40,0.04,7.027830193834513e-05,3.395017370750186e-05,7.804904879693765e-05,0.030948274724042123,4.656822711152223e-05,5.263496886127529e-05,2.292202052729018e-05,34276.71790950859,0.9991942941226745,0.00011144699421076464,0.03826304228506109,0.33419785593863627,0.0009952515100878202,0.3309846279064829,1.6876600136050968e-05,8.264065487484373e-06,-2.031984395145514e-05,0.9999999997008693,2.032007945121189e-05,8.262979082285932e-06,-2.0319843948257842e-05,0.9999999997645546,-1.6876768043319582e-05,-8.264065489999722e-06,1.6877025779071797e-05,1.0000000001461302,-6.256738371290815e-05,-2.0654747260493442e-05,-2.4448796172082954e-05,1.3207435114049443e-06,-2.646040580332617e-05,2.123009317148502e-05,-2.1485077803768824e-05,-0.0008707645959364213,0.00044578797684305854,9.174666427945835e-06,1.570417426602366,8.999899707573347e-06,-0.0015435487832615466,-0.030948274724042123,0.01678021500017263,0.0006534317517281215,0.014881734103666371,0.0006430825987913904,5.81338383119043e-06,-0.01723517547242042,0.00838054427684324,7.207390075798527e-08,0.008128905500578803,-1.7869633259904972e-08,0.01753411627923629,0.020817394995040525,1.1872508806448951,0.002631521631291526
41,0.041,7.10605440469862e-05,3.5509251337404036e-05,7.943870499194078e-05,0.031740718427675924,4.808125626748418e-05,5.232393062445904e-05,2.209184760795043e-05,35564.85531246531,0.9991613983205884,0.00011576110887992045,0.03926465651206407,0.3342021777534376,0.0009947355792135056,0.33098713000055596,1.8172896762091995e-05,7.550398021471949e-06,-2.189252097251071e-05,0.9999999996733193,2.1892754214232287e-05,7.54925669497683e-06,-2.1892520968823274e-05,0.9999999997086432,-1.817306204008623e-05,-7.550398023884949e-06,1.817332240494629e-05,1.0000000001290557,-6.274801867400814e-05,-2.220940630629723e-05,-2.4880300324992e-05,1.4036611088541956e-06,-2.712598387275895e-05,2.287176567231402e-05,-2.310487192464086e-05,-0.0009025053143640972,0.0004630444355196818,9.860085980838916e-06,1.5704326878490877,9.674802801565877e-06,-0.0016197941208720367,-0.031740718427675924,0.017256458676623246,0.0006854195528930804,0.015261246721797768,0.000674903093992529,5.818535084581045e-06,-0.01723388746837053,0.00838013619065161,8.07619965183197e-08,0.008128058181123544,-2.715456557127096e-08,0.018538809582051535,0.020815833480902643,1.122824709302414,0.002631417959919948
42,0.042,7.181378438062984e-05,3.714406823218107e-05,8.085110655955499e-05,0.03255486199099805,4.962947585711939e-05,5.19050551797779e-05,2.124047148359944e-05,36990.475679774965,0.9991276364109626,0.0001201974428877867,0.040293561916469676,0.3342066104114735,0.0009941941484307205,0.3309897239452848,1.9532988076775837e-05,6.773418345762394e-06,-2.3542893048400515e-05,0.9999999996413909,2.3543121381293405e-05,6.772215006393273e-06,-2.3542893044399965e-05,0.9999999996455078,-1.9533147520979615e-05,-6.773418348161517e-06,1.9533413719408088e-05,1.0000000001089777,-6.283843581367243e-05,-2.3839095971630708e-05,-2.5303124605746685e-05,1.4897462512922273e-06,-2.7795214587376186e-05,2.4594481230255577e-05,-2.48026342175926e-05,-0.0009350601763550953,0.0004807897715511468,1.0578196571462815e-05,1.5704483389372295,1.0382264568007786e-05,-0.0016977622929517414,-0.03255486199099805,0.017745336031464963,0.0007181105906238985,0.015651088141695607,0.0007074617664419089,5.8239439287814924e-06,-0.017232564802187607,0.008379717132050666,8.984689196897064e-08,0.008127188076091864,-3.686700495530848e-08,0.019570768888312332,0.02081422995997457,1.063536648850894,0.002631311569073757
43,0.043000000000000003,7.254284629253242e-05,3.885746638141175e-05,8.229439374468063e-05,0.03339067891924175,5.121444369846812e-05,5.1376505378219055e-05,2.036731347590036e-05,38576.367667620594,0.9990929855823953,0.00012475914762782696,0.041349720872522845,0.33421115695750414,0.0009936266399340333,0.3309924119907594,2.095831516557567e-05,5.9318638543359725e-06,-2.5272717617763618e-05,0.999999999604516,2.527293796560661e-05,5.930590703435296e-06,-2.5272717613157226e-05,0.9999999995744292,-2.095846505533188e-05,-5.931863856193861e-06,2.0958740807930365e-05,1.0000000000854667,-6.28372073943062e-05,-2.554547469995098e-05,-2.5717282855330925e-05,1.57904731672809e-06,-2.846832496500851e-05,2.6400071530977933e-05,-2.6580079919056043e-05,-0.0009684508552743371,0.0004990365905113078,1.1329696562632689e-05,1.570464390192283,1.1123021701063042e-05,-0.00177744570146344,-0.03339067891924175,0.01824681896016105,0.0007514999911698735,0.01605125505355303,0.0007407571330552561,5.829615938734067e-06,-0.017231206545458056,0.008379286806648381,9.933844550784634e-08,0.008126294575391987,-4.701749369494656e-08,0.020629958830985104,0.020812583307289228,1.0088523916500007,0.002631202384907644
44,0.044,7.325308181545349e-05,4.065219908247304e-05,8.377717640087032e-05,0.03424814209736782,5.2837727548895874e-05,5.0736461671376215e-05,1.9471794937197327e-05,40350.61252417997,0.999057423062243,0.00012944936743043638,0.042433094882801226,0.3342158204335511,0.0009930324783258716,0.33099519637765124,2.245031275638354e-05,5.024476859460947e-06,-2.7083744527978126e-05,0.9999999995620774,2.7083953352804925e-05,5.023125343169704e-06,-2.7083744522599298e-05,0.9999999994946362,-2.2450448810549604e-05,-5.024476861160976e-06,2.245073839846068e-05,1.0000000000580542,-6.27429230783405e-05,-2.733019327324105e-05,-2.6122789565707905e-05,1.6716123279959976e-06,-2.9145540238960507e-05,2.8290360313100426e-05,-2.8438916671877345e-05,-0.001002698997371705,0.0005177974697217455,1.2115279372435167e-05,1.570480851935961,1.1897809490529209e-05,-0.0018588367528213014,-0.03424814209736782,0.018760879210437655,0.0007855828098024794,0.01646174367797286,0.000774787789466167,5.835556645048466e-06,-0.017229811771743472,0.008378844920671053,1.0924654139331411e-07,0.008125377070214816,-5.761659662462147e-08,0.02171634334386126,0.020810892400291575,0.9583055521737299,0.0026310903336789525
45,0.045,7.395039493369986e-05,4.253093142656148e-05,8.530850507927715e-05,0.03512722379237118,5.450090294632047e-05,4.998312204020097e-05,1.855333727079969e-05,42348.21867834154,0.999020926117301,0.0001342712395266806,0.04354364460850024,0.3342206038788449,0.0009924110906098446,0.33099807933722225,2.401040922750397e-05,4.050004592137668e-06,-2.8977716045819335e-05,0.9999999995134091,2.8977909309639173e-05,4.048565347240796e-06,-2.8977716039966896e-05,0.9999999994053046,-2.4010526556211982e-05,-4.0500045935532025e-06,2.4010834869026e-05,1.0000000000262328,-6.255418984746353e-05,-2.9194894819554898e-05,-2.6519659874379986e-05,1.7674889559041747e-06,-2.9827083864183238e-05,3.0267163378166302e-05,-3.0380844529771803e-05,-0.0010378262211640761,0.0005370849581067224,1.2935633401160175e-05,1.5704977344857265,1.2707361902662302e-05,-0.0019419278578944566,-0.03512722379237118,0.01928748838497686,0.0008203540287250079,0.01688254976553378,0.0008095524121330923,5.8417715332739394e-06,-0.01722837955661729,0.00837839118097384,1.1958109247379964e-07,0.008124434953058871,-6.867490386718668e-08,0.022829885659670705,0.02080915611888392,0.9114875312201884,0.0026309753417497117
46,0.046,7.464126149074038e-05,4.4496241966953746e-05,8.689783349491964e-05,0.03602789565561168,5.6205551077400545e-05,4.9114701923308815e-05,1.761136195152204e-05,44613.401869336696,0.9989834720544876,0.0001392278940127101,0.044681329896812456,0.33422551032977244,0.000991761906183882,0.3310010630913331,2.5640026613427125e-05,3.0071991967695055e-06,-3.0956366869450136e-05,0.9999999994577948,3.095653999279734e-05,3.005661996402509e-06,-3.0956366862753886e-05,0.9999999993055544,-2.564011967022048e-05,-3.00719919783983e-06,2.564045225433853e-05,0.9999999999894564,-6.226963192146329e-05,-3.114121482037735e-05,-2.6907909558449017e-05,1.866724520298281e-06,-3.0513177523604202e-05,3.233228860071659e-05,-3.240755596178483e-05,-0.0010738541168196878,0.0005569115760508404,1.3791441956121648e-05,1.5705150481543229,1.355241166310813e-05,-0.002026711432013026,-0.03602789565561168,0.01982661794411794,0.0008558085549614733,0.017313668596374857,0.0008450497604458284,5.848266043152979e-06,-0.017226908977700416,0.008377925295050817,1.3035204299849924e-07,0.00812346761775499,-8.020303365225918e-08,0.023970548308945887,0.020807373345470143,0.8680391068416539,0.002630857335588418
47,0.047,7.533274448745457e-05,4.655062535250824e-05,8.855497226424781e-05,0.03695012872513763,5.7953256688244186e-05,4.8129434146256e-05,1.6645290545998245e-05,47202.82920388677,0.9989450382215246,0.00014432245381483587,0.04584610980553739,0.33423054281982456,0.0009910843568333779,0.3310041498524533,2.7340580614154675e-05,1.8948177293864887e-06,-3.30214241373028e-05,0.999999999394462,3.3021571957786276e-05,1.8931714261503918e-06,-3.30214241293538e-05,0.9999999991944468,-2.7340643144168912e-05,-1.8948177301740532e-06,2.7341006254788525e-05,0.9999999999471337,-6.18878906773479e-05,-3.3170781117991804e-05,-2.7287555030508504e-05,1.9693659918713476e-06,-3.1204041135592e-05,3.4487535938479655e-05,-3.452073585676249e-05,-0.0011108042455448253,0.0005772898152593435,1.4683383174360544e-05,1.5705328032493027,1.4433690341953416e-05,-0.002113179894977653,-0.03695012872513763,0.02037823920850304,0.000891941218238895,0.017755094979837797,0.0008812786788452867,5.855045567858735e-06,-0.017225399114699048,0.008377446971046086,1.4156937149943568e-07,0.008122474459491767,-9.221163520651328e-08,0.02513829311946358,0.020805542965002463,0.8276434229365365,0.002630736241772176
48,0.048,7.603250337053007e-05,4.869649571467988e-05,9.029003413267437e-05,0.03789389342783976,5.97456060537462e-05,4.7025568854192475e-05,1.565454473287341e-05,50190.338593751985,0.9989056020076208,0.00014955803465525357,0.0470379426249102,0.33423570437954797,0.0009903778767240622,0.3310073418236702,2.9113480603637498e-05,7.116221549807733e-07,-3.5174607439181216e-05,0.999999999322585,3.5174724167869075e-05,7.098546212988555e-07,-3.517460742980733e-05,0.999999999070984,-2.9113505589821346e-05,-7.11622155195879e-07,2.911390624338317e-05,0.9999999998986314,-6.140762457296223e-05,-3.52852139225725e-05,-2.7658613333536586e-05,2.0754599928335838e-06,-3.1899892860401066e-05,3.6734697442648364e-05,-3.67220615278333e-05,-0.001148698138972665,0.0005982321386210143,1.5612129943214245e-05,1.5705510100725566,1.535192844090064e-05,-0.002201325671070815,-0.03789389342783976,0.02094232336167084,0.0009287467688537024,0.01820682325398784,0.0009182380989472252,5.862115453213363e-06,-0.017223849049440146,0.008376955917763657,1.532430937565442e-07,0.008121454874840272,-1.0471139172735773e-07,0.02633308121597029,0.02080366386502551,0.7900201155198898,0.002630611986988382
49,0.049,7.674879577706977e-05,5.0936190613564946e-05,9.211337127394581e-05,0.038859159581739106,6.158418501572081e-05,4.5801373442084646e-05,1.463854632281002e-05,53673.980605577926,0.9988651408441546,0.0001549377450184238,0.04825678589721191,0.3342409980364943,0.0009896419023949945,0.3310106411986987,3.096012963421657e-05,-5.436206564901624e-07,-3.74176288273631e-05,0.9999999992412775,3.7417708003123696e-05,-5.455225893548354e-07,-3.7417628816603847e-05,0.9999999989341039,-3.096010924258997e-05,5.436206569828239e-07,3.0960555273129575e-05,0.9999999998432684,-6.08275090674959e-05,-3.748612581940111e-05,-2.802110213617759e-05,2.185052800550394e-06,-3.260094910673636e-05,3.9075557268197904e-05,-3.9013202716906176e-05,-0.0011875572985544042,0.0006197509800736952,1.6578349818757372e-05,1.5705696789198418,1.630785548259014e-05,-0.0022911411890728702,-0.038859159581739106,0.02151884145268093,0.0009662198755431272,0.018668847285236198,0.0009559270416895006,5.869480996891265e-06,-0.017222257865909953,0.008376451844678638,1.6538326583384422e-07,0.008120408261779984,-1.1771302342837873e-07,0.027554873020466428,0.020801734935723924,0.7549203699657219,0.0026304844980368906
50,0.05,7.749047013945463e-05,5.327197536722759e-05,9.403550564526259e-05,0.03984589639813736,6.347057710392933e-05,4.445513248802136e-05,1.3596717278481617e-05,57786.83516887212,0.9988236322053561,0.00016046468611809127,0.049502596434031106,0.3342464268151726,0.0009888758727511666,0.3310140501618908,3.28819244477252e-05,-1.8721389318798742e-06,-3.975219282859044e-05,0.9999999991495936,3.975222726957111e-05,-1.874189537481863e-06,-3.975219281567041e-05,0.99999999878268,-3.288184996850776e-05,1.8721389324887622e-06,3.288235008552798e-05,0.9999999997803168,-6.0146236545544074e-05,-3.977512177569167e-05,-2.8375039728079088e-05,2.298190347654631e-06,-3.3307424539235924e-05,4.1511891684378274e-05,-4.139582159918501e-05,-0.0012274031949525415,0.0006418587444723651,1.7582704942087145e-05,1.5705888200803098,1.7302200102060936e-05,-0.002382618882278832,-0.03984589639813736,0.02210776439866987,0.0010043551233297713,0.019141160467906263,0.0009943446194707957,5.877147447603029e-06,-0.01722062465029028,0.008375934461947615,1.7799998719898875e-07,0.008119334019723952,-1.3122729066859382e-07,0.028803628252664547,0.02079975506996754,0.7221227439401245,0.002630353701831738
51,0.051000000000000004,7.826694755225014e-05,5.570604760905133e-05,9.606705376646338e-05,0.04085407248372807,6.540636175015073e-05,4.2985147687942004e-05,1.2528479734519299e-05,62714.19557222153,0.9987810536089914,0.00016614195186493095,0.05077533033147897,0.334251993737003,0.0009880792290562848,0.3310175708882459,3.488025548081808e-05,-3.2751559961852195e-06,-4.217999645250714e-05,0.9999999990465251,4.217997820837453e-05,-3.2773707210644043e-06,-4.21799964374119e-05,0.999999998615518,-3.488011726947793e-05,3.27515599743769e-06,3.488068111728859e-05,0.9999999997089994,-5.936251624238942e-05,-4.2153799147595064e-05,-2.8720445016450213e-05,2.414918223851934e-06,-3.4019532084594145e-05,4.4045469085244975e-05,-4.387157278770564e-05,-0.0012682572674362696,0.0006645678074597238,1.8625851953452462e-05,1.5706084438360335,1.833569014036711e-05,-0.002475751188520636,-0.04085407248372807,0.022709062987358704,0.001043147011365319,0.01962375572379599,0.0010334900383061724,5.885120004264428e-06,-0.017218948490996044,0.008375403480419114,1.9110340391733916e-07,0.008118231549544452,-1.452649971568994e-07,0.030079305930671985,0.020797723163357817,0.6914296230970832,0.0026302195254030657
52,0.052000000000000005,7.908819140970094e-05,5.8240541944280805e-05,9.821864765115139e-05,0.04188365584273844,6.739311260207472e-05,4.138973778922215e-05,1.1433256017039434e-05,68721.96824484736,0.9987373826170444,0.00017197262883482994,0.05207494298364326,0.33425770182027004,0.0009872514149252992,0.33102120554342046,3.69565068738531e-05,-4.753890278319517e-06,-4.470272920586993e-05,0.999999998930998,4.470264950514443e-05,-4.75628580886428e-06,-4.4702729187870025e-05,0.9999999984313535,-3.6956294287632833e-05,4.753890280083731e-06,3.6956932508436235e-05,0.9999999996284863,-5.847507416872899e-05,-4.462374768695015e-05,-2.9057337520677073e-05,2.5352816785864716e-06,-3.473748293909023e-05,4.66780500002964e-05,-4.64421033378968e-05,-0.001310140923279008,0.0006878905153393197,1.9708441904222174e-05,1.5706285604615353,1.9409052740362062e-05,-0.0025705305501911566,-0.04188365584273844,0.023322707879595946,0.0010825899507697126,0.020116625501751802,0.0010733625999949546,5.893403815148097e-06,-0.01721722847871362,0.008374858611644817,2.047037119268604e-07,0.008117100253599126,-1.5983699323789077e-07,0.031381864371953685,0.020795638114275494,0.6626642020732879,0.0026300818958991065
53,0.053,7.996466356612252e-05,6.087753459654816e-05,0.00010050085391576075,0.04293461387898552,6.94323959464318e-05,3.9667238527290135e-05,1.0310468663488725e-05,76205.87124100822,0.9986925968364012,0.00017795979623778013,0.05340138909430281,0.33426355408007785,0.0009863918763167786,0.3310249562837389,3.911205647710858e-05,-6.309555311556636e-06,-4.7322073101430107e-05,0.9999999988018698,4.732192229930779e-05,-6.312149645727738e-06,-4.7322073079976964e-05,0.9999999982288489,-3.9111757811411264e-05,6.3095553134544236e-06,3.911248210985985e-05,0.9999999995378948,-5.748265303767708e-05,-4.7186549547881436e-05,-2.9385737369658216e-05,2.659325621959762e-06,-3.546148657531136e-05,4.941138710519387e-05,-4.9109052752168214e-05,-0.0013530755371579935,0.0007118391849511205,2.0831120166675206e-05,1.5706491802233125,2.0523014444650154e-05,-0.0026669494142714145,-0.04293461387898552,0.023948669611800755,0.0011226782624530315,0.02061976177724831,0.0011139617042880935,5.902003977018258e-06,-0.017215463706438467,0.008374299567890162,2.1881116038847537e-07,0.008115939535756808,-1.7495417925391902e-07,0.032711261194381884,0.020793498823927253,0.6356679034699781,0.0026299407405880435
54,0.054,8.090726615039047e-05,6.36190479594075e-05,0.000102924093288168,0.044006913397909284,7.152576924550064e-05,3.781600256203533e-05,9.159540442092527e-06,85781.67277243601,0.9986466739195334,0.00018410652588738682,0.05475462268715904,0.33426955352830684,0.0009855000615253539,0.3310288252562033,4.134827586099732e-05,-7.943359734863265e-06,-5.003970267036806e-05,0.9999999986579302,5.003947019357099e-05,-7.946172257487782e-06,-5.003970264496352e-05,0.9999999980065924,-4.1347878281522483e-05,7.943359737591985e-06,4.1348701491306095e-05,0.9999999994362874,-5.6384012192600697e-05,-4.9843779293464114e-05,-2.970566529703067e-05,2.7870946257342677e-06,-3.619175074930795e-05,5.224722523262419e-05,-5.187405298453028e-05,-0.0013970824505559027,0.0007364261035495473,2.1994526341605093e-05,1.5706703133793645,2.167830129571331e-05,-0.00276500023236207,-0.044006913397909284,0.024586918598426766,0.0011634061749298862,0.021133156051932545,0.0011552868510631585,5.91092553425005e-06,-0.01721365326951278,0.008373726062144813,2.3343605511917456e-07,0.008114748801423636,-1.9062750899044989e-07,0.034067453317432994,0.020791304196392527,0.6102981635302603,0.0026297959868597652
55,0.055,8.192726871287101e-05,6.646705498600087e-05,0.00010549856282084148,0.04510052060859972,7.367477979122729e-05,3.5834399415417484e-05,7.979894371186519e-06,98462.85956700433,0.9985995915651816,0.0001904158821709796,0.05613459711475121,0.33427570317356975,0.0009845754211739368,0.3310328145985048,4.36665303200634e-05,-9.656507300448425e-06,-5.285728497383957e-05,0.9999999984978943,5.285695926346598e-05,-9.659558856907335e-06,-5.28572849437717e-05,0.999999997763094,-4.3666019794076756e-05,9.656507303473782e-06,4.36669559474856e-05,0.9999999993226669,-5.517792753528816e-05,-5.259700390216552e-05,-3.00171426384499e-05,2.918632927142752e-06,-3.692848150673729e-05,5.518730138315538e-05,-5.4738728445247885e-05,-0.0014421829711645025,0.0007616635286839184,2.319929416374427e-05,1.5706919701787176,2.287563893823427e-05,-0.002864675460717604,-0.04510052060859972,0.02523742513437109,0.001204767822139176,0.02165679935320601,0.0011973376425209602,5.920173477932771e-06,-0.017211796265665047,0.008373137808134362,2.4858876210120295e-07,0.008113527457569573,-2.0686799319832818e-07,0.03545039696351088,0.020789053138672537,0.5864265260410003,0.00262964756222801
56,0.056,8.303622107573475e-05,6.942348337036225e-05,0.00010823416306237722,0.04621540112573973,7.588096347971673e-05,3.37208154102026e-05,6.770953738618396e-06,116043.59335925778,0.9985513275190413,0.00019689092202032128,0.05754126506612501,0.33428200602117103,0.0009836174082057906,0.33103692643903354,4.606817888408443e-05,-1.1450196869766671e-05,-5.5776479614522145e-05,0.9999999983204032,5.577604806696759e-05,-1.1453509846919702e-05,-5.577647957868345e-05,0.9999999974967824,-4.60675401083765e-05,1.1450196873546634e-05,4.606860450823147e-05,0.9999999991959805,-5.386319145633811e-05,-5.544778277413785e-05,-3.0320191327037893e-05,3.05398442801018e-06,-3.7671883191738424e-05,5.823334473629735e-05,-5.770469600553137e-05,-0.0014883983722902422,0.0007875636880812851,2.4446051404978008e-05,1.5707141608609514,2.411575272359978e-05,-0.0029659675602834866,-0.04621540112573973,0.025900159397366774,0.0012467572412337385,0.02219068223376989,0.0012401137853655113,5.929752744956079e-06,-0.01720989179504686,0.008372534520330231,2.642797110760001e-07,0.008112274912754373,-2.2368670320140672e-07,0.036860047659306866,0.020786744560736144,0.563936996292074,0.002629495394331894
57,0.057,8.424585307369552e-05,7.249021948349645e-05,0.00011114043225073485,0.04735151997157237,7.814584370647126e-05,3.147365360930431e-05,5.532142121002228e-06,142029.69399952024,0.9985018595744443,0.0002035346948829058,0.058974578573492274,0.3342884650730651,0.000982625477876726,0.33104116289689006,4.855457432384469e-05,-1.3325622421955785e-05,-5.8798938747717244e-05,0.9999999981240211,5.87983876542062e-05,-1.3329220827799915e-05,-5.8798938704965276e-05,0.9999999972060051,-4.8553790650153205e-05,1.3325622425827688e-05,4.8554999943550836e-05,0.999999999055112,-5.243861276527095e-05,-5.8397667737636306e-05,-3.0614833890996174e-05,3.193192698403213e-06,-3.842215845190358e-05,6.13870766615675e-05,-6.077356500226997e-05,-0.0015357498922618147,0.0008141387795316232,2.5735419775362474e-05,1.5707368956557226,2.53993678166132e-05,-0.0030688689967385972,-0.04735151997157237,0.02657509145033808,0.0012893683703844659,0.022734794771192935,0.001283615093013419,5.939668217083106e-06,-0.017207938960273464,0.008371915913961588,2.8051939920811744e-07,0.008110990577154762,-2.41094774575215e-07,0.03829636023727333,0.020784377375570103,0.5427246152441982,0.002629339410938104
58,0.058,8.556796325939302e-05,7.566911204774944e-05,0.00011422648928534787,0.04850884157780466,8.047093038265448e-05,2.909133375614983e-05,4.262883402668889e-06,184319.17948186104,0.9984511655730465,0.0002103502426938376,0.06043448901793,0.33429508332781654,0.0009815990877469535,0.33104552608189647,5.112706315779647e-05,-1.528397305117224e-05,-6.192630709289659e-05,0.9999999979072309,6.192562157726548e-05,-1.528788260047459e-05,-6.192630704266675e-05,0.9999999968890226,-5.11261165175221e-05,1.5283973055637418e-05,5.112748877283968e-05,0.9999999988988819,-5.0903016622250163e-05,-6.144820305509333e-05,-3.090109345016412e-05,3.3363009775366235e-06,-3.917950824713832e-05,6.465021072969961e-05,-6.394693724280932e-05,-0.0015842587338396193,0.0008414009707753504,2.7068014821926647e-05,1.57076018478229,2.672720930440915e-05,-0.003173372240539349,-0.04850884157780466,0.027262191243727134,0.0013325950465641742,0.023289126567484955,0.0013278414877959473,5.949924720005985e-06,-0.01720593686646163,0.008371281705025794,2.9731839483934354e-07,0.008109673862590793,-2.591034109163745e-07,0.03975928883712957,0.020781950499226202,0.5226942208105115,0.0026291795399425825
59,0.059000000000000004,8.701429953258633e-05,7.896197553525679e-05,0.00011750098681958865,0.04968732978747875,8.285771907026845e-05,2.6572292216152767e-05,2.9626017947156833e-06,265217.53957762837,0.9983992234055116,0.00021734059984828698,0.061920947134241434,0.3343018637805615,0.000980537697672887,0.3310500180946073,5.378698566271822e-05,-1.7326432973252537e-05,-6.516022194835713e-05,0.9999999976684347,6.515938590005463e-05,-1.733068117318673e-05,-6.516022188848559e-05,0.9999999965440086,-5.3785856486157354e-05,1.732643297822599e-05,5.3787411272099295e-05,0.9999999987260457,-4.9255244470969295e-05,-6.460092542914537e-05,-3.117899371291033e-05,3.483352175433798e-06,-3.9944131855192776e-05,6.802445272390926e-05,-6.722640700977736e-05,-0.001633946063627098,0.0008693623993931479,2.8444445825255057e-05,1.5707840384490388,2.8100002307580087e-05,-0.003279469766968041,-0.04968732978747875,0.027961428617797605,0.0013764310033284098,0.023853666748630535,0.0013727930031709385,5.960527022387086e-06,-0.017203884621269133,0.008370631610299818,3.146873413195515e-07,0.008108324182552777,-2.7772388768971473e-07,0.041248786907393684,0.020779462850870383,0.5037593686577481,0.002629015709372427
60,0.06,8.859643544306937e-05,8.237059329200758e-05,0.00012097207534177167,0.050886947856828534,8.530769023394198e-05,2.3914981918626393e-05,1.63072185399071e-06,481833.7444475875,0.9983460110121944,0.00022450879317451202,0.06343390301512533,0.33430880942296937,0.0009794407697989813,0.3310546410263212,5.6535675878155445e-05,-1.94541815261573e-05,-6.850231319832645e-05,0.9999999974059487,6.850130920826404e-05,-1.9458797764847213e-05,-6.850231312776634e-05,0.9999999961690442,-5.653434301440947e-05,1.945418153132504e-05,5.653610148032007e-05,0.999999998535293,-4.749415397192758e-05,-6.785736400869162e-05,-3.144855897335708e-05,3.63438887462073e-06,-4.071622688053199e-05,7.151150065128267e-05,-7.061356106596311e-05,-0.0016848330114839266,0.0008980351726980481,2.9865315693845078e-05,1.570808466853003,2.951847209352074e-05,-0.003387154056185752,-0.050886947856828534,0.028672773304900173,0.0014208698685900221,0.024428403964179016,0.001418469785940654,5.971479834886078e-06,-0.017201781334933913,0.00836996534735094,3.326369609166744e-07,0.008106940952228366,-2.969675561554332e-07,0.042764807206976105,0.020776913352831362,0.48584138943472754,0.0026288478473877083
61,0.061,9.032564651987693e-05,8.589672038846223e-05,0.00012464737860351264,0.05210765845711608,8.782230860537632e-05,2.1117872299476813e-05,2.6666850183927207e-07,2946503.774478596,0.9982915063838315,0.00023185784190744307,0.06497330611471704,0.3343159232432053,0.0009783077685493787,0.3310593969590922,5.9374461615302465e-05,-2.1668393171747624e-05,-7.195420332983815e-05,0.9999999971180011,7.195301261941095e-05,-2.1673408811366535e-05,-7.195420324656419e-05,0.9999999957621176,-5.937290224797638e-05,2.166839317715996e-05,5.937488720947348e-05,0.9999999983252422,-4.561861893653818e-05,-7.121904039476303e-05,-3.170981410866025e-05,3.7894533322425627e-06,-4.149598926025052e-05,7.511304475422089e-05,-7.410997865925165e-05,-0.0017369406699410427,0.0009274313676297723,3.133122085623465e-05,1.5708334801793897,3.0983344191998116e-05,-0.003496417593288542,-0.05210765845711608,0.02939619493172419,0.001465905162389571,0.025013326386801565,0.0014648720984773765,5.982787809172201e-06,-0.01719962612031407,0.008369282634548435,3.511780588060483e-07,0.008105523588529584,-3.1684584737661166e-07,0.04430730180679775,0.020774300930650372,0.46886856303658403,0.0026286758822834447
62,0.062,9.22127913052506e-05,8.954208620789281e-05,0.00012853398026501555,0.05334942367638009,9.040302265645232e-05,1.817944924586973e-05,1.130132957289174e-06,695265.7608513141,0.9982356875622209,0.00023939075766281706,0.06653910525151525,0.33432320822589523,0.0009771381606194394,0.33106428796574133,6.230466446455196e-05,-2.3970237500225977e-05,-7.551750744161367e-05,0.9999999968027313,7.551610979294775e-05,-2.3975685970973465e-05,-7.55175073438326e-05,0.9999999953211208,-6.230285402501632e-05,2.3970237505620967e-05,6.23050900493416e-05,0.9999999980944414,-4.3627529263567943e-05,-7.468746864627558e-05,-3.196278457634483e-05,3.948587481715174e-06,-4.228361327102474e-05,7.883076752199849e-05,-7.771723152761895e-05,-0.0017902900936174228,0.0009575630306512682,3.284275115089252e-05,1.5708590886011016,3.24953445129498e-05,-0.0036072528683672935,-0.05334942367638009,0.03013166302149594,0.0015115302946578715,0.025608421711826833,0.0015120003209516794,5.9944555369218476e-06,-0.01719741809292684,0.008368583191074136,3.703215271460512e-07,0.00810407151012026,-3.373702763138629e-07,0.04587622209135943,0.02077162451312975,0.4527753935647027,0.0026284997424912367
63,0.063,9.4268201754043e-05,9.330839678480158e-05,0.00013263842117761703,0.05461220502125576,9.305126417493388e-05,1.5098215039824824e-05,2.5602568171152446e-06,306901.1759574963,0.9981785326409128,0.0002471105444118602,0.06813124861095925,0.33433066735208894,0.0009759314149671787,0.3310693161098689,6.532759980348857e-05,-2.636087923058028e-05,-7.91938332587172e-05,0.999999996458185,7.91922069404829e-05,-2.6366796128413084e-05,-7.91938331437096e-05,0.9999999948438459,-6.532551188164707e-05,2.6360879236042925e-05,6.532802537723148e-05,0.999999997841366,-4.151979087391178e-05,-7.826415528568891e-05,-3.220749641225096e-05,4.1118329339676455e-06,-4.307929153720863e-05,8.266634370241189e-05,-8.143688390419059e-05,-0.0018449022986386785,0.0009884421776474408,3.440048971386331e-05,1.5708853022782585,3.405519946651365e-05,-0.0037196523765716367,-0.05461220502125576,0.03087914699617249,0.001557738562970788,0.026213677156861744,0.001559854953563856,6.006487548802891e-06,-0.017195156370989447,0.008367866736934394,3.900783492321131e-07,0.008102584137443343,-3.585524459994078e-07,0.047471518760442796,0.020768883032383667,0.4375019711661831,0.0026283193565813604
64,0.064,9.650158728256855e-05,9.719733690711097e-05,0.00013696670635555792,0.055895963418656075,9.576844793815294e-05,1.1872688304451207e-05,4.024276951111494e-06,195252.21313667684,0.9981200197658936,0.0002550201984565079,0.069749683747465,0.334338303599227,0.0009746870028046764,0.3310744834458656,6.844457680310612e-05,-2.884147821413663e-05,-8.298478114232566e-05,0.9999999960823122,8.298290283606092e-05,-2.8847901400071152e-05,-8.298478100788352e-05,0.999999994327984,-6.844218305661036e-05,2.8841478219535088e-05,6.844500236413698e-05,0.9999999975644145,-3.9294325649086304e-05,-8.195059930463848e-05,-3.244397622748085e-05,4.279230979497914e-06,-4.388321503802666e-05,8.662144031349775e-05,-8.527049252236911e-05,-0.0019007982620573346,0.0010200807938260316,3.6005012864166355e-05,1.57091213135772,3.5663636085297384e-05,-0.003833608618178523,-0.055895963418656075,0.0316386161785909,0.0016045231503030483,0.026829079461315377,0.0016084366187837321,6.0188883134449815e-06,-0.017192840075457908,0.008367132992970525,4.104596037294335e-07,0.008101060892748233,-3.8040405179103075e-07,0.04909314183068809,0.020766075423886504,0.4229934090403367,0.002628134653264326
65,0.065,9.892195602123524e-05,0.00010121057199827964,0.00014152432040920085,0.057200659217495356,9.855597147784711e-05,8.501403950229934e-06,5.522766794022374e-06,142275.10233784412,0.9980601271362737,0.0002631227084051539,0.07139435758619138,0.33434611994110697,0.000973404397589312,0.3310797920189253,7.165689843713352e-05,-3.141318943677973e-05,-8.689194410527179e-05,0.9999999956729655,8.688978882652038e-05,-3.1420159139858295e-05,-8.689194394806837e-05,0.9999999937711206,-7.165416849576747e-05,3.1413189441742775e-05,7.165732398306535e-05,0.9999999972619079,-3.6950071368835324e-05,-8.57482921693926e-05,-3.2672251207066516e-05,4.450822590575756e-06,-4.469557311402814e-05,9.069771665535319e-05,-8.921960662103331e-05,-0.00195799892127483,0.0010524908336206156,3.765688998694393e-05,1.5709395859726059,3.732138214889322e-05,-0.003949114098664203,-0.057200659217495356,0.03241003979458402,0.001651877122777574,0.027454614885989832,0.0016577460635958407,6.0316622363972856e-06,-0.017190468330069052,0.008366381680871185,4.31476468991796e-07,0.008099501200119005,-4.0293688571304643e-07,0.0507410406372481,0.02076320062652511,0.4091993456451504,0.00262794556139303
66,0.066,0.0001015375558224522,0.00010534974979690208,0.00014631625003623988,0.0585262521903831,0.00010141521492962422,4.982913121530049e-06,7.056299323591237e-06,111355.18529027121,0.9979988330049749,0.0002714210551489264,0.07306521642451339,0.33435411934785025,0.0009720830750149852,0.3310852438650569,7.496586148691975e-05,-3.4077163020285184e-05,-9.091690782181416e-05,0.9999999952278962,9.091444884196302e-05,-3.4084721943702934e-05,-9.091690763857225e-05,0.9999999931707337,-7.496276285775843e-05,3.40771630248423e-05,7.496628701614272e-05,0.9999999969320893,-3.4485981649623465e-05,-8.965871782629553e-05,-3.289234910741623e-05,4.626648422261611e-06,-4.551655347495535e-05,9.489682432204032e-05,-9.328576794981462e-05,-0.0020165251734652135,0.0010856842205957055,3.935668341434878e-05,1.5709676762418185,3.902916631063555e-05,-0.0040661613287812995,-0.0585262521903831,0.03319338697508995,0.0016997934274048528,0.028090269212664453,0.0017077841617423276,6.044813659072311e-06,-0.01718804026137868,0.008365612523182362,4.5314022745865116e-07,0.008097904485501337,-4.261628408768151e-07,0.052415163835450904,0.020760257582646362,0.39607350360334326,0.0026277520099642153
67,0.067,0.00010435583639584265,0.00010961650184941542,0.0001513470120867233,0.059872701535249005,0.00010434754096092206,1.315783145161781e-06,8.625447042471417e-06,91097.76013273041,0.997936115679416,0.00027991821183847746,0.07476220593318761,0.3343623047858708,0.0009707225130031207,0.3310908410110967,7.837275655253606e-05,-3.683454422676036e-05,-9.50612506422921e-05,0.9999999947447522,9.505845940624347e-05,-3.684273765533139e-05,-9.50612504289758e-05,0.9999999925241909,-7.836925451871537e-05,3.683454423041889e-05,7.837318206166399e-05,0.9999999965731176,-3.190102588507271e-05,-9.368335270699393e-05,-3.310429825464922e-05,4.806748814350618e-06,-4.634634220634386e-05,9.922040721359242e-05,-9.747051077445362e-05,-0.0020763978750004625,0.0011196728473539099,4.1104948304170756e-05,1.570996412269562,4.078771822661033e-05,-0.004184742824639,-0.059872701535249005,0.03398862675820426,0.0017482648898219735,0.028736027743658236,0.0017585519159747716,6.058346857678252e-06,-0.01718555499880503,0.008364825243320356,4.754622701367556e-07,0.008096270176731648,-4.5009391598686865e-07,0.05411545940239619,0.020757245238111243,0.3835732980363196,0.0026275539281207377
68,0.068,0.00010738343270824301,0.0001140124448334491,0.00015662068572543675,0.06123996587698417,0.0001073542947703061,-2.5014025214141716e-06,1.0230781959801012e-05,76803.74543547894,0.9978719535222028,0.00028861714386128336,0.07648527115736299,0.3343706792178441,0.0009693221916936797,0.3310965854747208,8.187886805632871e-05,-3.96864734586444e-05,-9.932654360422788e-05,0.9999999942210755,9.932338964761883e-05,-3.969534937071917e-05,-9.932654335685787e-05,0.9999999918287473,-8.18749255761966e-05,3.9686473461279445e-05,8.187929354297463e-05,0.9999999961830692,-2.9194189186121378e-05,-9.782366573367145e-05,-3.330812754265278e-05,4.991163794077469e-06,-4.718512377747312e-05,0.00010367010154806209,-0.0001017753618822423,-0.0021376378408774466,0.0011544685754451335,4.2902232516202666e-05,1.5710258041448635,4.259776868692298e-05,-0.0043048511077886835,-0.06123996587698417,0.034795728091223596,0.001797284212031913,0.029391875301430913,0.00181005046031265,6.072266042137709e-06,-0.017183011674666675,0.008364019565581799,4.984541011627958e-07,0.008094597703563806,-4.7474221992928845e-07,0.05584187463860923,0.02075416254234216,0.3716594880864013,0.0026273512451529518
69,0.069,0.00011062616862677457,0.00011853918172647204,0.00016214094729407846,0.0626280032690282,0.0001104368041518352,-6.470044340478891e-06,1.1872875573460102e-05,66181.60171956064,0.9978063249518139,0.00029752080881944584,0.07823435651737627,0.33437924560267696,0.0009678815934361369,0.3311024792644577,8.548547425357711e-05,-4.263408626270504e-05,-0.00010371435044698174,0.999999993654299,0.00010371080130942754,-4.264369544378782e-05,-0.00010371435016069526,0.9999999910815396,-8.548105185578309e-05,4.2634086263886387e-05,8.54858997141883e-05,0.9999999957599339,-2.636447232273742e-05,-0.00010208111832424717,-3.3503866431416895e-05,5.1799330761385325e-06,-4.8033081048090005e-05,0.00010824753587373667,-0.00010620184058755668,-0.002200265844146475,0.0011900832352777833,4.474907648632829e-05,1.5710558619410917,4.4460049749215026e-05,-0.0044264787053143705,-0.0626280032690282,0.035614659832649866,0.001846843970125629,0.030057796228160193,0.0018622810622920516,6.08657535499648e-06,-0.017180409424225173,0.00836319521515592,5.221273424448259e-07,0.008092886497697998,-5.001199764402447e-07,0.0575943561696422,0.020751008448375973,0.36029586626325494,0.002627143890500811
70,0.07,0.00011408907879775932,0.00012319830283568877,0.00016791110660857255,0.0640367711949533,0.00011359637961728082,-1.0591526743998795e-05,1.3552298851995275e-05,57980.53623104058,0.997739208443291,0.0003066321565079875,0.08000940580943172,0.3343880068954781,0.0009664002027801305,0.33110852437970095,8.919384723782287e-05,-4.567851333225903e-05,-0.00010822622762329814,0.9999999930417428,0.00010822224876082036,-4.568890949132459e-05,-0.00010822622729274675,0.9999999902795877,-8.918890291384249e-05,4.567851333139167e-05,8.919427266906865e-05,0.9999999953016128,-2.341089166585375e-05,-0.00010645716439724822,-3.3691544945702034e-05,5.373096066531719e-06,-4.8890395275925856e-05,0.00011295433108127207,-0.00011075145873748314,-0.002264302615341428,0.00122652862603195,4.6646013098347914e-05,1.5710865957154772,4.637529487445102e-05,-0.00454961814992646,-0.0640367711949533,0.03644539075416667,0.0018969366120196248,0.03073377438535213,0.0019152451252359914,6.10127887031899e-06,-0.017177747385726257,0.008362351918136047,5.46493738393041e-07,0.008091135992809183,-5.262395288649776e-07,0.059372849947697946,0.020747781912915375,0.3494489809878223,0.002626931793755673
71,0.07100000000000001,0.00011777644602245166,0.00012799138670282594,0.00017393414359403905,0.06546622656997254,0.00011683431457069309,-1.486721818205511e-05,1.5269622216744907e-05,51459.90252498698,0.9976705825289258,0.00031595412889363206,0.08181036220609889,0.33439696604753055,0.0009648775064662938,0.3311147228107221,9.30052529497516e-05,-4.882088050806033e-05,-0.00011286372431307257,0.9999999923806154,0.00011285927900764927,-4.8832120398481504e-05,-0.00011286372393214823,0.9999999894197876,-9.299974204389953e-05,4.882088050466374e-05,9.300567834752416e-05,0.9999999948059173,-2.0332479131413006e-05,-0.00011095325037686335,-3.387119367337377e-05,5.570691862761985e-06,-4.975724612366309e-05,0.00011779210041624905,-0.0001154257207175437,-0.0023297688419114007,0.0012638165155745282,4.85935675535205e-05,1.5711180155086306,4.83442390649603e-05,-0.004674261980060564,-0.06546622656997254,0.03728788954257822,0.001947554455172581,0.03141979315341137,0.0019689441905092874,6.116380592573553e-06,-0.017175024700439575,0.008361489401530527,5.71565160727659e-07,0.008089345624574666,-5.531133449953565e-07,0.061177301253181715,0.020744481896378487,0.3390878883360439,0.002626714884661894
72,0.07200000000000001,0.00012169185094103806,0.00013292000089699225,0.0001802127443437679,0.06691632574252597,0.00012015188552765683,-1.9298471172682255e-05,1.7025415524182883e-05,46153.18030658145,0.9976004257989506,0.00032548966009407184,0.08363716825684164,0.3344061260062624,0.0009633129934168145,0.3311210765386827,9.692095118429833e-05,-5.2062308781852806e-05,-0.0001176283824353419,0.9999999916680045,0.00011762343170336322,-5.207445232341054e-05,-0.00011762838199799745,0.9999999884989118,-9.691482628039514e-05,5.206230877544994e-05,9.692137654337962e-05,0.9999999942705651,-1.712828212258044e-05,-0.00011557081519772481,-3.404284376368194e-05,5.772759256657466e-06,-5.063381166676457e-05,0.00012276244949134776,-0.00012022612345752625,-0.0023966851676539267,0.0013019586403762873,5.059225723783234e-05,1.571150131344062,5.036761900474912e-05,-0.004800402739982549,-0.06691632574252597,0.0381421248017591,0.0019986896843118443,0.03211583543128657,0.002023379939788818,6.131884455507403e-06,-0.017172240512702525,0.008360607393275354,5.973536133685411e-07,0.008087514830703768,-5.807540219906268e-07,0.06300765469636337,0.02074110736295339,0.3291839295173976,0.002626493093119009
73,0.073,0.00012583823067438443,0.00013798570270729006,0.00018674933587802724,0.06838702449573726,0.00012355035237528398,-2.38866223481282e-05,1.8820248048115393e-05,41751.89182704133,0.9975287169022256,0.000335241676357698,0.08548976588833555,0.3344154897152208,0.0009617061547258932,0.3311275875356492,0.0001009421955964207,-5.5403914299478885e-05,-0.00012252173666427169,0.9999999909008799,0.00012251623916001837,-5.541702470348783e-05,-0.00012252173616258922,0.9999999875136034,-0.00010093540640388688,5.5403914289316875e-05,0.00010094262091236983,0.9999999936931796,-1.3797363475398505e-05,-0.00012031129030958866,-3.420652692731618e-05,5.979336735713785e-06,-5.1520268399746786e-05,0.00012786697629897892,-0.00012515415643742222,-0.002465072192149664,0.001340966705430792,5.264259158698278e-05,1.571182953227698,5.2446173202077354e-05,-0.004928032979895967,-0.06838702449573726,0.03900806505450466,0.0020503343491504386,0.03282188363607283,0.0020785541973282343,6.147794321009403e-06,-0.017169393969958823,0.008359705622244445,6.238712374157701e-07,0.008085643050964904,-6.091742913902781e-07,0.0648638542188969,0.02073765728064635,0.3197105310816559,0.0026262663491831094
74,0.074,0.00013021794315343693,0.00014319003974716716,0.00019354611905669162,0.06987827804887967,0.00012703095866548744,-2.8632992502307722e-05,2.0654688462168963e-05,38043.90165761732,0.9974554345469298,0.0003452130960438015,0.08736809640477837,0.33442506011404594,0.0009600564836503451,0.33113425776460387,0.00010507023371086888,-5.884680836132361e-05,-0.00012754531443892603,0.9999999900760875,0.0001275392263593561,-5.886095225960883e-05,-0.00012754531386470312,0.9999999864603755,-0.00010506272694558137,5.884680834643795e-05,0.00010507065897807921,0.9999999930712873,-1.0338801404330411e-05,-0.00012517609968215897,-3.436227543390791e-05,6.190462485095647e-06,-5.241679124439244e-05,0.00013310727122384307,-0.00013021130169347956,-0.0025349504701985435,0.001380852384175206,5.474507194908759e-05,1.5712164911474005,5.4580642134305184e-05,-0.005057145256057325,-0.06987827804887967,0.03988567874441419,0.00210248036210481,0.03353791970261349,0.002134468932227827,6.164113977966308e-06,-0.017166484222803088,0.008358783818262532,6.511303161989051e-07,0.008083729727215829,-6.383870241974729e-07,0.0667458430953723,0.02073413062133731,0.3106430252352933,0.002626034583069053
75,0.075,0.00013483283414859906,0.00014853455047928016,0.0002006050992637661,0.0713900410588263,0.00013059493193735277,-3.353888663660409e-05,2.2529304822199336e-05,34878.52855542178,0.9973805575012504,0.0003554068296032277,0.08927210048815624,0.3344348401384458,0.0009583634755997672,0.3311410891794598,0.00010930630692884691,-6.239209742586738e-05,-0.00013270063597836668,0.9999999891903483,0.00013269391096394674,-6.240734500201697e-05,-0.00013270063532301173,0.9999999853356063,-0.00010929802619153144,6.239209740578969e-05,0.00010930673214065711,0.9999999924023135,-6.751689448414311e-06,-0.00013016665980947737,-3.4510122111919284e-05,6.406174389960644e-06,-5.332355355644093e-05,0.00013848491705554297,-0.00013539903382437337,-0.0026063405112573697,0.0014216273184129108,5.690019144510022e-05,1.5712507550724837,5.6771768395012294e-05,-0.00518773213089382,-0.0713900410588263,0.04077493423770478,0.0021551194960126255,0.034263925083140294,0.002191126260707112,6.180847141106119e-06,-0.017163510425021258,0.008357841712116433,6.791432804239784e-07,0.008081774303431473,-6.684052360613283e-07,0.06865356393485701,0.02073052636083041,0.30195848798467223,0.0026257977251520938
76,0.076,0.0001396843044220481,0.00015402076467071208,0.00020792811462527687,0.07292226762151599,0.0001342434840626483,-3.86055940065192e-05,2.444466454900392e-05,32145.794234606266,0.9973040645940726,0.0003658257795594885,0.0912017181985274,0.3344448327201704,0.0009566266281268937,0.3311480837250729,0.0001136516505337859,-6.604088311279455e-05,-0.00013798921429630795,0.999999988240254,0.00013798180332841504,-6.605730823619135e-05,-0.0001379892135495395,0.9999999841355381,-0.00011364253618816384,6.604088308629144e-05,0.00011365207568364566,0.9999999916835843,-3.0351364171954387e-06,-0.00013528437971450024,-3.465010034708893e-05,6.62651003642535e-06,-5.424072713225018e-05,0.00014400148900151278,-0.00014071881999750037,-0.002679262778878886,0.001463303118237954,5.91084348269418e-05,1.5712857549532306,5.9020296843384746e-05,-0.0053197861731269945,-0.07292226762151599,0.041675799825043144,0.0022082433818415782,0.034999880746913375,0.0022485284483724525,6.197997449834334e-06,-0.01716047173363195,0.008356879035566096,7.079227133919087e-07,0.008079776225732811,-6.992420925325084e-07,0.07058695868247103,0.020726843478905535,0.29363559311075726,0.002625555705969565
77,0.077,0.00014477337491036464,0.00015965020378690237,0.00021551686164227724,0.0744749112733067,0.0001379778116115234,-4.383438816539341e-05,2.6401334410813934e-05,29763.548730418595,0.9972259347156708,0.00037647284049030917,0.09315688897418241,0.33445504078698896,0.0009548454409177154,0.33115524333725604,0.00011810749370155804,-6.979426220299345e-05,-0.00014341255521266305,0.9999999872222647,0.00014340440651076098,-6.981194256668044e-05,-0.0001434125543632382,0.9999999828562721,-0.00011809748274591744,6.97942621690241e-05,0.00011810791878152926,0.9999999909123201,8.117336605106829e-07,-0.00014053066095344046,-3.4782244082154357e-05,6.8515067144308365e-06,-5.516848221749948e-05,0.0001496585546995527,-0.00014617211995540392,-0.0027537376901521924,0.0015058913619612367,6.137027833334903e-05,1.5713215007204104,6.132697475587865e-05,-0.005453299957903549,-0.0744749112733067,0.042588243723282744,0.002261843506407235,0.035745767179865884,0.0023066779124938986,6.215568467061712e-06,-0.017157367308930426,0.008355895521357327,7.374813563082789e-07,0.008077734942416759,-7.309109144115149e-07,0.07254596862084167,0.020723080959373186,0.285654480228885,0.002625308456222954
78,0.078,0.00015010074834495647,0.0001654243813308301,0.00022337291821616117,0.07604792499237967,0.0001417990962324253,-4.9226527009215164e-05,2.839988050618844e-05,27669.19185742066,0.997146146818398,0.00038735089900961573,0.0951375516318739,0.33446546726266624,0.0009530194157815456,0.3311625699427924,0.00012267505950536162,-7.365332664299729e-05,-0.00014897215736731084,0.9999999861327068,0.00014896321628370994,-7.36723439032673e-05,-0.00014897215640362511,0.9999999814937672,-0.00012266408544465607,7.365332660043585e-05,0.00012267548450678456,0.9999999900856353,4.789781588798725e-06,-0.00014590689762005588,-3.490658781574174e-05,7.081201418792631e-06,-5.6106987513603186e-05,0.00015545767423097114,-0.00015176038602233226,-0.002829785615144572,0.001549403596038463,6.368618954342906e-05,1.5713580022847946,6.369255198015314e-05,-0.005588266066928351,-0.07604792499237967,0.04351223407722619,0.0023159112100800323,0.03650156438425318,0.0023655772242744963,6.233563678022882e-06,-0.0171541963145292,0.008354890903233032,7.678321136685343e-07,0.008075649903984095,-7.634251831743667e-07,0.07453053437162807,0.020719237790125192,0.2779966353996047,0.0026250559067795025
79,0.079,0.0001556668661968346,0.0001713448031341221,0.000231497764120119,0.07764126120010456,0.00014570850504339074,-5.478325282024898e-05,3.0440868246705133e-05,25814.184045852075,0.9970646799173776,0.00039846283374995095,0.0971436443670207,0.33447611506693997,0.0009511480566410255,0.3311700654594489,0.0001273555649232705,-7.761916354720455e-05,-0.00015466951223608305,0.9999999849677685,0.00015465972114618278,-7.763960346727702e-05,-0.00015466951114449781,0.9999999800438354,-0.00012734355763713653,7.761916349445508e-05,0.00012735598983715235,0.9999999892005362,8.899853055743812e-06,-0.00015141447634987642,-3.502316660186633e-05,7.315630852201969e-06,-5.7056410183975325e-05,0.00016140040013340524,-0.0001574850631109379,-0.002907426876344677,0.0015938513349998038,6.605662722793052e-05,1.5713952695366729,6.611778109128227e-05,-0.005724677088605634,-0.07764126120010456,0.04444773896134094,0.0023704376845014555,0.037267251878310634,0.0024252291111291372,6.251986489088623e-06,-0.01715095791740166,0.008353864915945159,7.989880587340443e-07,0.008073520563169751,-7.967985464905236e-07,0.076540595897006,0.020715312963189136,0.27064478294359345,0.0026247979886741364
80,0.08,0.00016147196025785479,0.00017741296760723343,0.00023989279902639741,0.07925487176236633,0.00014970719103133347,-6.050579230970751e-05,3.2524862339886675e-05,24160.308357945756,0.9969815130911945,0.0004098115153453086,0.0991751047539007,0.3344869871154991,0.0009492308695220048,0.33117773179599014,0.00013215022084711592,-8.169285519965541e-05,-0.0001605061041418665,0.9999999837234987,0.00016049540233478655,-8.171480779576787e-05,-0.00016050610290776275,0.9999999785021404,-0.00013213710645430647,8.16928551350786e-05,0.00013215064566324264,0.999999988253919,1.3142778683472578e-05,-0.00015705477632430758,-3.513201604965488e-05,7.554831426368415e-06,-5.8016915862439566e-05,0.00016748827741407764,-0.0001633475887291211,-0.002986681748107043,0.0016392460613812343,6.848204119822142e-05,1.5714333123453688,6.860341755023623e-05,-0.005862525618183212,-0.07925487176236633,0.04539472638143056,0.0024254139702909036,0.03804280869593993,0.002485636458953954,6.270840226569955e-06,-0.017147651287923348,0.00835281729526637,8.309624390846735e-07,0.00807134637497104,-8.310448238193684e-07,0.07857609250112613,0.02071130547477994,0.26358278727361667,0.002624534633111135
81,0.081,0.00016751609852981553,0.00018363036595187213,0.0002485593582351494,0.08088870799087718,0.000153796293455418,-6.639535666011406e-05,3.465242677226811e-05,22677.064807077553,0.9968966254825858,0.00042139980641438284,0.10123186974585388,0.334498086319963,0.0009472673625433356,0.33118557085219197,0.00013706023208870377,-8.587547905625215e-05,-0.00016648341027014624,0.9999999823958029,0.00016647173383544758,-8.589903874752294e-05,-0.00016648340887731526,0.9999999768641932,-0.00013704593280976812,8.587547897853653e-05,0.00013706065679608415,0.9999999872425651,1.7519374077623606e-05,-0.0001628291692746458,-3.5233172322512996e-05,7.798839264005806e-06,-5.898866865982681e-05,0.00017372284356265253,-0.00016934939298702672,-0.00306757045609792,0.0016855992256575314,7.096287215297751e-05,1.571472140558755,7.115021986463624e-05,-0.00600180425790562,-0.08088870799087718,0.04635316427629714,0.002480830954756092,0.03882821338637431,0.0025468023144000103,6.2901281355164515e-06,-0.017144275599915687,0.008351747778002013,8.637686822582295e-07,0.00806912679667788,-8.661780120951929e-07,0.08063696283155766,0.020707214325354426,0.2567955636964263,0.0026242657714660635
82,0.082,0.00017379922537969752,0.0001899984823422547,0.00025749872627829244,0.08254272064449641,0.00015797693825230963,-7.245314156759119e-05,3.6824124792388044e-05,21339.816049369176,0.9968099962991331,0.00043323056154422773,0.10331387567553567,0.33450941558786,0.000945257045906591,0.3311935845188551,0.00014208679738736407,-9.016810774831185e-05,-0.0001726029006818841,0.9999999809804403,0.0001725901823950307,-9.019337350789011e-05,-0.0001726028991129946,0.9999999751253491,-0.0001420712314037959,9.016810765554231e-05,0.00014208722197323054,0.9999999861631417,2.2030439876863372e-05,-0.00016873901948601978,-3.53266721375145e-05,8.047690201227146e-06,-5.997183117176544e-05,0.00018010562856471312,-0.00017549189860419589,-0.0031501131767424167,0.001732922246176911,7.349955152258347e-05,1.571511764002769,7.375894975178432e-05,-0.006142505617169164,-0.08254272064449641,0.04732302051937944,0.0025366793696059583,0.03962344401388931,0.0026087298871480726,6.309853378507972e-06,-0.017140830030688232,0.008350656102002064,8.974204014733372e-07,0.008066861287901848,-9.022122914974833e-07,0.08272314488075672,0.020703038519664145,0.2502689972589506,0.0026239913352874926
83,0.083,0.00018032119613458112,0.00019651879407706424,0.0002667121485814054,0.08421685993047301,0.0001622502384411237,-7.868032728200773e-05,3.9040518893765384e-05,20128.443261640885,0.9967216048139542,0.0004453066272743099,0.10542105825510795,0.3345209778226088,0.0009431994318857028,0.3312017746778194,0.00014723110941528006,-9.45718090847869e-05,-0.0001788660383286178,0.9999999794730212,0.00017885220753310042,-9.459888459585619e-05,-0.0001788660365646368,0.9999999732808055,-0.00014721419072757436,9.457180897437002e-05,0.00014723153386692056,0.9999999850121974,2.667676180029277e-05,-0.0001747856838012501,-3.541255276573452e-05,8.30141978973614e-06,-6.09665644842148e-05,0.0001866381549147179,-0.00018177652091688304,-0.0032343300366728897,0.0017812265090972395,7.609250131124657e-05,1.5715521924809264,7.643037230396565e-05,-0.00628462231268714,-0.08421685993047301,0.048304262920328536,0.0025929497886631,0.040428478157479145,0.002671422552181326,6.330019034441133e-06,-0.01713731376108165,0.008349542006173036,9.319314014309352e-07,0.008064549310605554,-9.391620313019044e-07,0.08483457598744161,0.020698777066808983,0.2439898688198679,0.0026237112562988813
