yagami-light7/MecArm_Kinematics/results/tcp_pose_6d_demo/null_space/20260423_001417/trajectory.csv
step,time,pos_err_norm,rot_err_norm,err_6d_norm,qdot_max,line_dev,phase_error,sigma_min,condition_number,joint_center_cost,joint_margin_min,qdot_norm,px,py,pz,roll,pitch,yaw,r11,r12,r13,r21,r22,r23,r31,r32,r33,epx,epy,epz,erx,ery,erz,q1,q2,q3,q4,q5,q6,qdot1,qdot2,qdot3,qdot4,qdot5,qdot6,qdot_null1,qdot_null2,qdot_null3,qdot_null4,qdot_null5,qdot_null6,qdot_primary_norm,qdot_null_norm,qdot_null_ratio,null_task_leak_norm
0,0.0,0.0,8.620652195328901e-10,8.620652195328901e-10,0.013722774127240303,0.0,0.0,4.5365982948088026e-05,17317.968371345567,1.0000694763404707,1.636303086626993e-06,0.016736041072149387,0.3340806509489974,0.0010019155657902898,0.33093286030734786,-1.6757040199877338e-10,2.8786084627085984e-10,-1.2229417478692994e-10,0.9999999999414647,2.1832294947712118e-10,-4.556171412373189e-10,-1.2229413565316075e-10,1.0000000001134242,1.6757067017938358e-10,-2.8786104749878305e-10,2.5807600501082106e-10,1.0000000003226814,0.0,0.0,0.0,4.2564667531331177e-10,7.434781889873462e-10,-9.602881350464613e-11,1.7351463121779482e-09,-1.3722774127240304e-05,6.545212346507972e-06,-8.583522865417719e-11,1.5700069957653862,7.59438841211758e-11,1.7351463121779483e-06,-0.013722774127240303,0.0065452123465079715,-8.583522865417718e-08,0.006995765386050842,7.59438841211758e-08,1.7359188424177945e-06,-0.013722772439648917,0.006545209280821021,-8.795255032555141e-08,0.00699577406344791,7.382273532000437e-08,9.85508738230914e-09,0.016736042116747427,1698041.166597938,0.002028390130015684
1,0.001,2.0192538163378074e-06,1.813587834304562e-07,2.027381804969694e-06,0.013654572021667229,8.649765797021938e-07,1.8246099559474981e-06,4.497610475722742e-05,17468.10612358108,1.0000557769851315,3.2633298329656976e-06,0.016653826067245248,0.33408256689202165,0.0010019161412135498,0.330933501024095,-1.2665840142279518e-10,1.8208425593887067e-07,1.5867564060291473e-09,0.9999999999414482,-1.49072754451411e-09,1.8134077787307357e-07,1.5867564059362398e-09,1.0000000001134244,1.266586891808023e-10,-1.820842559976249e-07,2.98987945512863e-10,1.000000000322665,-1.915055024004353e-06,-1.019423378611356e-09,-6.402727470433689e-07,6.804878040757585e-10,-1.8134867014416203e-07,-1.79027949425111e-09,3.118546066541363e-09,-2.7377346148907534e-05,1.305331933186279e-05,2.7441541657687727e-10,1.5700139633422068,5.824521038706894e-10,1.3833997543634145e-06,-0.013654572021667229,0.006508106985354817,3.6025064523105446e-07,0.006967576820545983,5.065082197495135e-07,1.7358868082017636e-06,-0.013722344600517621,0.00654507662067515,-8.73110748410446e-08,0.006995482075891715,7.318950309804484e-08,8.209197268544625e-05,0.016735517374920583,203.8630163656006,0.002028355558327327
2,0.002,4.0221267115552335e-06,3.6232205158869135e-07,4.038413123105851e-06,0.01360842019753988,1.7257800032461508e-06,3.633068491532863e-06,4.458779074922707e-05,17620.251354561213,1.0000421249538156,4.884440640545598e-06,0.016599251829912034,0.33408447337260083,0.0010019165992102487,0.33093413694825524,7.904846765582063e-10,3.6097247630890113e-07,2.924776775727137e-09,0.9999999999413997,-2.828747522928059e-09,3.6022899836327116e-07,2.924776775555744e-09,1.0000000001134242,-7.904836230584581e-10,-3.6097247642537245e-07,1.2161313067693413e-09,1.0000000003226164,-3.815326706957389e-06,-4.581868196049804e-09,-1.2730924591197734e-06,1.8312516229846929e-09,-3.6230479717661393e-07,-3.024818629977482e-09,3.4669502094440873e-09,-4.0985766346447416e-05,1.953776256218239e-05,1.9713050439982004e-09,1.570020913022113,2.3805050381417176e-09,3.484041429027244e-07,-0.01360842019753988,0.006484443230319602,1.6968896274213233e-06,0.006949679906224076,1.7980529342710282e-06,1.7358579417051759e-06,-0.013721918990327679,0.00654494465917534,-8.666831739165487e-08,0.006995191600062939,7.255488994799338e-08,0.00013646170372834753,0.01673499536648734,122.63510411072079,0.002028321157969107
3,0.003,6.006506753518698e-06,5.422297961709422e-07,6.030931647094112e-06,0.013584320935879978,2.5834061940890942e-06,5.4225580509863415e-06,4.420046747232354e-05,17774.671453894698,1.0000284966568573,6.50299125112574e-06,0.016572317435049028,0.33408637346345793,0.0010019167116307602,0.33093477070876565,4.335038655682665e-09,5.352695548022913e-07,3.1697218363159216e-09,0.9999999999413216,-3.0736904769185976e-09,5.345260769944182e-07,3.1697218361299276e-09,1.0000000001134242,-4.335036961875385e-09,-5.352695549749875e-07,4.760685068383452e-09,1.0000000003225387,-5.698586402924644e-06,-1.3109869270461899e-08,-1.8984373889585626e-06,3.892407416679343e-09,-5.42207585185958e-07,-2.9892452050957993e-09,2.0998480715742288e-09,-5.45700872823274e-05,2.601196500450296e-05,5.891584331452581e-09,1.570027855111121,6.3278594958904835e-09,-1.3671021378698584e-06,-0.013584320935879978,0.006474202442320571,3.920279287454381e-06,0.006942089008052842,3.947354457748766e-06,1.7358381875843796e-06,-0.013721494839846337,0.006544813157501295,-8.601556020271552e-08,0.006994902111927199,7.191006752407002e-08,0.0001631945914386887,0.01673447514825844,102.5430738738815,0.0020282868715551148
4,0.004,7.970312019556251e-06,7.211725209551952e-07,8.00287220278218e-06,0.01358227575813091,3.438851439589209e-06,7.190283336942139e-06,4.3813560633749943e-05,17931.65134592599,1.0000148685139139,8.122332676421792e-06,0.016573022970610713,0.33408827023792453,0.0010019162512301212,0.33093540492494317,1.2251157900448212e-08,7.032990794381314e-07,1.6024153865886446e-09,0.9999999999412172,-1.506377660118668e-09,7.025556018162848e-07,1.6024153864944502e-09,1.0000000001134242,-1.2251156776051882e-08,-7.032990796650151e-07,1.267680432848195e-08,1.0000000003224343,-7.56262735107649e-06,-2.9016227860983318e-08,-2.516286807252577e-06,6.878363733913382e-09,-7.211391856279754e-07,-8.763817865858386e-10,-1.6605361852657735e-09,-6.815236304045831e-05,3.2489330705687166e-05,1.2918203068460537e-08,1.5700347999291429,1.3279056654635006e-08,-3.760384256840002e-06,-0.01358227575813091,0.006477365701184205,7.026618737007955e-06,0.006944818021705084,6.951197158744521e-06,1.7358334641687677e-06,-0.013721071380351798,0.006544681876998769,-8.534410901523798e-08,0.0069946130877851205,7.124623160620089e-08,0.00016249111677078202,0.016733955777673063,102.98381848341278,0.002028252641700937
5,0.005,9.911495971322357e-06,8.992555445995072e-07,9.952206434958646e-06,0.013602285430280381,4.293115992429436e-06,8.933471187905837e-06,4.3426495126182344e-05,18091.49455033957,1.0000012169546793,9.745811128763815e-06,0.01660136950565795,0.334090166769833,0.0010019149916669036,0.3309360422064844,2.6275981834800177e-08,8.633911838806796e-07,-2.493453443719318e-09,0.9999999999410919,2.5895054467422524e-09,8.626477062054216e-07,-2.4934535818712386e-09,1.000000000113424,-2.6275984235957794e-08,-8.633911840749686e-07,2.6701628519365528e-08,1.0000000003223088,-9.405264539297242e-06,-5.470402476186534e-08,-3.1266209883917817e-06,1.0803466827076268e-08,-8.991812186095455e-07,4.117729632354433e-09,-8.489247022938139e-09,-8.17546484707387e-05,3.898324451505526e-05,2.393030979410811e-08,1.5700417578095167,2.408543189552335e-08,-6.828710837672364e-06,-0.013602285430280381,0.006493913809368094,1.1012106725647575e-05,0.0069578803739025336,1.0806375240888342e-05,1.7358496634755173e-06,-0.013720647843654971,0.006544550579186993,-8.464529299243503e-08,0.006994324004286507,7.055460200364065e-08,0.00013495787861345657,0.016733436312825464,123.99006535041163,0.0020282184110257334
6,0.006,1.1828052989892423e-05,1.0766050222230272e-06,1.1876948930831476e-05,0.013644349966979576,5.1472076339547185e-06,1.064937045578839e-05,4.303869505373656e-05,18254.524376339275,0.9999875184195982,1.1376767952682773e-05,0.016657359011468677,0.33409206613340847,0.0010019127075020899,0.3309366851534657,4.813964471495069e-08,1.0138825388139594e-06,-9.831334857324237e-09,0.9999999999409508,9.927412714554896e-09,1.0131390608299207e-06,-9.831334661305566e-09,1.000000000113423,-4.8139654646221654e-08,-1.0138825391158013e-06,4.8565291066449134e-08,1.0000000003221667,-1.122433456784977e-05,-9.256663340007076e-08,-3.7294211962524138e-06,1.5682001621576674e-08,-1.076414774410433e-06,1.2793831792004262e-08,-1.9058600884343773e-08,-9.539899843771828e-05,4.550707181073109e-05,3.98032495159643e-08,1.5700487390985396,3.9595126574492564e-08,-1.0569353861405635e-05,-0.013644349966979576,0.006523827295675835,1.5872939721856194e-05,0.006981289022784446,1.550969467896922e-05,1.7358926512041922e-06,-0.013720223462119395,0.006544419025764098,-8.39104645766132e-08,0.006994034338444795,6.982642240941396e-08,8.359234041124929e-05,0.01673291581248945,200.17283318059626,0.0020281841221538484
7,0.007,1.3718024121054681e-05,1.2533740054640362e-06,1.3775163599152316e-05,0.013708468635504666,6.002145171564072e-06,1.2335251887387265e-05,4.264958375816975e-05,18421.085267787188,0.9999737493605756,1.3018539557408431e-05,0.01674099423842561,0.3340939714031652,0.001001909174197717,0.33093733635634415,7.956528325081536e-08,1.153116341967575e-06,-2.1121819848701762e-08,0.9999999999407994,2.1217940954980698e-08,1.1523728631716856e-06,-2.112181990006838e-08,1.000000000113421,-7.956530757728828e-08,-1.1531163425955449e-06,7.99909297133361e-08,1.0000000003220144,-1.3017695517258954e-05,-1.4498773270128426e-07,-4.324669670985326e-06,2.152819094109086e-08,-1.2529204125884148e-06,2.5949456392036692e-08,-3.403818945400638e-08,-0.00010910746707322295,5.2074158229633724e-05,6.14085594744216e-08,1.5700557541549978,6.065310174740962e-08,-1.4979588569662603e-05,-0.013708468635504666,0.006567086418902632,2.160530995845729e-05,0.00701505645816471,2.1057975172917062e-05,1.7359682667113548e-06,-0.013719797468683705,0.006544286978614266,-8.313099928193792e-08,0.006993743567652119,6.905296019120215e-08,4.788245407079943e-05,0.01673239333614592,349.44727273079985,0.002028149717716844
8,0.008,1.5579503073749492e-05,1.4297484407781512e-06,1.5644970330073416e-05,0.013794639959736272,6.858961839120397e-06,1.3988408005001887e-05,4.225858384448974e-05,18591.544319581568,0.9999598862416884,1.4674457350285124e-05,0.016852278553842873,0.33409588565380266,0.001001904168115642,0.33093799839595717,1.2226904821943663e-07,1.2794423112083564e-06,-3.707264761843021e-08,0.9999999999406456,3.716883356511853e-08,1.2786988295362955e-06,-3.7072647762644346e-08,1.000000000113416,-1.2226909571827216e-07,-1.279442311838061e-06,1.2269469468195737e-07,1.0000000003218559,-1.4783226815806572e-05,-2.1434132007800387e-07,-4.912349614583089e-06,2.8356195986625646e-08,-1.4287781635974368e-06,4.4378928376637045e-08,-5.409488282304779e-08,-0.00012290210703295922,5.86978294011405e-05,8.961396293211604e-08,1.5700628133496997,8.810115388163504e-08,-2.005669336904141e-05,-0.013794639959736272,0.006623671171506771,2.8205403457694434e-05,0.007059194701806337,2.7448052134225423e-05,1.736082322965276e-06,-0.013719369096884027,0.006544154199814712,-8.229829544258624e-08,0.006993451169694666,6.822550613799392e-08,0.00013540914904516745,0.016731867944010385,123.56526821436556,0.0020281151403554404
9,0.009000000000000001,1.741064252522428e-05,1.605953043397947e-06,1.748455199079311e-05,0.013902861724087532,7.718708571996345e-06,1.5606152989185464e-05,4.186511720681846e-05,18766.292987553024,0.9999459055398953,1.634784767108962e-05,0.016991215747240242,0.33409781196010263,0.0010018974665162925,0.33093867384352516,1.779601128681918e-07,1.3912166725305042e-06,-5.838870720253908e-08,0.999999999940495,5.84849841860077e-08,1.390473185026303e-06,-5.838870718876209e-08,1.0000000001134068,-1.77960194227461e-07,-1.391216673076942e-06,1.783857596082683e-07,1.0000000003216987,-1.6518829108413957e-05,-3.029917244026705e-07,-5.492445178889582e-06,3.6180116293399905e-08,-1.6040675283943175e-06,6.887337028975614e-08,-7.989283255959288e-08,-0.00013680496875704675,6.539139068435848e-05,1.252833609596236e-07,1.5700699270650074,1.2277793257724624e-07,-2.5797949736545095e-05,-0.013902861724087532,0.006693561283217987,3.566939802750755e-05,0.007113715307687316,3.467677869561119e-05,1.736240606480348e-06,-0.01371893758087502,0.006544020451641824,-8.140377390208911e-08,0.006993156622767431,6.733537414841442e-08,0.00027195406286516563,0.016731338697058867,61.52266474441888,0.002028080332721232
10,0.01,1.9209660787111953e-05,1.7822569844500713e-06,1.929216181547645e-05,0.014033130977306433,8.582457129152823e-06,1.7185822563433622e-05,4.1468605053782e-05,18945.749017969276,0.9999317837457433,1.8042031727250172e-05,0.017157809810850327,0.33409975339682996,0.0010018888475571152,0.3309393652606511,2.483406826847556e-07,1.486802153394251e-06,-8.577204191340115e-08,0.9999999999403554,8.586844040108722e-08,1.4860586548641475e-06,-8.577204170932974e-08,1.0000000001133897,-2.483408103584287e-07,-1.4868021537880333e-06,2.487663292027875e-07,1.000000000321546,-1.822242412885533e-05,-4.1329361867743775e-07,-6.064941451389139e-06,4.501398938793715e-08,-1.7788674794197543e-06,1.0022070665912377e-07,-1.1209347468512363e-07,-0.0001508380997343532,7.216812690900069e-05,1.6927682219010133e-07,1.5700771056943694,1.655189603219204e-07,-3.220064212553074e-05,-0.014033130977306433,0.006776736224642206,4.399346123047774e-05,0.0071786293621595625,4.274102774467416e-05,1.7364488772307504e-06,-0.013718502155451399,0.006543885496577673,-8.04388776424117e-08,0.006992859405489012,6.637390085927237e-08,0.0004389038559873994,0.016730804657054336,38.11952068932187,0.0020280452374784154
11,0.011,2.0974848887717325e-05,1.9589793091431164e-06,2.106613124890822e-05,0.014185444036306435,9.451303033173949e-06,1.8724773879479564e-05,4.106846793387613e-05,19130.358625938235,0.9999174973640776,1.9760325529954867e-05,0.01735206470415319,0.3341017130386328,0.001001878090291314,0.3309400751993237,3.351060042788845e-07,1.5645679720677208e-06,-1.199218537806246e-07,0.9999999999402334,1.200184074727766e-07,1.5638244550038316e-06,-1.199218536742076e-07,1.0000000001133609,-3.351061920295034e-07,-1.5645679727165074e-06,3.3553165085242753e-07,1.0000000003214025,-1.9891954571416015e-05,-5.475920329947245e-07,-6.629824443882271e-06,5.4871791477980976e-08,-1.9532564608924843e-06,1.3920566846434544e-07,-1.5135553255835548e-07,-0.0001650235437706596,7.904130211981947e-05,2.2245057052253734e-07,1.5700843596418537,2.171566543097051e-07,-3.9262057873231866e-05,-0.014185444036306435,0.006873175210818787,5.317374833243602e-05,0.007253947484175965,5.1637693987784686e-05,1.736712868544839e-06,-0.013718062056073468,0.006543749097317849,-7.939507136177253e-08,0.006992558996919272,6.533244522323142e-08,0.0006344035986128739,0.016730264886578184,26.371642432021723,0.002028009797306034
12,0.012,2.270457813327357e-05,2.1364939914427442e-06,2.2804878311128858e-05,0.014359796489884663,1.0326368302852008e-05,2.0220385403941853e-05,4.0664125760616814e-05,19320.598956632984,0.9999030229147456,2.1506039831152462e-05,0.01757398411110019,0.33410369395994527,0.0010018649746663829,0.33094080620191757,4.399443764846467e-07,1.6228898314096796e-06,-1.6153450843603423e-07,0.9999999999401346,1.616312520860032e-07,1.6221462832907707e-06,-1.615345085712766e-07,1.0000000001133142,-4.3994463866725317e-07,-1.6228898319318313e-06,4.403700228916563e-07,1.000000000321269,-2.152538396543724e-05,-7.082223672930706e-07,-7.18708107849686e-06,6.576743584491555e-08,-2.1273123896755925e-06,1.8660979766897093e-07,-1.983350196675801e-07,-0.00017938334026054427,8.602415932460985e-05,2.8565697073706737e-07,1.5700916993216791,2.7852035033700114e-07,-4.6979487109224605e-05,-0.014359796489884663,0.006982857204790379,6.320640021453005e-05,0.007339679825399598,6.136369602729601e-05,1.7370382869778212e-06,-0.013717616518885457,0.006543611016776828,-7.826384099143582e-08,0.006992254876572079,6.420238802591933e-08,0.0008580048370356148,0.016729718449052796,19.498396404564755,0.002027973954899209
13,0.013000000000000001,2.4397308213657376e-05,2.3152345134202e-06,2.4506916552767828e-05,0.014556183202415985,1.1208803952634739e-05,2.1670056807110957e-05,4.0254997837707974e-05,19516.98086822231,0.9998883369333038,2.3282480061424442e-05,0.017823571198676048,0.3341056992348916,0.0010018492815225635,0.3309415608011969,5.645371570217605e-07,1.6601499064350378e-06,-2.113035395545637e-07,0.9999999999400643,2.114005061524593e-07,1.6594063104481693e-06,-2.1130353937758973e-07,1.0000000001132425,-5.645375079957241e-07,-1.660149907286787e-06,5.64962803761837e-07,1.0000000003211453,-2.3120696550638087e-05,-8.975104040366642e-07,-7.736699177307571e-06,7.771477526730788e-08,-2.3011126559929934e-06,2.4321145175771125e-07,-2.5368524233211605e-07,-0.00019393952346296025,9.312992024569777e-05,3.5974451201767607e-07,1.5700991351577496,3.5043632882020056e-07,-5.535022266453594e-05,-0.014556183202415985,0.007105760921087922,7.40875412806087e-05,0.007435836070371207,7.191597848319943e-05,1.7374308121647575e-06,-0.013717164780741349,0.006543471018095963,-7.70366931562558e-08,0.006991946524432953,6.297513134717102e-08,0.001109541353355322,0.016729164408773353,15.07754924420417,0.0020279376529713606
14,0.014,2.6051595921290404e-05,2.495697844212873e-06,2.617086467382772e-05,0.014774598317492296,1.2099792236458445e-05,2.3071208851750493e-05,3.984050288364967e-05,19720.052081878923,0.9998734159717221,2.509294626873968e-05,0.018100828384565712,0.33410773193719123,0.0010018307925913226,0.33094234152031654,7.105587758182708e-07,1.6747368398739582e-06,-2.699196510747015e-07,0.9999999999400256,2.7001687064606883e-07,1.673993171039112e-06,-2.699196510754562e-07,1.000000000113135,-7.105592277642529e-07,-1.6747368403336599e-06,7.109844222807915e-07,1.0000000003210276,-2.4675897154047277e-05,-1.1177723209143849e-06,-8.278667448791133e-06,9.072759948309465e-08,-2.474734124144913e-06,3.097858084120814e-07,-3.180568023143991e-07,-0.00020871412178045254,0.00010037178507495872,4.4555778933323367e-07,1.5701066775831862,4.3372784293428895e-07,-6.437155998228306e-05,-0.014774598317492296,0.007241864829260941,8.581327731555758e-05,0.007542425436578432,8.329151411408836e-05,1.7378960966526335e-06,-0.013716706079227302,0.006543328864649813,-7.570515457118505e-08,0.006991633420975136,6.164209795868985e-08,0.0013889330132074368,0.016728601830935573,12.044210670938202,0.0020279008342558432
15,0.015,2.7666104560190336e-05,2.678447683160043e-06,2.7795456886455563e-05,0.015015035261496574,1.3000548614127166e-05,2.4421283284601586e-05,3.942005905662618e-05,19930.400750824352,0.9998582365990873,2.69407330580687e-05,0.01840575712062972,0.334109795140066,0.0010018092904938132,0.33094315087282544,8.796767407837081e-07,1.6650457284050901e-06,-3.380707251920967e-07,0.9999999999400211,3.3816821947489454e-07,1.6643019538561954e-06,-3.3807072519320545e-07,1.0000000001129796,-8.796773036430857e-07,-1.665045728850914e-06,8.801023872462288e-07,1.0000000003209093,-2.6189011068600276e-05,-1.3713147035234515e-06,-8.812975477556773e-06,1.0481963646152664e-07,-2.6482531326738456e-06,3.8710487018460273e-07,-3.920975993436942e-07,-0.00022372915704194912,0.0001077629322322748,5.439374826718156e-07,1.5701143370398607,5.292151489150206e-07,-7.404079702929505e-05,-0.015015035261496574,0.007391147157316089,9.83796933385819e-05,0.007659456674545189,9.548730598073172e-05,1.7384397657117246e-06,-0.013716239652684151,0.006543184320053235,-7.426077138557203e-08,0.006991315047174705,6.019473066982312e-08,0.0016961327331447946,0.016728029781663406,9.862453241371956,0.0020278634415076824
16,0.016,2.9239614123416684e-05,2.864116829672077e-06,2.937955410315683e-05,0.01527748674711573,1.3912323423158833e-05,2.5717742728619047e-05,3.8993083979000536e-05,20148.659509731056,0.9998427754023078,2.882912953185922e-05,0.018738357697587856,0.3341118919161489,0.001001784558739208,0.33094399136266917,1.073551649799498e-06,1.6294781182146778e-06,-4.16441824580005e-07,0.9999999999400506,4.1653960335303903e-07,1.6287341942124167e-06,-4.164418244447889e-07,1.000000000112761,-1.0735523282828189e-06,-1.629478118853056e-06,1.0739772962065075e-06,1.0000000003207787,-2.7658083933457256e-05,-1.6604345579257843e-06,-9.339613712300299e-06,1.2000455248919275e-07,-2.821745496454328e-06,4.759374692461345e-07,-4.764528335524244e-07,-0.00023900664378906486,0.00011531651812743687,6.557203340987635e-07,1.5701221239779286,6.377155385420579e-07,-8.435523420873018e-05,-0.01527748674711573,0.007553585895162067,0.0001117828514269479,0.007786938067873736,0.00010850038962703724,1.7390674171262391e-06,-0.013715764740231451,0.006543037148168443,-7.269510845940205e-08,0.00699099088452744,5.86244916057285e-08,0.0020311080286392487,0.016727447328038766,8.235626605744736,0.0020278254175053866
17,0.017,3.077103232270099e-05,3.053408537990086e-06,3.092215603583585e-05,0.015561944776869483,1.4836403238469139e-05,2.6958070575433022e-05,3.855899476167413e-05,20375.510075707996,0.999827008986814,3.0761419231372124e-05,0.01909862907491442,0.33411402533739254,0.0010017563817230932,0.33094486548419294,1.2938371991566555e-06,1.566441994338419e-06,-5.057151977183594e-07,0.99999999994011,5.058132537610015e-07,1.5656978630748664e-06,-5.057151974695689e-07,1.0000000001124587,-1.2938379910935782e-06,-1.5664419949767971e-06,1.294262845508154e-06,1.0000000003206184,-2.9081181614210028e-05,-1.987419323262697e-06,-9.858573454590847e-06,1.3629595151454843e-07,-2.995286505647768e-06,5.770492722080856e-07,-5.717650078266047e-07,-0.0002545685885659343,0.0001230456769254885,7.81739122611547e-07,1.5701300488553618,7.600433738222727e-07,-9.531217427418028e-05,-0.015561944776869483,0.00772915879805161,0.00012601878851278348,0.007924877433274607,0.00012232783528021485,1.7397846209641975e-06,-0.013715280581790572,0.006542887113111557,-7.099974858378487e-08,0.006990660415065217,5.692286143010139e-08,0.002393833429969993,0.016726853538130068,6.987475954562246,0.002027786705052573
18,0.018000000000000002,3.225940656340855e-05,3.2470967394460437e-06,3.2422414300273933e-05,0.015868400646477147,1.5774111910539316e-05,2.8139770881382626e-05,3.811720802833473e-05,20611.68848460692,0.999810913977262,3.2740880078855944e-05,0.01948656873821313,0.3341161984749821,0.001001724544725714,0.33094577572214495,1.5421801928816592e-06,1.474351772667859e-06,-6.065702837787512e-07,0.9999999999401938,6.066685868956643e-07,1.4736073601570587e-06,-6.065702836340932e-07,1.0000000001120504,-1.542181087134116e-06,-1.4743517732212358e-06,1.5426058395107134e-06,1.0000000003204064,-3.0456390087085783e-05,-2.3545468842243057e-06,-1.036984684826825e-05,1.5370737536110743e-07,-3.168950928637785e-06,6.912027849816939e-07,-6.786739300713014e-07,-0.00027043698921241146,0.00013096352031542378,9.228226367728588e-07,1.5701381221374824,8.97010123900082e-07,-0.00010690892224469661,-0.015868400646477147,0.007917843389935286,0.00014108351416131182,0.008073282120562637,0.00013696675007780936,1.7405969193263106e-06,-0.013714786418108834,0.006542733979259938,-6.916629163513169e-08,0.006990323121372605,5.508133850199726e-08,0.0027842869701479463,0.01672624748102207,6.007371960701999,0.0020277472469797677
19,0.019,3.370393695377605e-05,3.446025023174064e-06,3.387964661333487e-05,0.01619684494826633,1.6726811270918752e-05,2.926036826308101e-05,3.766713993957854e-05,20857.99106133589,0.9997944670182329,3.4770784320564835e-05,0.019902172585351763,0.33411841439924705,0.0010016888339103166,0.33094672455168056,1.8202205542827699e-06,1.3516282901804288e-06,-7.196837179535009e-07,0.9999999999402923,7.197822077208596e-07,1.3508835031914024e-06,-7.196837179473921e-07,1.0000000001115077,-1.8202215266096375e-06,-1.3516282907806432e-06,1.8206462004677348e-06,1.0000000003201122,-3.17818153224847e-05,-2.7640855836119638e-06,-1.0873426869117964e-05,1.7225230331081396e-07,-3.3428130111672084e-06,8.19157357726309e-07,-7.97816715392633e-07,-0.00028663383416067777,0.00013908313728225934,1.0797956450962655e-06,1.570146354296495,1.0494244042138647e-06,-0.00011914278532133164,-0.01619684494826633,0.008119616966835575,0.0001569730083234066,0.008232159012637139,0.0001524142803137827,1.7415098260741645e-06,-0.013714281490783601,0.006542577511259731,-6.718635367121483e-08,0.006989978486603255,5.309143797483641e-08,0.0032024484057612103,0.016725628226845674,5.222762743510083,0.0020277069861461736
20,0.02,3.510399044679299e-05,3.6511043150189902e-06,3.529335217867075e-05,0.016547267574524422,1.7695901501215555e-05,3.0317407794006518e-05,3.720820621683182e-05,21115.28124094076,0.9997776447749357,3.685439847061503e-05,0.020345434841083577,0.33412067617957486,0.0010016490363213048,0.33094771443836546,2.1295913312791015e-06,1.1966987982781063e-06,-8.457293358965501e-07,0.9999999999403913,8.458279139589636e-07,1.1959535199286553e-06,-8.457293360150796e-07,1.000000000110798,-2.1295923431464933e-06,-1.1966987987516858e-06,2.130016977686111e-06,1.0000000003196985,-3.3055583170016334e-05,-3.2182942347187653e-06,-1.1369307313879862e-05,1.9194415288980757e-07,-3.516946478223312e-06,9.61669189812352e-07,-9.298277881973451e-07,-0.0003031811017352022,0.0001474175938824601,1.253478864168263e-06,1.5701547558110205,1.2180920179262432e-06,-0.00013201107280471212,-0.016547267574524422,0.008334456600200758,0.0001736832190719974,0.008401514525452805,0.00016866761371237845,1.742528826537131e-06,-0.013713765042286484,0.006542417474032195,-6.50515659613121e-08,0.006989625994497611,5.094469082984765e-08,0.0036482982501889224,0.01672499484680791,4.584327731801395,0.002027665865441265
21,0.021,3.6459116215272795e-05,3.863309230248179e-06,3.666322835495107e-05,0.016919657720728655,1.868282116586669e-05,3.130845490410057e-05,3.673982216603714e-05,21384.497379074106,0.9997604239339053,3.899498325566222e-05,0.02081634799884484,0.3341229868843273,0.0010016049398824734,0.33094874783817985,2.471918710611476e-06,1.0079969530174537e-06,-9.853781790525318e-07,0.9999999999404711,9.854767002056544e-07,1.0072510399534995e-06,-9.853781791132657e-07,1.0000000001098825,-2.471919703508281e-06,-1.0079969535396055e-06,2.4723443569074632e-06,1.0000000003191187,-3.427583924670019e-05,-3.719422133783559e-06,-1.1857482790367246e-05,2.1279627919233006e-07,-3.6914245357599415e-06,1.1194913348803456e-06,-1.075338884211581e-06,-0.00032010075945593084,0.00015597993302264888,1.4446889244776774e-06,1.5701633371656285,1.4038159996423853e-06,-0.0001455110960142358,-0.016919657720728655,0.008562339140188772,0.0001912100603094145,0.008581354607938003,0.00018572398171614194,1.7436593771984118e-06,-0.013713236315987226,0.006542253632781293,-6.275357395123149e-08,0.006989265129398922,4.863264284473241e-08,0.004121817217838065,0.01672434641322147,4.057517722228361,0.002027623827786482
22,0.022,3.7769062354554615e-05,4.08367313065312e-06,3.7989188690734795e-05,0.017314003888806134,1.9689046910456233e-05,3.223109527924654e-05,3.6261402701314736e-05,21666.661716962877,0.9997427812037036,4.119579356040226e-05,0.021314902787870585,0.3341253495807572,0.001001556333395086,0.3309498271975233,2.8488220236155826e-06,7.839628071160121e-07,-1.1392984995417521e-06,0.9999999999405081,1.1393967620498957e-06,7.832160837627222e-07,-1.139298499342325e-06,1.000000000108716,-2.848822916588428e-06,-7.839628072808108e-07,2.8492476700781033e-06,1.0000000003183165,-3.544074882477766e-05,-4.269709072292523e-06,-1.2337948707918933e-05,2.3482197490808064e-07,-3.86631986970284e-06,1.2933737059564573e-06,-1.2349790524197832e-06,-0.000337414763344737,0.00016478317424160904,1.6542383339344622e-06,1.5701721088503704,1.6073966614409403e-06,-0.0001596401682082023,-0.017314003888806134,0.008803241218960155,0.0002095494094567848,0.008771684741907489,0.00020358066179855508,1.744906905359946e-06,-0.01371269455617882,0.00654208575300092,-6.028403616701327e-08,0.0069888953762711654,4.6146853501270954e-08,0.004622985889831531,0.01672368199953593,3.617506606001746,0.0020275808161369447
23,0.023,3.9033794009412246e-05,4.313281985137668e-06,3.927138240821859e-05,0.017730293890324732,2.0716092833979598e-05,3.3082934761952006e-05,3.577236236867857e-05,21962.89069860483,0.9997246933156183,4.346007837388646e-05,0.021841088162918937,0.3341277673349259,0.001001503006536061,0.33095095495321897,3.2619137591005654e-06,5.230428006264276e-07,-1.3081557650451714e-06,0.9999999999404723,1.3082535002216432e-06,5.222950557048911e-07,-1.3081557648475654e-06,1.0000000001072469,-3.2619144428450015e-06,-5.230428007738791e-07,3.262339405452064e-06,1.000000000317225,-3.654849672124483e-05,-4.871385349385906e-06,-1.2810701267462754e-05,2.580344698875568e-07,-4.0417046488366175e-06,1.4840630806119623e-06,-1.4093746569258053e-06,-0.0003551450572350617,0.00017384031349554585,1.8829354390546289e-06,1.5701810813603123,1.8296316412359261e-06,-0.000174395604506022,-0.017730293890324732,0.009057139253936797,0.00022869710512016673,0.008972509941978473,0.00022223497979498592,1.7462768087864615e-06,-0.013712139008102867,0.006541913600482075,-5.7634623052744313e-08,0.0069885162207167575,4.347889482735015e-08,0.005151784505169681,0.01672300068036908,3.2460598187563794,0.0020275367734831577
24,0.024,4.025351301320251e-05,4.55326718135041e-06,4.0510215402152905e-05,0.018168514849616922,2.1765509547708775e-05,3.386159925390861e-05,3.527211536897706e-05,22274.40687847854,0.9997061370243613,4.579108073664373e-05,0.022394891313604802,0.33413024321162355,0.0010014447498559967,0.3309521335325184,3.7127995691221827e-06,2.2368975427511373e-07,-1.4926126650216531e-06,0.9999999999403256,1.492709524800278e-06,2.2294073433529182e-07,-1.4926126651297134e-06,1.0000000001054163,-3.712799902345875e-06,-2.2368975424909288e-07,3.713225215362659e-06,1.000000000315764,-3.75972871893282e-05,-5.5266717841069134e-06,-1.3275737452134173e-05,2.8244693207759794e-07,-4.217650525126817e-06,1.6923031061899488e-06,-1.5991493787370024e-06,-0.00037331357208467863,0.00018316432294657493,2.131584383797388e-06,1.5701902651950677,2.0713159534967934e-06,-0.00018977472181119713,-0.018168514849616922,0.009324009451029088,0.0002486489447427595,0.009183834755426962,0.00024168431226086716,1.7477744553278623e-06,-0.013711568917972615,0.006541736941320012,-5.479701574090264e-08,0.006988127148992466,4.062035017181998e-08,0.0057081928261419985,0.01672230153153559,2.929526390913493,0.0020274916428524624
25,0.025,4.142867911335374e-05,4.804797501586535e-06,4.1706372799711135e-05,0.018628653206872518,2.2838882935839954e-05,3.456473461955337e-05,3.4760075581460814e-05,22602.552706068163,0.9996870891087679,4.819203768860211e-05,0.022976297690258975,0.33413278027428983,0.0010013813547771885,0.33095336535310693,4.203078281417305e-06,-1.1563714075180087e-07,-1.6933291164811237e-06,0.9999999999400242,1.6934246594369355e-06,-1.1638773633054766e-07,-1.6933291164302204e-06,1.0000000001031557,-4.203078084810456e-06,1.1563714093394684e-07,4.203503927713292e-06,1.0000000003138418,-3.858534381095957e-05,-6.237779727639526e-06,-1.3733055018338991e-05,3.0807246644123373e-07,-4.3942286349601115e-06,1.918834305084631e-06,-1.8049242174733626e-06,-0.00039194222529155114,0.00019276815075440845,2.4009850660241614e-06,1.5701996708583297,2.33324204233661e-06,-0.0002057748387363603,-0.018628653206872518,0.009603827807833512,0.00026940068222677327,0.009405663262051524,0.00026192608883981625,1.7494051825211058e-06,-0.013710983533000543,0.006541555541921801,-5.176290475705001e-08,0.006987727648029172,3.7562812913942624e-08,0.00629219004937993,0.016721583630081215,2.6575140763702048,0.00202744536731091
26,0.026000000000000002,4.256003283844748e-05,5.069070518460123e-06,4.2860843098693825e-05,0.019110694721197675,2.3937832637740356e-05,3.5190006590194184e-05,3.4235656586482036e-05,22948.806536444034,0.9996675263724942,5.06661802178091e-05,0.02358529104316345,0.33413538158493605,0.0010013126135916498,0.33095465282310826,4.734341907397521e-06,-4.964723299138996e-07,-1.910962267537286e-06,0.9999999999395153,1.9110559456566004e-06,-4.972248558478276e-07,-1.910962267219327e-06,1.0000000001003893,-4.734340957984226e-06,4.964723303892138e-07,4.7347675536935085e-06,1.0000000003113507,-3.951090939025015e-05,-7.006911075552614e-06,-1.4182652486205427e-05,3.349241155259178e-07,-4.57150960011919e-06,2.1643940801015996e-06,-2.02731749300286e-06,-0.00041105292001274884,0.0002026647208712364,2.69193309156782e-06,1.5702093088574036,2.6161998369960733e-06,-0.0002223932755294973,-0.019110694721197675,0.009896570116827952,0.00029094802554365825,0.0096379990740036,0.00028295779465946336,1.7511742971704096e-06,-0.01371038210142196,0.006541369169013634,-4.8523988660474266e-08,0.0069873172054479,3.4297885109033185e-08,0.006903754745866029,0.016720846054312094,2.4219930555763947,0.0020273978899647198
27,0.027,4.364862003658037e-05,5.347303698911932e-06,4.39749438651849e-05,0.01961462447357718,2.5064010276213575e-05,3.573510067107393e-05,3.3698271688779826e-05,23314.801290616997,0.9996474256447154,5.321673320992907e-05,0.024221853472076976,0.33413805020406934,0.0010012383194590408,0.3309559983410911,5.308175652807279e-06,-9.203439046423512e-07,-2.146166504068958e-06,0.9999999999387379,2.146257647142887e-06,-9.210987755615963e-07,-2.146166503732361e-06,1.0000000000970306,-5.3081736766775985e-06,9.203439048730694e-07,5.308601299047755e-06,1.0000000003081688,-4.037224584951815e-05,-7.836258279951026e-06,-1.4624529132034603e-05,3.630148593489409e-07,-4.749563529588327e-06,2.4297167198448404e-06,-2.266944847004908e-06,-0.000430667544486326,0.00021286693283971628,3.0052197258890677e-06,1.5702191897027393,2.920976809739315e-06,-0.00023962735400204837,-0.01961462447357718,0.010202211968479875,0.00031328663432124773,0.009880845335616562,0.00030477697274324157,1.7530870749066659e-06,-0.01370976387252235,0.006541177589648465,-4.5071972612025124e-08,0.006986895309579389,3.0817176061566464e-08,0.007542864819742705,0.016720087883828727,2.2166760615739616,0.0020273491539620743
28,0.028,4.469581806897765e-05,5.640725514862199e-06,4.505034891306799e-05,0.020140426869870214,2.6219097456841775e-05,3.6197722047154684e-05,3.314733393984826e-05,23702.3462868853,0.9996267637808227,5.5846915398532346e-05,0.02488596548341386,0.33414078919061685,0.001001158266404569,0.3309574042960738,5.92615792571749e-06,-1.388773608557159e-06,-2.399593455937321e-06,0.9999999999376212,2.399681254119933e-06,-1.389531308404468e-06,-2.399593455620005e-06,1.0000000000929832,-5.9261545921915156e-06,1.3887736093117636e-06,5.926583571902455e-06,1.0000000003041563,-4.116763412481683e-05,-8.728004361597836e-06,-1.505868497858609e-05,3.923576148779593e-07,-4.928460019798967e-06,2.7155334041966537e-06,-2.5244192444634056e-06,-0.0004508079713561962,0.00022338766159412938,3.3416318432988873e-06,1.5702293239074625,3.2483580361782165e-06,-0.0002574743974584974,-0.020140426869870214,0.010520728754413084,0.00033641211740981973,0.010134204723195117,0.0003273812264389013,1.7551487597252405e-06,-0.013709128096661341,0.006540980571212916,-4.139856687938356e-08,0.0069864614494809674,2.7112300835893294e-08,0.008209497479825691,0.016719308199555808,2.0365811961823295,0.0020272991024944858
29,0.029,4.570336359858969e-05,5.950566857125169e-06,4.608911682974637e-05,0.020688085643709678,2.7404803568689116e-05,3.6575595491885696e-05,3.258225616092126e-05,24113.452882969345,0.9996055176631216,5.855993931615014e-05,0.02557760605243162,0.33414360160185214,0.001001072249316908,0.33095887306753125,6.589860347183674e-06,-1.9032768494575691e-06,-2.6718920018709014e-06,0.9999999999360837,2.671975487729108e-06,-1.904037936359404e-06,-2.6718920016512513e-06,1.0000000000881386,-6.589855260686531e-06,1.9032768500838043e-06,6.590285993368639e-06,1.0000000002991558,-4.1895374063849466e-05,-9.684322922055236e-06,-1.5485120787916973e-05,4.229652365501026e-07,-5.108268157228326e-06,3.0225722098295285e-06,-2.8003509750913e-06,-0.0004714960569999059,0.00023423975726460057,3.7019518737333163e-06,1.5702397219869073,3.599126258048971e-06,-0.00027593173062789443,-0.020688085643709678,0.01085209567047118,0.00036032003043442903,0.010398079444834368,0.00035076822187075457,1.757364563502869e-06,-0.01370847402529874,0.006540777881434917,-3.7495485269630464e-08,0.006986015114954632,2.3174878694504285e-08,0.008903629219662047,0.01671850608377454,1.8777181382370505,0.002027247678798417
30,0.03,4.667338183816774e-05,6.27805301461549e-06,4.709372062033036e-05,0.02125758385934716,2.8622863417273372e-05,3.686646527682397e-05,3.200245096529737e-05,24550.3647235172,0.9995836642015279,6.135901124609929e-05,0.026296752688285515,0.3341464904933231,0.0010009800639460252,0.3309604070254004,7.300847760127738e-06,-2.4653627024306957e-06,-2.9637082756828192e-06,0.9999999999340337,2.9637863044820505e-06,-2.4661278201602854e-06,-2.9637082755191128e-06,1.000000000082378,-7.3008404523272396e-06,2.4653627035114284e-06,7.301273406368214e-06,1.0000000002929892,-4.2553784325716215e-05,-1.0707378155735449e-05,-1.5903838052555574e-05,4.548505159982469e-07,-5.289056518778268e-06,3.3515581158004517e-06,-3.095347654688262e-06,-0.0004927536408592531,0.00024543604498439715,4.086957747058145e-06,1.5702503944581474,3.974061948455093e-06,-0.0002949966795969618,-0.02125758385934716,0.01119628771979655,0.00038500587332482815,0.01067247124014862,0.0003749356904061225,1.7597396654936238e-06,-0.013707800911022855,0.006540569288391746,-3.335444349692399e-08,0.006985555796567213,1.8996531471539576e-08,0.009625235803557737,0.016717680620157906,1.7368593309934035,0.002027194826157101
31,0.031,4.760841703547567e-05,6.624396444585345e-06,4.806707813960408e-05,0.021848903914498362,2.9875034721724086e-05,3.7068095081900176e-05,3.1407330780524986e-05,25015.593581624278,0.999561180334266,6.424733117506708e-05,0.02704338150018575,0.33414945891878056,0.0010008815069008745,0.3309620085300872,8.060678239552033e-06,-3.0765339236182854e-06,-3.2756856720439487e-06,0.9999999999313671,3.2757569007275716e-06,-3.0773038082326787e-06,-3.275685671703359e-06,1.0000000000755682,-8.060668160480422e-06,3.0765339247163653e-06,8.061103885792509e-06,1.0000000002854592,-4.3141202280660984e-05,-1.179932486181437e-05,-1.6314838988118474e-05,4.880261817062996e-07,-5.4708931729314125e-06,3.703213009182243e-06,-3.4100142264332287e-06,-0.0005146025447737515,0.0002569893247002683,4.497422834885143e-06,1.5702613518395274,4.373943379594243e-06,-0.000314666571744967,-0.021848903914498362,0.011553279715871159,0.00041046508782699773,0.010957381380045993,0.00039988143113915025,1.762279211803041e-06,-0.013707108007575344,0.0065403545605175,-2.896715747259145e-08,0.006985082985667529,1.4568881868970685e-08,0.010374292256899962,0.016716830893801597,1.611370730477718,0.002027140487901967
32,0.032,4.851146386523075e-05,6.990790502013159e-06,4.901258285573845e-05,0.022462027543121182,3.1163095510237705e-05,3.7178267907028703e-05,3.079630787096192e-05,25511.962033881042,0.9995380430285639,6.722809274644868e-05,0.027817467263063635,0.3341525099301078,0.0010007763756473467,0.33096367993247294,8.870903100977046e-06,-3.738286953769432e-06,-3.6084648518119877e-06,0.9999999999279668,3.6085277171636653e-06,-3.7390624447602994e-06,-3.608464851419209e-06,1.0000000000675635,-8.870889609856702e-06,3.738286954909145e-06,8.871328747050988e-06,1.0000000002763447,-4.3655983911705665e-05,-1.2962308456404992e-05,-1.671812652570548e-05,5.225048997039931e-07,-5.653845681798922e-06,4.078255690761235e-06,-3.7449529621143515e-06,-0.0005370645723168727,0.0002689123709857947,4.934115889887257e-06,1.5702726046501938,4.799546692991432e-06,-0.0003349387356811227,-0.022462027543121182,0.0119230462855264,0.0004366930550021141,0.011252810666476001,0.00042560331339718834,1.7649883148416793e-06,-0.01370639456987683,0.006540133466609961,-2.432534153740924e-08,0.006984596174404795,9.883551695014234e-09,0.011150772859498122,0.016715955991255898,1.4990849693004302,0.00202708460741402
33,0.033,4.938599926182174e-05,7.378404233211262e-06,4.993413433831939e-05,0.023096935818140686,3.248884144723819e-05,3.71947859854535e-05,3.0168794359600145e-05,26042.65453466508,0.999514229281352,7.030448321442798e-05,0.0286189834815539,0.3341556465772529,0.0010006644685057995,0.33096542357392156,9.733066910655452e-06,-4.452111928454627e-06,-3.962683749136886e-06,0.9999999999237026,3.962736443418914e-06,-4.452893978844352e-06,-3.962683748672978e-06,1.000000000058202,-9.73304926620473e-06,4.452111930204963e-06,9.733492556285306e-06,1.000000000265401,-4.40965037178942e-05,-1.4198464984309725e-05,-1.711370430490522e-05,5.582992726925599e-07,-5.837981102092285e-06,4.4774018808226474e-06,-4.100763463297226e-06,-0.0005601615081350133,0.0002812179328577119,5.3978009825876424e-06,1.5702841634096258,5.251645972247831e-06,-0.00035581050118287463,-0.023096935818140686,0.012305561871917226,0.0004636850927003849,0.011558759432149858,0.00045209927925639955,1.7678720527572872e-06,-0.013705659854055382,0.006539905775838946,-1.9420706609491118e-08,0.006984094855748743,4.932160018406839e-09,0.011954651141119363,0.016715055000561203,1.3982051673318756,0.00202702712812562
34,0.034,5.023601406603219e-05,7.78837828062844e-06,5.0836167690776506e-05,0.023753609154162726,3.3854083124383446e-05,3.711547069687549e-05,2.9524202250133742e-05,26611.278877778826,0.9994897161199577,7.347968339880524e-05,0.029447902451432813,0.3341588719081604,0.0010005455846489016,0.3309672417862859,1.0648707494009813e-05,-5.219492686947547e-06,-4.338977576789915e-06,0.9999999999184296,4.339018022633888e-06,-5.220282373194496e-06,-4.338977576336375e-06,1.0000000000473088,-1.0648684844449314e-05,5.219492688921662e-06,1.06491331398062e-05,1.0000000002523581,-4.4461154618036236e-05,-1.5509921131085826e-05,-1.75015766655795e-05,5.954218407100725e-07,-6.023365986580141e-06,4.9013642249357165e-06,-4.478042662434727e-06,-0.000583915117289176,0.000293918733595221,5.8892374356130865e-06,1.570296038637166,5.731013318329619e-06,-0.0003772791991375006,-0.023753609154162726,0.012700800737509073,0.000491436453025444,0.011875227540241697,0.0004793673460817874,1.7709354688462392e-06,-0.013704903117473482,0.006539671257754152,-1.4244958272714803e-08,0.006983578523508288,-2.936787367532536e-10,0.012785899878700453,0.016714127011281558,1.3072311818910578,0.0020269679935220448
35,0.035,5.1066043678581905e-05,8.221821887113378e-06,5.172368096071906e-05,0.024432027310104812,3.526064334817709e-05,3.6938162483459234e-05,2.886194344863658e-05,27221.940592478157,0.9994644806028039,7.675686764054916e-05,0.030304195317752195,0.33416218896870586,0.0010004195240991382,0.3309691368919158,1.16193559467348e-05,-6.041906778442296e-06,-4.737978832825007e-06,0.9999999999119882,4.73800465611714e-06,-6.042705312812868e-06,-4.73797883235817e-06,1.00000000003469,-1.1619327318049003e-05,6.0419067805309035e-06,1.1619781592808742e-05,1.0000000002369198,-4.4748347856615744e-05,-1.6898794234774302e-05,-1.7881748642034623e-05,6.338850805613239e-07,-6.210066385568395e-06,5.350852299857644e-06,-4.8773848239193685e-06,-0.0006083471445992809,0.00030702747056219666,6.40917975538932e-06,1.57030824085155,6.238418927406773e-06,-0.0003993421614846413,-0.024432027310104812,0.01310873696697568,0.0005199423197762334,0.012202214384096664,0.0005074056090771548,1.7741835709432265e-06,-0.013704123618753507,0.006539429682292334,-8.789794783659803e-09,0.006983046672349766,-5.802356777467543e-09,0.013644491094720691,0.016713171114536497,1.2249024897512104,0.0020269071471427924
36,0.036000000000000004,5.188119670099734e-05,8.679810940912677e-06,5.260225935354455e-05,0.02513216939185291,3.671035445373948e-05,3.6660720764972274e-05,2.8181429785403244e-05,27879.333559953437,0.9994384998201036,8.013920375807928e-05,0.031187832129353155,0.3341656008026299,0.0010002860877265565,0.33097111120366557,1.2646536644123074e-05,-6.92082547049111e-06,-5.160317306351914e-06,0.9999999999042011,5.160325808011596e-06,-6.921634213220146e-06,-5.160317306019632e-06,1.0000000000201368,-1.2646500927685849e-05,6.920825472968295e-06,1.2646962289530883e-05,1.0000000002187597,-4.495651290931102e-05,-1.8367192297866685e-05,-1.8254225956082504e-05,6.737014058997513e-07,-6.398147848854303e-06,5.826572619463108e-06,-5.299381545081368e-06,-0.0006334793139911338,0.00032055681503231713,6.958377561264832e-06,1.5703207805704371,6.7746311712613656e-06,-0.00042199672116200035,-0.02513216939185291,0.013529344470120493,0.000549197805875512,0.012539718886946192,0.0005362122438545927,1.7776213307908459e-06,-0.013703320617806687,0.00653918081978532,-3.04690501519775e-09,0.0069824987978175795,-1.1602274991639737e-08,0.01453039605656734,0.016712186403037142,1.1501535358586141,0.0020268445325832794
37,0.037,5.268718033024388e-05,9.163386963616408e-06,5.347809487815186e-05,0.025854013854766336,3.8205055673258e-05,3.628102385757805e-05,2.7482073036430533e-05,28588.8511282407,0.9994117508945579,8.362985300426195e-05,0.03209878188926118,0.3341691104514761,0.0010001450772462196,0.3309731670249015,1.3731767247726623e-05,-7.85771375877431e-06,-5.606620084641634e-06,0.9999999998948758,5.6066082100425115e-06,-7.85853423064184e-06,-5.6066200842619765e-06,1.0000000000034206,-1.3731723189509304e-05,7.85771376153252e-06,1.3732192893356476e-05,1.0000000001975229,-4.5084097392622535e-05,-1.9917213998981668e-05,-1.861901501054586e-05,7.148831677397639e-07,-6.587675425736009e-06,6.329228640727984e-06,-5.744621757133867e-06,-0.0006593333278459002,0.0003345194120170478,7.537575512049904e-06,1.5703336683099387,7.340416680282615e-06,-0.0004452402120524984,-0.025854013854766336,0.013962596984730657,0.0005791979507850724,0.012887739501520879,0.0005657855090212489,1.7812536833874784e-06,-0.013702493375859656,0.006538924440968114,2.9920336803642448e-09,0.00698193439635235,-1.770184507818612e-08,0.015443585276451685,0.01671117197111929,1.082078524571515,0.002026780093496292
38,0.038,5.349032103703566e-05,9.6735569242702e-06,5.4357999854779756e-05,0.02659753850631031,3.974659058274636e-05,3.5796968889737606e-05,2.6763284944801005e-05,29356.723343161575,0.9993842109820522,8.723197002412922e-05,0.033037012601201975,0.3341727209545261,0.0009999962952158602,0.33097530664950925,1.4876558718679433e-05,-8.854030372873467e-06,-6.077511558899573e-06,0.9999999998837996,6.077475866272319e-06,-8.854864268530854e-06,-6.077511558119176e-06,0.9999999999842942,-1.48765049047107e-05,8.854030375699332e-06,1.4876984363587642e-05,1.0000000001728218,-4.5129566970336654e-05,-2.1550948704740806e-05,-1.897612288220829e-05,7.574426536233863e-07,-6.778713668701319e-06,6.85952076980089e-06,-6.213691726068343e-06,-0.0006859308663522105,0.0003489278800965169,8.147513229948244e-06,1.5703469145841484,7.936540429057625e-06,-0.00046906996893447597,-0.02659753850631031,0.014408468079469114,0.0006099377178983402,0.013246274209788703,0.0005961237487750092,1.7850855263149788e-06,-0.01370164115548299,0.006538660316986302,9.335357675250432e-09,0.006981352965311948,-2.410949174426702e-08,0.016384028512062044,0.016710126914779112,1.0199034322637495,0.0020267137735934973
39,0.039,5.42975788608264e-05,1.0211293740062877e-05,5.5249412576004e-05,0.02736272050845576,4.133680465261026e-05,3.5206471724088124e-05,2.6024477242041872e-05,30190.187744962743,0.9993558572723528,9.094870281328974e-05,0.03400249131176355,0.33417643534874036,0.0009998395450332147,0.330977532361903,1.6082415323914745e-05,-9.911227784709098e-06,-6.573613430038705e-06,0.9999999998707421,6.573550057912762e-06,-9.912076987955015e-06,-6.573613429193844e-06,0.9999999999624896,-1.608235016731964e-05,9.911227787906193e-06,1.6082840968545398e-05,1.0000000001442357,-4.5091405266151074e-05,-2.327047648132503e-05,-1.9325557316762776e-05,8.013920885500137e-07,-6.971326633266539e-06,7.418146368100684e-06,-6.707175053501734e-06,-0.0007132935868606663,0.00036379481125315896,8.788925221875064e-06,1.570360529904671,8.563765824581213e-06,-0.0004934833274333913,-0.02736272050845576,0.014866931156642074,0.0006414119919268196,0.013615320522548234,0.0006272253955235887,1.7891217190447691e-06,-0.013700763220617846,0.006538388219404078,1.5991419349560662e-08,0.006980754002989762,-3.083365498181157e-08,0.017351694767369856,0.016709050331706388,0.9629635925918353,0.0020266455166468456
40,0.04,5.511655346228073e-05,1.0777537330292465e-05,5.616039330761759e-05,0.0281495363801799,4.297754291848411e-05,3.4507466876779316e-05,2.52650616692686e-05,31097.70371313266,0.9993266669898029,9.478319267704327e-05,0.034995184148721374,0.33418025666869733,0.000999674630933702,0.3309798464370334,1.7350834648155455e-05,-1.1030752218310624e-05,-7.095544717117264e-06,0.9999999998554524,7.095449348187319e-06,-1.1031618816000066e-05,-7.0955447162407065e-06,0.9999999999377185,-1.735075637438571e-05,1.1030752221835582e-05,1.7351260292119974e-05,1.0000000001113085,-4.496811377396881e-05,-2.507786810637528e-05,-1.9667326722538903e-05,8.467436335063175e-07,-7.165577879814709e-06,8.005799758504726e-06,-7.2256526774790745e-06,-0.0007414431232408462,0.0003791327707081731,9.462540798134854e-06,1.5703745247801502,9.222854797087374e-06,-0.0005184776239773404,-0.0281495363801799,0.015337959455014101,0.0006736155762597896,0.013994875479094743,0.0006590889725061618,1.7933670822242978e-06,-0.013699858836605714,0.006538107920212584,2.296858944213383e-08,0.0069801370086358325,-3.7882792411616914e-08,0.01834655229391558,0.016707941321321605,0.9106856183519513,0.002026575266490242
41,0.041,5.5955479978554435e-05,1.1373196090534477e-05,5.7099608833547674e-05,0.028957961999898585,4.46706477889918e-05,3.3697907438629785e-05,2.448444999822996e-05,32089.22388557185,0.9992966173940206,9.873857419018782e-05,0.03601505635547069,0.3341841879465336,0.000999501357987639,0.33098225114039553,1.868330760101955e-05,-1.2214043655589535e-05,-7.643921762667816e-06,0.9999999998376585,7.643789587204032e-06,-1.221492995329837e-05,-7.643921761775109e-06,0.9999999999096696,-1.868321423293882e-05,1.2214043659209903e-05,1.8683733244817535e-05,1.0000000000735478,-4.475821177002404e-05,-2.6975185080430628e-05,-2.0001440164563178e-05,8.935093872032189e-07,-7.361530476322649e-06,8.623172231545725e-06,-7.769702873232752e-06,-0.0007704010852407448,0.00039495429676075127,1.0169083988460286e-05,1.570388909715797,9.914567893532586e-06,-0.0005440501957536767,-0.028957961999898585,0.015821526052578215,0.0007065431903254311,0.014384935646872368,0.0006917130964452121,1.7978263969417492e-06,-0.01369892727021571,0.006537819191837434,3.0275259482316897e-08,0.006979501482476449,-4.526538170830812e-08,0.0193685685923001,0.01670679898481016,0.8625727246870123,0.0020265029670208713
42,0.042,5.6823212719080646e-05,1.1999148662514524e-05,5.807630387983564e-05,0.02978797260783466,4.641795700483991e-05,3.2775764998143754e-05,2.3682054052217683e-05,33176.54120362657,0.9992656857805948,0.00010281797515750802,0.03706207232175788,0.33418823221188676,0.000999319532097785,0.3309847487280387,2.008131842901051e-05,-1.346253584477708e-05,-8.219358240246777e-06,0.9999999998170656,8.21918391692721e-06,-1.34634443843748e-05,-8.219358238813844e-06,0.9999999998780085,-2.0081207769667962e-05,1.3462535848685411e-05,2.0081744071809293e-05,1.0000000000304217,-4.446023622695083e-05,-2.896447963869511e-05,-2.0327907359618536e-05,9.417013850804146e-07,-7.55924699828505e-06,9.270952051724794e-06,-8.339901253902155e-06,-0.0008001890578485794,0.0004112719006300321,1.0909273455384642e-05,1.5704036952129181,1.0639664373731049e-05,-0.0005701983806694022,-0.02978797260783466,0.016317603869280807,0.000740189466924356,0.014785497121080349,0.0007250964801984637,1.8025044039709156e-06,-0.013697967789672054,0.006537521807146561,3.7919844292178756e-08,0.006978846925733541,-5.298992309581458e-08,0.020417710413811626,0.016705622425156698,0.8181927398205204,0.002026428562200563
43,0.043000000000000003,5.7729194874498526e-05,1.265624589670808e-05,5.9100258045593736e-05,0.030639542808336043,4.822130175671436e-05,3.1739029565283126e-05,2.2857285726881183e-05,34373.73736208663,0.9992338494817834,0.00010702451657494139,0.03813619561098726,0.3341923924918391,0.0009991289599965913,0.33098734144657416,2.1546344721734556e-05,-1.4777656308861964e-05,-8.822465159319393e-06,0.9999999997933572,8.822242776135293e-06,-1.477858988493952e-05,-8.82246515765686e-06,0.999999999842377,-2.1546214339876658e-05,1.477765631321959e-05,2.1546770363645162e-05,0.9999999999813582,-4.4072741729239695e-05,-3.104779476250893e-05,-2.06467386700826e-05,9.91331599020446e-07,-7.758789531705623e-06,9.949824463849546e-06,-8.936820771215825e-06,-0.0008308286006569155,0.00042809806629976556,1.168382240493773e-05,1.5704188917684423,1.1398902309158695e-05,-0.0005969195173136694,-0.030639542808336043,0.016826165669733446,0.0007745489495530874,0.015196555524273073,0.0007592379354276466,1.8074058029955804e-06,-0.013696979664685029,0.0065372155394591595,4.5910784566346555e-08,0.006978172840646289,-6.106494192051385e-08,0.021493943762183297,0.016704410747183734,0.7771682540547309,0.002026351996057553
44,0.044,5.8683412727134425e-05,1.334531291367927e-05,6.018172734366485e-05,0.031512646572227895,5.008250496889953e-05,3.058570949550413e-05,2.2009557010911467e-05,35697.76900104057,0.9992010858672087,0.00011136131259141362,0.03923738898443683,0.33419667181086077,0.0009989294492435783,0.3309900315331854,2.307985742433516e-05,-1.6160826353583957e-05,-9.453850874585612e-06,0.9999999997661909,9.453573905430695e-06,-1.6161788031161806e-05,-9.453850872720772e-06,0.9999999998023896,-2.3079704634826924e-05,1.61608263583371e-05,2.3080283065246565e-05,0.9999999999257433,-4.359430038802792e-05,-3.322716419094777e-05,-2.0957945099875364e-05,1.0424119386607777e-06,-7.960219674120801e-06,1.0660471699408628e-05,-9.56103171613931e-06,-0.0008623412472291434,0.00044544525036565447,1.2493438494659642e-05,1.5704345098744483,1.2193038684447184e-05,-0.0006242109449234857,-0.031512646572227895,0.017347184065888914,0.0008096160897219134,0.015618106006010225,0.0007941363752884898,1.8125352518133307e-06,-0.013695962166477671,0.006536900162552645,5.4256549527787645e-08,0.0069774787304908055,-6.949899130039052e-08,0.02259723389553432,0.016703163057585173,0.739168481154098,0.0020262732126875996
45,0.045,5.969633337097509e-05,1.4067151191743918e-05,6.133137011831691e-05,0.032407257239062875,5.200337975259058e-05,2.9313831415348157e-05,2.1138280006537735e-05,37169.24366095481,0.9991673723445561,0.00011583147047134146,0.04036561442249203,0.3342010731907562,0.0009987208082225696,0.33099282121563617,2.4683320845042545e-05,-1.7613461074539316e-05,-1.0114121091753248e-05,0.9999999997351999,1.0113782352339906e-05,-1.761445420826735e-05,-1.0114121089507265e-05,0.9999999997576363,-2.4683142691968217e-05,1.761346107956481e-05,2.4683746484788216e-05,0.999999999862918,-4.302350175877656e-05,-3.5504612432279915e-05,-2.1261538288297466e-05,1.0949542498078027e-06,-8.163598536313471e-06,1.1403572983065909e-05,-1.0213101719491342e-05,-0.0008947485044682063,0.00046332588188536584,1.3338823738905073e-05,1.5704505600176908,1.3022829501566088e-05,-0.0006520700033520328,-0.032407257239062875,0.017880631519711393,0.0008453852442454311,0.01605014324241913,0.0008297908171189036,1.8178973655194689e-06,-0.013694914567816198,0.006536575450671774,6.296563965769625e-08,0.006976764099600991,-7.830065484842745e-08,0.023727545328310885,0.01670187846496426,0.7039024995279329,0.0020261921562556764
46,0.046,6.077882567870751e-05,1.4822540622957662e-05,6.256015793939417e-05,0.03332334751934385,5.3985728029189416e-05,2.7921440149827914e-05,2.0242866950107214e-05,38813.46125674912,0.9991326863602716,0.0001204380905577819,0.04152083314324239,0.33420559965061064,0.0009985028461389708,0.3309957127122815,2.6358192665387747e-05,-1.9136969365618484e-05,-1.0803878874199313e-05,0.999999999699991,1.0803470476391012e-05,-1.9137997619163294e-05,-1.0803878871570021e-05,0.9999999997076788,-2.6357985902389193e-05,1.9136969370746326e-05,2.6358618303523595e-05,0.999999999792178,-4.2358952759669055e-05,-3.788215477546625e-05,-2.155753050686604e-05,1.148970315614958e-06,-8.368986744011881e-06,1.2179804539138516e-05,-1.0893595752531685e-05,-0.0009280718519875501,0.0004817523622311276,1.4220674411439464e-05,1.5704670526791267,1.3889029886719158e-05,-0.0006804940330403426,-0.03332334751934385,0.018426480345761748,0.0008818506725343913,0.016492661435813787,0.0008662003851530689,1.8234967156706833e-06,-0.01369383614303826,0.006536241178536076,7.20465895044998e-08,0.006976028453389261,-8.747854947521552e-08,0.024884841833290646,0.016700556079869068,0.6711136116949777,0.002026108770997225
47,0.047,6.194206517629157e-05,1.561224149419393e-05,6.387927302949669e-05,0.03426088949675291,5.6031339321046385e-05,2.6406598648708843e-05,1.932273023217135e-05,40661.833482619964,0.9990970054002591,0.0001251842662362422,0.04270300561874474,0.33421025420673744,0.0009982753730169763,0.3309987082320757,2.81059239490844e-05,-2.0732753925667424e-05,-1.152372465096363e-05,0.9999999996601433,1.1523237954293581e-05,-2.0733821292587967e-05,-1.1523724647604927e-05,0.9999999996520483,-2.8105685019655647e-05,2.073275393115609e-05,2.8106349585277357e-05,0.999999999712771,-4.1599277590231853e-05,-4.0361797301590244e-05,-2.1845934652930943e-05,1.204471856362152e-06,-8.576444440076744e-06,1.298983959818361e-05,-1.1603076127523482e-05,-0.000962332741484303,0.0005007370649449688,1.5139680945307547e-05,1.5704839983334409,1.4792394199959955e-05,-0.0007094803749917973,-0.03426088949675291,0.018984702713841183,0.0009190065338680819,0.01694565431426813,0.0009033643132407966,1.829337829428825e-06,-0.013692726168081993,0.0065358971213486045,8.150797056833132e-08,0.006975271298366342,-9.704132826718913e-08,0.026069086443684882,0.016699195014828742,0.6405746150814376,0.002026023001219623
48,0.048,6.319742456179028e-05,1.643699636199043e-05,6.52999947982177e-05,0.03521985463030659,5.8141989706825396e-05,2.4767387915855825e-05,1.837728241796873e-05,42753.85144783113,0.9990603069905787,0.00013007308389912316,0.04391209158908781,0.3342150398726269,0.000998038199696653,0.33100180997458345,2.99279591513546e-05,-2.2402211268257588e-05,-1.2274256222521984e-05,0.9999999996152065,1.2273681785101187e-05,-2.2403322092138384e-05,-1.2274256218591397e-05,0.9999999995902484,-2.992768416875789e-05,2.240221127369768e-05,2.992838478571569e-05,0.9999999996238937,-4.0743117651897975e-05,-4.294553689516327e-05,-2.2126764246788166e-05,1.26147052911325e-06,-8.786031285823116e-06,1.3834348403622152e-05,-1.2342102498273249e-05,-0.0009975525961146096,0.0005202923355964927,1.6096527829961975e-05,1.5705014074485721,1.5733676147537628e-05,-0.0007390263707497668,-0.03521985463030659,0.01955527065152388,0.0009568468846544301,0.017409115131217442,0.0009412819475776734,1.8354251886850577e-06,-0.01369158392051678,0.00653554305480348,9.135839426506902e-08,0.006974492142164498,-1.069976834446035e-07,0.027280241455207823,0.016697794384392162,0.612083819389819,0.0020259347913036117
49,0.049,6.455635272838292e-05,1.7297531801829333e-05,6.683357901554195e-05,0.03620021375646531,6.031944093546503e-05,2.300190693886085e-05,1.7405936267253688e-05,45139.865586178064,0.9990225686981438,0.00013510762291079934,0.04514805007453251,0.33421995965889684,0.000997791137831223,0.33100502012998934,3.182573612958706e-05,-2.414673172745907e-05,-1.3056068770112006e-05,0.9999999995647018,1.3055396295458952e-05,-2.4147890725349785e-05,-1.3056068764998073e-05,0.9999999995217503,-3.1825420854279406e-05,2.4146731733223556e-05,3.182616176111708e-05,0.9999999995246924,-3.978913147001384e-05,-4.563536125562961e-05,-2.2400033426794863e-05,1.3199779281403153e-06,-8.997806462302417e-06,1.4713998218413254e-05,-1.3111231860652404e-05,-0.001033752809871075,0.0005404304916431973,1.7091893505643974e-05,1.5705192904852372,1.6713628896988272e-05,-0.0007691293623791552,-0.03620021375646531,0.02013815604670465,0.0009953656756819995,0.017883036664999935,0.0009799527494506444,1.8417632291644299e-06,-0.01369040867957222,0.0065351787550953,1.0160651496257507e-07,0.006973690493556582,-1.1735634939193247e-07,0.02851826842815543,0.016696353305164124,0.5854616785952802,0.002025844085704792
50,0.05,6.603024622547727e-05,1.8194560021259308e-05,6.849113395881516e-05,0.03720193709126382,6.256543969033631e-05,2.110827261889644e-05,1.640810475449955e-05,47885.09795167828,0.9989837681314219,0.00014029095557332812,0.04641083938602641,0.3342250165732425,0.0009975339998840157,0.3310083408791082,3.3800686150442516e-05,-2.5967699467610572e-05,-1.3869754860174055e-05,0.9999999995081189,1.3868973144896178e-05,-2.5968911751293733e-05,-1.3869754854057877e-05,0.9999999994459925,-3.380032596889702e-05,2.596769947335771e-05,3.380111177875289e-05,0.9999999994142583,-3.8735994615457514e-05,-4.843324890854077e-05,-2.266575694548356e-05,1.3800055850042576e-06,-9.211828673077844e-06,1.5629453331784365e-05,-1.3911018553102945e-05,-0.0010709547469623388,0.0005611638222933125,1.8126450255003538e-05,1.5705376578964556,1.773300519498062e-05,-0.0007997866924505408,-0.03720193709126382,0.02073333065011518,0.0010345567493595634,0.018367411218465395,0.0010193762979923465,1.848356339510686e-06,-0.013689199726167705,0.006534803998926227,1.1226103310323909e-07,0.006972865862478395,-1.2812610577474613e-07,0.02978312818956042,0.016694870895842494,0.5605479313329428,0.0020257508289548364
51,0.051000000000000004,6.76303179760802e-05,1.912878033064906e-05,7.028349839389003e-05,0.03822499423238603,6.48817169962499e-05,1.9084619701776055e-05,1.5383201088534945e-05,51075.57515802402,0.9989438829411311,0.00014562614709278253,0.04770041713418724,0.3342302136203885,0.000997266599125626,0.33101177439339496,3.585423390095599e-05,-2.7866492489092565e-05,-1.4715904454121187e-05,0.9999999994449149,1.4715001331129379e-05,-2.7867763589928263e-05,-1.4715904447130197e-05,0.9999999993623802,-3.585382380204605e-05,2.7866492494517045e-05,3.5854659525436094e-05,0.9999999992916268,-3.7582399627922314e-05,-5.134116921693625e-05,-2.2923950165509854e-05,1.441564968459282e-06,-9.428156145259583e-06,1.6581375066035426e-05,-1.4742014257131373e-05,-0.0011091797411947248,0.0005825045883711301,1.920086409194729e-05,1.5705565201270741,1.879255748792595e-05,-0.0008309957040284287,-0.03822499423238603,0.02134076607781761,0.0010744138369437508,0.01886223061853428,0.0010595522929453293,1.8552088603522314e-06,-0.013687956342942642,0.006534418563515233,1.2333069839765415e-07,0.006972017760049264,-1.3931578072802762e-07,0.03107478083531506,0.016693346277256032,0.5371991636944262,0.002025654965663012
52,0.052000000000000005,6.936746863025311e-05,2.010088047393343e-05,7.222112641046598e-05,0.03926935416114374,6.726998776030238e-05,1.692910071138891e-05,1.4330638732541193e-05,54827.14758365743,0.9989028908209394,0.00015111625554619078,0.049016740236900114,0.33423555380204306,0.000996988749630866,0.3310153228349559,3.798779749741854e-05,-2.984448263632089e-05,-1.559510491544458e-05,0.9999999993745141,1.5594067195424325e-05,-2.9845818529886797e-05,-1.5595104907099652e-05,0.999999999270284,-3.798733204858395e-05,2.9844482641802617e-05,3.798822311723571e-05,0.999999999155776,-3.6327055941753894e-05,-5.436108239251691e-05,-2.3174629056099683e-05,1.5046674843470857e-06,-9.646846632112479e-06,1.75704217833667e-05,-1.560476799779426e-05,-0.0011484490953558686,0.0006044650221847631,2.0315794647703164e-05,1.5705758876132898,1.989303804536266e-05,-0.0008627537406628863,-0.03926935416114374,0.021960433813632996,0.0011149305557558741,0.019367486215742295,0.001100480557436712,1.8623250833488363e-06,-0.013686677814287054,0.006534022226605941,1.3482431310285e-07,0.006971145698594661,-1.509342541292792e-07,0.032393185732217666,0.016691778572402827,0.5152867244942261,0.002025556440517534
53,0.053,7.12521660725686e-05,2.111153782186402e-05,7.431398387407912e-05,0.04033498524452589,6.973195043444852e-05,1.463988588202333e-05,1.324983142341911e-05,59299.64568484034,0.9988607695081655,0.00015676433184908762,0.050359764925881643,0.3342410401168505,0.0009967002662757715,0.33101898835655896,4.020278849381498e-05,-3.190303560796082e-05,-1.6507941015930783e-05,0.9999999992963068,1.6506754428006626e-05,-3.190444273859158e-05,-1.6507941005869563e-05,0.9999999991690387,-4.0202261816619755e-05,3.190303561307825e-05,4.020321410852512e-05,0.9999999990056238,-3.496868981034407e-05,-5.749493950687437e-05,-2.341781018971867e-05,1.5693244763144724e-06,-9.867957413350445e-06,1.8597248892788884e-05,-1.6499826144179033e-05,-0.0011887840806003944,0.0006270573273963505,2.147189505409647e-05,1.5705957707821736,2.103519908612889e-05,-0.0008950581463847729,-0.04033498524452589,0.02259230521158736,0.0011561004063933066,0.01988316888381488,0.0011421610407662285,1.8697092502194285e-06,-0.013685363426371248,0.0065336147664754405,1.467507353741653e-07,0.006970249191666542,-1.6299046094562537e-07,0.03373830152012734,0.01669016690648743,0.4946949358442315,0.002025455198286936
54,0.054,7.329433827195624e-05,2.2161420437306647e-05,7.657146060069002e-05,0.04142185523716132,7.226928679152264e-05,1.2215163092310183e-05,1.2140193191538053e-05,64719.94508922616,0.9988174967844766,0.00016257341972366536,0.05172944675219146,0.334246675560347,0.0009964009647345843,0.3310227731016445,4.250061189337018e-05,-3.404351096136793e-05,-1.745499494409941e-05,0.9999999992096458,1.7453644073534778e-05,-3.404499626893237e-05,-1.745499493190413e-05,0.9999999990579405,-4.250001763678537e-05,3.404351096583484e-05,4.250103750191858e-05,0.9999999988400246,-3.350604423274506e-05,-6.07446825026945e-05,-2.3653510738241845e-05,1.635547225078139e-06,-1.0091545298876475e-05,1.9662508857069487e-05,-1.7427732409884322e-05,-0.0012302059358375557,0.0006502936788946614,2.2669811824019832e-05,1.5706161800511929,2.2219792907325923e-05,-0.0009279062657052889,-0.04142185523716132,0.023236351498310964,0.0011979167699233614,0.020409269019237022,0.0011845938211970312,1.8773655517514344e-06,-0.013684012467176532,0.006533195961942277,1.5911888270098181e-07,0.006969327754066063,-1.7549339466507152e-07,0.03511008611405196,0.016688510406959494,0.475319552115966,0.0020253511838213916
55,0.055,7.550328386528683e-05,2.3251188017993672e-05,7.900230135059468e-05,0.042529931283239675,7.48836618031001e-05,9.653137800785225e-06,1.1001138380069333e-05,71421.24775390628,0.998773050476589,0.00016854655566751468,0.05312574059085126,0.33425246312491613,0.000996090661476652,0.3310266792043366,4.4882666155210416e-05,-3.626726212146991e-05,-1.8436846311864485e-05,0.9999999991138488,1.8435314536522908e-05,-3.626883306950823e-05,-1.843684629783649e-05,0.9999999989362478,-4.488199746989549e-05,3.626726212541814e-05,4.4883091756209303e-05,0.9999999986577701,-3.1937878881671544e-05,-6.411224420488067e-05,-2.388174847023361e-05,1.703346949290535e-06,-1.0317666628970283e-05,2.076685119973339e-05,-1.838902785350334e-05,-0.0012727358671207954,0.0006741862226700587,2.3910184729095813e-05,1.5706371258277336,2.344757201608928e-05,-0.0009612954436190192,-0.042529931283239675,0.023892543775397238,0.0012403729050759803,0.020945776540786786,0.0012277791087633595,1.8852981267915825e-06,-0.013682624226526123,0.0065327655923754085,1.719377354207059e-07,0.006968380901865029,-1.8845211080638487e-07,0.03650849670619439,0.01668680820355249,0.45706642860110364,0.002025244342054168
56,0.056,7.788760368941325e-05,2.4381492729012128e-05,8.161455750155098e-05,0.04365917991842741,7.757672360898204e-05,6.952032981513608e-06,9.832081664324215e-06,79913.64556707643,0.9987274084569685,0.00017468676892295156,0.05454860064476029,0.33425840579974647,0.0009957691737632333,0.33103070878945423,4.735034320502152e-05,-3.857563638964834e-05,-1.945407216519257e-05,0.9999999990081945,1.9452341586943924e-05,-3.857730099213197e-05,-1.9454072148156953e-05,0.9999999988031798,-4.73495927160494e-05,3.85756363927639e-05,4.7350768797915777e-05,0.9999999984575851,-3.0262970031780245e-05,-6.759954833158055e-05,-2.410254174772808e-05,1.7727348049531239e-06,-1.0546377277223465e-05,2.1910922512131787e-05,-1.938425087911436e-05,-0.0013163950470392227,0.0006987470756918062,2.519364667451578e-05,1.5706586185086227,2.471928926416922e-05,-0.0009952230256110195,-0.04365917991842741,0.024560853021747542,0.0012834619454199663,0.021492680889105734,0.001271717248079937,1.8935110612183413e-06,-0.013681197996115588,0.0065323234377024225,1.8521634031262318e-07,0.006967408152427889,-2.0187573050925635e-07,0.03793348976802344,0.016685059428321953,0.43985036783900133,0.002025134618002909
57,0.057,8.045515505774465e-05,2.555297993323467e-05,8.441555993319021e-05,0.044809567071752134,8.035010356733605e-05,4.110089060479003e-06,8.632438070909676e-06,91019.47908535645,0.9986805486445303,0.0001809970814469251,0.05599798044796646,0.33426450657078877,0.0009954363196444278,0.3310348639725221,4.990502844437472e-05,-4.096997494951182e-05,-2.0507246986767314e-05,0.9999999988919215,2.0505298365758066e-05,-4.0971741800368416e-05,-2.0507246966942616e-05,0.9999999986579137,-4.990418822228806e-05,4.0969974951506755e-05,4.9905454027721063e-05,0.9999999982381255,-2.8480110488948718e-05,-7.120850950533811e-05,-2.4315909523009438e-05,1.8437218862645178e-06,-1.077773265245096e-05,2.3095366460541286e-05,-2.0413937236782842e-05,-0.001361204614110975,0.0007239883257877004,2.652082357105349e-05,1.5706806684796488,2.6035697985336115e-05,-0.0010296863576684796,-0.044809567071752134,0.02524125009589417,0.001327176896537711,0.02204997102625006,0.0013164087211668945,1.9020083868967823e-06,-0.013679733069544375,0.006531869278418408,1.9896381427259894e-07,0.0069664090244340995,-2.1577344420571744e-07,0.03938502105232003,0.016683263215685046,0.4235941169892736,0.002025021956771068
58,0.058,8.321302907853753e-05,2.6766288829339658e-05,8.741191238110035e-05,0.04598105806743337,8.320541637680673e-05,1.1255638537007503e-06,7.401622996924796e-06,106155.44898925275,0.9986324490053404,0.00018748050788149385,0.05747383286835742,0.33427076842071546,0.0009950919179559255,0.33103914685978253,5.254810076005256e-05,-4.345161287577781e-05,-2.1596942708868028e-05,0.9999999987642293,2.1594755390540345e-05,-4.345349117923156e-05,-2.159694268566605e-05,0.9999999984995838,-5.25471622918595e-05,4.345161287627221e-05,5.25485263324077e-05,0.9999999979979763,-2.6588109521163972e-05,-7.494103326406536e-05,-2.4521871336224965e-05,1.9163192248506303e-06,-1.1011787699453804e-05,2.432082379333107e-05,-2.1478620023079292e-05,-0.0014071856721784082,0.0007499220315259754,2.7892334204237055e-05,1.570703286115084,2.7397552135610797e-05,-0.0010646827862964502,-0.04598105806743337,0.025933705738275026,0.0013715106331835655,0.02261763543522557,0.0013618541502746814,1.9107940806153835e-06,-0.013678228742346405,0.006531402895594195,2.1318934806763585e-07,0.006965383037900161,-2.301545153718843e-07,0.04086304559516954,0.01668141870245902,0.4082274940373686,0.002024906303549171
59,0.059000000000000004,8.616754990347329e-05,2.8022053008600666e-05,9.060950342643087e-05,0.04717361762670332,8.614426025983511e-05,-2.003267494423951e-06,6.139052228872748e-06,127988.04267670111,0.9985830875533164,0.0001941400555248652,0.05897611010992131,0.33427719432888026,0.0009947357883157593,0.3310435595482073,5.528093253337474e-05,-4.602187914137801e-05,-2.2723728718254677e-05,0.9999999986242741,2.272128056113922e-05,-4.602387874260913e-05,-2.2723728691056093e-05,0.9999999983272817,-5.527988669154005e-05,4.602187914018625e-05,5.5281358092351685e-05,0.9999999977356497,-2.4585792789744154e-05,-7.879901607201769e-05,-2.472044731288703e-05,1.9905377909291108e-06,-1.1248596902063489e-05,2.55879323481714e-05,-2.25788296816171e-05,-0.0014543592898051115,0.0007765602220994608,2.930879010068059e-05,1.5707264817772035,2.8805606436337453e-05,-0.0011002096585378091,-0.04717361762670332,0.02663819057348541,0.001416455896443535,0.023195662119558414,0.0014080543007266551,1.91987206300554e-06,-0.013676684312021759,0.006530924070885227,2.2790221017305123e-07,0.006964329714202162,-2.450282843627913e-07,0.042367517717963425,0.016679525027901012,0.3936866242327755,0.002024787603616217
60,0.06,8.932429361990702e-05,2.932090093744482e-05,9.401353446434623e-05,0.048387209869627176,8.91682171985463e-05,-5.278112572634997e-06,4.844141961619078e-06,162201.690711087,0.9985324423509293,0.00020097872430299742,0.06050476371464524,0.3342837872712784,0.0009943677511210982,0.33104810412550884,5.810488964730354e-05,-4.8682096625451976e-05,-2.3888171865049657e-05,0.9999999984711689,2.3885439165362976e-05,-4.868422804242545e-05,-2.388817183303406e-05,0.9999999981400534,-5.810372666078591e-05,4.868209662212651e-05,5.810531519162554e-05,0.9999999974495826,-2.247200228094881e-05,-8.278434533080846e-05,-2.4911658160986505e-05,2.0663884926341554e-06,-1.1488214284457915e-05,2.6897327059307192e-05,-2.371509400361535e-05,-0.0015027464996747386,0.0008039148972119897,3.0770795391559154e-05,1.5707502658158063,3.0260616520096946e-05,-0.0011362643219982487,-0.048387209869627176,0.027354675112528815,0.0014620052908785595,0.023784038602849975,0.0014550100837594931,1.9292461974439053e-06,-0.013675099078067214,0.00653043258653987,2.4311175068850417e-07,0.006963248576097632,-2.6040417232661307e-07,0.043898391029408894,0.016677581333746416,0.37991327113090945,0.002024665802340898
61,0.061,9.26881236506159e-05,3.0663456375397455e-05,9.7628560486969e-05,0.04962179831681498,9.227885321558113e-05,-8.700661761536379e-06,3.5163088171563333e-06,223453.3049429775,0.9984804915099047,0.00020799950674174432,0.06205974456399113,0.33429055022050913,0.0009939876275448152,0.3310527826701527,6.102133150021061e-05,-5.143358212089666e-05,-2.5090836469843225e-05,0.999999998303983,2.5087793884728642e-05,-5.1435856577051325e-05,-2.5090836432685045e-05,0.9999999979368982,-6.102004091977322e-05,5.1433582114967374e-05,6.102175702715762e-05,0.9999999971381349,-2.0245596240364705e-05,-8.689889939019944e-05,-2.5095525169160915e-05,2.143882176444122e-06,-1.1730693413238986e-05,2.8249639964856536e-05,-2.4887938128490737e-05,-0.0015523682979915535,0.0008319980269669773,3.227894667322456e-05,1.5707746485677347,3.1763339079473694e-05,-0.0011728441248753888,-0.04962179831681498,0.02808312975498764,0.0015081512816654047,0.02438275192831174,0.0015027225593767493,1.9389202889378028e-06,-0.013673472342009071,0.006529928225408493,2.588274053386408e-07,0.006962139147749033,-2.7629168520403866e-07,0.04545561842741749,0.01667558676425012,0.3668542490629727,0.002024540845183078
62,0.062,9.626323903666275e-05,3.205033873579501e-05,0.00010145854031528777,0.05087734589119501,9.547771869079628e-05,-1.2272588293857307e-05,2.154969863379648e-06,364614.7093638258,0.9984272131919257,0.00021520538793954995,0.06364100288020957,0.3342974861457377,0.0009935952395322613,0.33105759725136885,6.403161100987376e-05,-5.427764634147181e-05,-2.6332284333907552e-05,0.9999999981217383,2.6328904800233366e-05,-5.428007579958219e-05,-2.6332284290322194e-05,0.9999999977167678,-6.403018167738124e-05,5.427764633225696e-05,6.403203651761391e-05,0.9999999967995858,-1.790544910601488e-05,-9.114454755909749e-05,-2.527207020386335e-05,2.2230296276565663e-06,-1.1976087399651147e-05,2.964550021419237e-05,-2.609788454448384e-05,-0.0016032456438827484,0.0008608215517581998,3.383383286495611e-05,1.570799640356393,3.331453201868229e-05,-0.0012099464159931025,-0.05087734589119501,0.028823524791222552,0.0015548861917315567,0.024991788658334613,0.0015511929392085931,1.948898082994231e-06,-0.013671803407434518,0.006529410770952415,2.7505869955305695e-07,0.006961000954745841,-2.9270041780755496e-07,0.04703915210108271,0.01667354046622596,0.3544609058862632,0.0020244126776951176
63,0.063,0.00010005323184655277,3.3482163395717227e-05,0.0001055068929909205,0.05215381491967945,9.876634870822737e-05,-1.599554831149767e-05,7.595426325593479e-07,1034486.5921441148,0.9983725856093352,0.00022259934554067065,0.06524848822732557,0.33430459801265944,0.000993190409797768,0.3310625499291649,6.713707462768781e-05,-5.7215593929349495e-05,-2.76130747440817e-05,0.9999999979234118,2.7609329398160552e-05,-5.721819112708415e-05,-2.761307469358251e-05,0.9999999974785648,-6.713549464022884e-05,5.721559391682826e-05,6.713750011294595e-05,0.9999999964321334,-1.545045144440982e-05,-9.552315011627816e-05,-2.5441315708252255e-05,2.303841569801719e-06,-1.222444890084013e-05,3.108553407534618e-05,-2.7345453089324363e-05,-0.0016553994588024278,0.0008903973821626826,3.5436035063833196e-05,1.570825251491267,3.491495460805606e-05,-0.0012475685448405233,-0.05215381491967945,0.029575830404482847,0.0016022021988770828,0.02561113487403072,0.0016004225893737677,1.9591832644721363e-06,-0.013670091580022335,0.00652888000725141,2.9181525262841974e-07,0.006959833524127466,-3.0964005798352845e-07,0.04864894353253139,0.016671441589085373,0.34268866656055025,0.002024281245522937
64,0.064,0.00010406115011395179,3.495954196248875e-05,0.0001097765573210666,0.05345116713490288,0.00010214626342502921,-1.987118092470271e-05,6.705548600114997e-07,1171775.4233772156,0.9983165870258388,0.000230184349708936,0.06688214951206886,0.33431188878346285,0.0009927729618213128,0.3310676427543375,7.03390623431055e-05,-6.024872346488408e-05,-2.893376448387386e-05,0.9999999977079289,2.8929622575958818e-05,-6.0251501948677816e-05,-2.8933764425593333e-05,0.999999997221141,-7.0337319019989e-05,6.024872344789593e-05,7.03394878033281e-05,0.9999999960338902,-1.2879509884933249e-05,-0.00010003655832127481,-2.560328469936035e-05,2.3863286657693643e-06,-1.2475830122282742e-05,3.2570364942473114e-05,-2.8631160950940632e-05,-0.0017088506259373307,0.000920737398835744,3.7086126396733144e-05,1.570851492267442,3.656536764141098e-05,-0.0012857078616162704,-0.05345116713490288,0.030340016673061347,0.0016500913328999505,0.026240776174815572,0.0016504130333549188,1.9697794564193666e-06,-0.013668336167576435,0.006528335719013964,3.0910678197420204e-07,0.0069586363844061265,-3.2712039085852186e-07,0.050284943498876716,0.016669289284879495,0.3314966295014404,0.0020241464944076495
65,0.065,0.00010828956309233112,3.6483082501524576e-05,0.00011427005199762978,0.05476936367679689,0.00010561896845896968,-2.3901108266967982e-05,2.135904097770438e-06,367873.64133236295,0.9982591957572075,0.0002379633631020205,0.06854193498448553,0.33431936141679663,0.0009923427198449413,0.33107287776848515,7.363890769740422e-05,-6.337832747060901e-05,-3.0294907840566765e-05,0.9999999974741679,3.0290336648141794e-05,-6.338130163400721e-05,-3.0294907773187764e-05,0.9999999969432963,-7.363698754236713e-05,6.337832744860751e-05,7.363933312865001e-05,0.9999999956028839,-1.0191547058502337e-05,-0.00010468661442502181,-2.5758000766928912e-05,2.470501517264215e-06,-1.2730282819839439e-05,3.410061334335711e-05,-2.995552266821827e-05,-0.0017636199896141275,0.000951853452408082,3.8784671869439044e-05,1.57087837296512,3.8266533596283426e-05,-0.0013243617172776377,-0.05476936367679689,0.031116053572338015,0.0016985454727058993,0.02688069767793492,0.001701165954872445,1.980690218893452e-06,-0.01366653648005766,0.006527777691585482,3.2694310744129155e-07,0.006957409065590209,-3.4515130316918817e-07,0.05194710207397927,0.016667082708339203,0.3208472088449191,0.0020240083701867626
66,0.066,0.00011274062613199885,3.805338973078324e-05,0.0001189895342063243,0.05610836509429255,0.00010918595528681246,-2.808693555270646e-05,3.637086044401082e-06,216037.23424956767,0.998200390171982,0.00024593934084623874,0.0702277922386183,0.33432701886773397,0.0009918995088694037,0.33107825700402094,7.703793778901513e-05,-6.660569242145087e-05,-3.169705661276723e-05,0.9999999972209538,3.169202135218443e-05,-6.660887754207992e-05,-3.169705653519755e-05,0.9999999966437775,-7.703582645496802e-05,6.660569239382713e-05,7.703836318773138e-05,0.9999999951370507,-7.3855015333412766e-06,-0.00010947515168071404,-2.5905488071464866e-05,2.5563706653638498e-06,-1.2987858301443459e-05,3.567689694698479e-05,-3.131905013181374e-05,-0.00181972835470842,0.000983757363384955,4.0532228212858446e-05,1.570905903849138,4.001921679705143e-05,-0.001363527463595469,-0.05610836509429255,0.03190391097687298,0.001747556343419403,0.027530884018066228,0.001752683200768005,1.9919190477673527e-06,-0.01366469182961468,0.006527205710956607,3.453341557299663e-07,0.006956151099206458,-3.637427876722805e-07,0.05363536863037213,0.016664821016914043,0.3107058167428449,0.0020238668187953003
67,0.067,0.00011741614306706322,3.9671065186161285e-05,0.00012393685515515437,0.05746813134686755,0.00011284870165094179,-3.243025113136387e-05,5.174681125727537e-06,151844.96637608352,0.9981401486921765,0.0002541152305118431,0.07193966821293615,0.3343348640877405,0.000991443154650475,0.33108378248418474,8.053747328551353e-05,-6.993209875183481e-05,-3.3140760119731993e-05,0.9999999969470601,3.313522385455464e-05,-6.993551103031889e-05,-3.314076003077606e-05,0.999999996321276,-8.053515553599417e-05,6.993209871759311e-05,8.053789864725935e-05,0.9999999946342375,-4.460327754751692e-06,-0.00011440399435434822,-2.6045771342686486e-05,2.6439465902382357e-06,-1.3248607428586104e-05,3.7299830571141184e-05,-3.2722252585027786e-05,-0.0018771964860552876,0.0010164609220473723,4.232934372634207e-05,1.570934095168485,4.182418358094187e-05,-0.0014032024532140454,-0.05746813134686755,0.03270355866241746,0.0017971155134836204,0.02819131934684645,0.001804966783890435,2.003469373520411e-06,-0.013662801530619174,0.006526619563773237,3.642899648845173e-07,0.0069548620183248885,-3.8290494764204284e-07,0.05534969184099966,0.01666250337081641,0.30104058064823425,0.002023721786267486
68,0.068,0.00012231762457544742,4.133670736254027e-05,0.00012911361143332794,0.05884862180612382,0.00011660867196957431,-3.693262654177039e-05,6.7492692115045e-06,116420.40196239663,0.9980784497939827,0.00026249397208881833,0.0736775091907669,0.3343429000246423,0.0009909734836954075,0.3310894562230568,8.413882843116838e-05,-7.335882086279e-05,-3.462656520980545e-05,0.9999999966512069,3.462048875669286e-05,-7.336247746199745e-05,-3.462656510777446e-05,0.999999995974428,-8.413628810122209e-05,7.335882082089469e-05,8.413925375111431e-05,0.9999999940921971,-1.414995984327927e-06,-0.00011947495773539929,-2.617887587863521e-05,2.733239712583936e-06,-1.3512580619426138e-05,3.89700261900522e-05,-3.416563662474453e-05,-0.0019360451078614114,0.0010499758883552733,4.417655811810773e-05,1.5709629571558175,4.368220246693504e-05,-0.0014433840397167445,-0.05884862180612382,0.03351496630790089,0.0018472143917656631,0.02886198733246994,0.0018580188859931744,2.0153445600141703e-06,-0.0136608648996953,0.0065260190373441825,3.8382068886960157e-07,0.006953541357580194,-4.026480014501439e-07,0.05709001968101235,0.016660128933058755,0.2918220912491286,0.002023573218737621
69,0.069,0.0001274463415032835,4.3050911832403883e-05,0.00013452119153565723,0.060249795257389514,0.00012046731774618548,-4.159561656730379e-05,8.36142959750146e-06,93973.89057180709,0.9980152720084746,0.0002710784979631793,0.07544126080073156,0.33435112962259306,0.0009904903232593762,0.3310952802255697,8.784331105626819e-05,-7.688712712949908e-05,-3.615501626796913e-05,0.999999996332057,3.6148358101074916e-05,-7.689104621571782e-05,-3.615501615120471e-05,0.9999999956018116,-8.784053101364175e-05,7.688712707874801e-05,8.784373632914066e-05,0.9999999935085857,1.751507761160731e-06,-0.00012468984814748647,-2.63048275434552e-05,2.8242603923867905e-06,-1.3779827849862957e-05,4.068809294210714e-05,-3.564970620244228e-05,-0.0019962949031188007,0.0010843139918527173,4.607440234275032e-05,1.5709925000269767,4.5594044327559165e-05,-0.0014840695776977514,-0.060249795257389514,0.034338103497444025,0.0018978442246425906,0.029542871159265655,0.00191184186062412,2.027547903254754e-06,-0.013658881255753824,0.006525403919650747,4.03936602230293e-07,0.0069521886531959945,-4.22982287230138e-07,0.05885629942958757,0.01665769686949648,0.2830231773090289,0.0020234210624415854
70,0.07,0.00013280337259870644,4.481427134639641e-05,0.00014016081724183582,0.061671609901186634,0.00012442607797713486,-4.6420759287358606e-05,1.0011740987442162e-05,78483.81117116536,0.9979505939223136,0.00027987173289374483,0.07723086801701223,0.3343595558220448,0.0009899935013416422,0.3311012564875223,9.165222258689099e-05,-8.051827990929183e-05,-3.7726655225167605e-05,0.9999999959882175,3.771937137729569e-05,-8.052248069365109e-05,-3.7726655091718147e-05,0.9999999952019448,-9.164918469031946e-05,8.051827984842386e-05,9.165264780713889e-05,0.9999999928809598,5.040181767446139e-06,-0.00013005046295875991,-2.642365276706027e-05,2.91701893045783e-06,-1.4050398655852005e-05,4.245463713753103e-05,-3.71749626252815e-05,-0.0020579665130199872,0.0011194869315749793,4.802339843584762e-05,1.5710227339805038,4.756048256359212e-05,-0.0015252564228392265,-0.061671609901186634,0.03517293972226205,0.0019489960930972995,0.03023395352726284,0.001966438236032955,2.0400826301409565e-06,-0.013656849920025872,0.0065247739993558335,4.246481048348847e-07,0.006950803443009205,-4.4391826762557987e-07,0.06064847767159717,0.016655206348870487,0.2746187041788819,0.002023265263718224
71,0.07100000000000001,0.00013838964646492084,4.662737591783017e-05,0.00014603357981528915,0.0631140233547569,0.00012848637955356168,-5.1409576130364426e-05,1.1700781475233227e-05,67154.76182819845,0.9978843941784533,0.0002888765939893941,0.0790462751596963,0.3343681815597176,0.0009894828466821288,0.33110738699559233,9.556685805423015e-05,-8.425353554875059e-05,-3.9342021566302066e-05,0.9999999956182384,3.9334065528220464e-05,-8.42580383301865e-05,-3.934202141417265e-05,0.9999999947732872,-9.556354311220161e-05,8.42535354763814e-05,9.556728321524766e-05,0.9999999922067773,8.452008681547607e-06,-0.00013555859059269837,-2.653537854363508e-05,3.0115255670111673e-06,-1.4324342135329347e-05,4.4270262266355675e-05,-3.874190455727567e-05,-0.002121080536374744,0.0011555063759575764,5.002405934564404e-05,1.5710536691971557,4.958229328165886e-05,-0.001566941931994167,-0.0631140233547569,0.03601944438259711,0.0020006609097964244,0.030935216651782085,0.0020218107180667425,2.0529518971992645e-06,-0.013654770216093817,0.006524129065812353,4.459657267002547e-07,0.006949385266492002,-4.6546653462160876e-07,0.06246650029935598,0.016652656542846023,0.26658539317515,0.002023105769010401
72,0.07200000000000001,0.0001442059778199018,4.849081289330623e-05,0.00015214047119043518,0.064576992653562,0.00013264963765502002,-5.6563571925616275e-05,1.3429128527013196e-05,58512.12770161468,0.997816651476846,0.00029809599068679634,0.08088742589510556,0.33437700976857,0.0009889581887573056,0.33111367372734996,9.958850610303216e-05,-8.809414439214791e-05,-4.100165233911213e-05,0.9999999952206078,4.099297495613097e-05,-8.809897060076469e-05,-4.1001652166198536e-05,0.9999999943142348,-9.958489383014236e-05,8.809414430664513e-05,9.958893119765833e-05,0.9999999914833912,1.1987955569836561e-05,-0.00014121601053821591,-2.6640032430913507e-05,3.107790484027772e-06,-1.4601706949939128e-05,4.6135569006018767e-05,-4.0351028020552106e-05,-0.002185657529028306,0.0011923839627471853,5.20768887618264e-05,1.5710853158394187,5.1660255474747765e-05,-0.0016091234632764364,-0.064576992653562,0.03687758678960896,0.002052829416182359,0.03164664226304165,0.002077962193088903,2.0661587893052314e-06,-0.013652641469925345,0.006523468909072624,4.679001329069544e-07,0.006947933664776363,-4.876378144671797e-07,0.06431031251434151,0.01665004662605569,0.25890165938913373,0.0020229425248664014
73,0.073,0.00015025309834868714,5.0405167011898115e-05,0.00015848241045894523,0.06606047425270033,0.00013691725613515938,-6.188423495368732e-05,1.519735896378078e-05,51704.42197229868,0.9977473445751474,0.00030753282472860324,0.08275426323605109,0.33438604337777167,0.0009884193577767081,0.33112011865127067,0.00010371844900047833,-9.204135078721976e-05,-4.27060821630576e-05,0.9999999947937552,4.269663152892016e-05,-9.20465230302113e-05,-4.270608196686775e-05,0.9999999938231205,-0.00010371451797459418,9.204135068725285e-05,0.00010371887402066404,0.9999999907080493,1.564897397371423e-05,-0.00014702449336040358,-2.6737642548790852e-05,3.2058238039362627e-06,-1.4882541327283825e-05,4.80511552293714e-05,-4.200282639670871e-05,-0.0022517180032810063,0.001230131298914413,5.4182380941370845e-05,1.5711176840510244,5.379515120562981e-05,-0.0016517983761566023,-0.06606047425270033,0.03774733616722769,0.0021054921795444453,0.03236821160572397,0.0021348957308820454,2.079706318393453e-06,-0.013650463009907103,0.006522793319897309,4.904621285899661e-07,0.006946448180678274,-5.104429726740255e-07,0.06617985882882212,0.016647375776141747,0.25154746580752857,0.002022775477941257
74,0.074,0.00015653168256120147,5.237102045437086e-05,0.00016506026605113926,0.06756442402837516,0.0001412906278959851,-6.737303699696899e-05,1.7006048943475987e-05,46205.590098914254,0.9976764522894249,0.0003171899901420965,0.08464672954218083,0.33439528531267504,0.000987866184678938,0.3311267237267496,0.00010795796264595481,-9.609639309582363e-05,-4.44558432377562e-05,0.9999999943360454,4.4445564586370127e-05,-9.610193520106364e-05,-4.445584301538989e-05,0.9999999932982134,-0.0001079536902627435,9.609639297896051e-05,0.00010795838758353993,0.9999999898778907,1.9435999966566087e-05,-0.00015298580071075184,-2.682823757965691e-05,3.3056355908471887e-06,-1.5166893063180907e-05,5.001761601258791e-05,-4.369779042827226e-05,-0.0023192824273093817,0.001268759960568386,5.634102053147069e-05,1.571150783956463,5.598776579319617e-05,-0.001694964031563546,-0.06756442402837516,0.03862866165397308,0.0021586395900998465,0.03309990543862702,0.0021926145875663557,2.093597422154363e-06,-0.013648234166877169,0.006522102089764467,5.136626640198356e-07,0.006944928358720967,-5.338930191069817e-07,0.06807508306755307,0.016644643173797127,0.2445041918940534,0.0020226045749979446
75,0.075,0.00016304236914118595,5.438895288340068e-05,0.00017187487405354956,0.069088797279298,0.00014577113525056443,-7.303143338953974e-05,1.8855773943695652e-05,41673.09624719494,0.9976039534948615,0.00032707037321829253,0.08656476652028543,0.3344047384947888,0.0009872985011278488,0.3311334909041142,0.00011230831658082252,-0.00010026050369749129,-4.625146535142122e-05,0.9999999938457814,4.624030094637627e-05,-0.00010026644076291738,-4.6251465099851185e-05,0.9999999927377151,-0.00011230367900769938,0.00010026050356188275,0.00011230874142553748,0.9999999889899437,2.334995420860686e-05,-0.00015910168533755898,-2.6911846766342062e-05,3.4072358497316244e-06,-1.5454809522901937e-05,5.203554364305135e-05,-4.5436408220266614e-05,-0.0023883712245886795,0.0013082814928731701,5.855328238953181e-05,1.571184625660497,5.823888800170668e-05,-0.0017386177919943534,-0.069088797279298,0.039521532304784,0.0022122618580611188,0.033841704034232506,0.002251122208510511,2.107834962719886e-06,-0.013645954274158231,0.006521395010878242,5.37512839766596e-07,0.006943373745158893,-5.579991131582021e-07,0.06999592836940084,0.016641848002807203,0.2377545150161125,0.0020224297629086
76,0.076,0.00016978577830223452,5.645954147735478e-05,0.00017892705311810361,0.07063354872806482,0.00015036015027352918,-7.886086306539355e-05,2.0747108744145785e-05,37874.31485915633,0.9975298271264657,0.0003371768524914824,0.08850831522461407,0.3344144058417521,0.0009867161395086018,0.3311404221246385,0.00011677077399463442,-0.00010453490900053097,-4.809347589018742e-05,0.9999999933211996,4.808136491130508e-05,-0.00010454126744065609,-4.809347560600709e-05,0.9999999921397589,-0.0001167657461248499,0.00010453490884387504,0.00011677119873698683,0.9999999880411233,2.7391742001114938e-05,-0.00016537389109620834,-2.6988499912727892e-05,3.510634528412834e-06,-1.5746337643548725e-05,5.41055276275578e-05,-4.721916524189428e-05,-0.0024590047733167443,0.0013487074099659297,6.0819631400247965e-05,1.5712192192476755,6.054931023296473e-05,-0.0017827570216276663,-0.07063354872806482,0.040425917092759486,0.002266349010716153,0.03459358717834637,0.0023104222312580495,2.122421725337984e-06,-0.013643622667592488,0.00652067187617887,5.620239119471975e-07,0.006941783888002364,-5.82772569006007e-07,0.07194233718893928,0.016638989450093764,0.23128230330026908,0.0020222509886560222
77,0.077,0.00017676252566407096,5.858336095723412e-05,0.00018621761640668407,0.07219863252254771,0.0001550590351380847,-8.486274860734202e-05,2.2680627409259284e-05,34645.72004883024,0.9974540521797763,0.000347512298719213,0.09047731605725556,0.3344242902673088,0.0009861189329237055,0.3311475193205566,0.00012134659173845819,-0.00010892082944735648,-4.998239984654873e-05,0.9999999927604712,4.996927827430504e-05,-0.00010892763704270156,-4.998239952611933e-05,0.9999999915024105,-0.0001213411471415483,0.00010892082926710137,0.0001213470163664021,0.9999999870282295,3.156225334066676e-05,-0.00017180415295943061,-2.705822738269248e-05,3.6158415162479604e-06,-1.6041523936388135e-05,5.622815470005438e-05,-4.904654432834346e-05,-0.002531203405839292,0.001390049194876852,6.314052228973682e-05,1.5712545747818452,6.29198287214045e-05,-0.0018273790864491797,-0.07219863252254771,0.04134178491092234,0.00232089088948885,0.03535553416973257,0.0023705184884397655,2.13736041703599e-06,-0.013641238685572814,0.006519932479350523,5.872072975578413e-07,0.006940158337040488,-6.082248609598005e-07,0.07391425129807758,0.016636066705754404,0.22507251867356756,0.0020220681993345707
78,0.078,0.00018397323314006472,6.076098360892386e-05,0.00019374738099167308,0.07378400223726034,0.00015986914243948277,-9.103849629513015e-05,2.4656903271163747e-05,31869.00200767482,0.9973766077115714,0.0003580795748626994,0.09247170876853256,0.33443439468128233,0.000985506715189016,0.3311547844150763,0.00012603702033064934,-0.00011341947952292486,-5.191875982824001e-05,0.9999999921616965,5.190456032571468e-05,-0.00011342676547007602,-5.191875946784513e-05,0.999999990823664,-0.00012603113120418893,0.00011341947931658818,0.00012603744483175028,0.9999999859479424,3.5862362972705064e-05,-0.00017839419702752625,-2.7121060099610794e-05,3.7228666453865172e-06,-1.634041448840773e-05,5.8404008829973453e-05,-5.091902568272222e-05,-0.002604987408076552,0.0014323182994507976,6.551639943674906e-05,1.5712907023056648,6.53512437321036e-05,-0.0018724813543787632,-0.07378400223726034,0.0422691045739456,0.002375877147012235,0.036127523819750915,0.0024314150106991015,2.1526536652745637e-06,-0.013638801669079454,0.0065191766148317756,6.130745798923398e-07,0.006938496643867086,-6.343676288922297e-07,0.07591161178765438,0.016633078963108706,0.21911112899851057,0.0020218813421518608
79,0.079,0.00019141853728977035,6.299297930071055e-05,0.00020151717509764508,0.07538961087461823,0.0001647918155057155,-9.738949615071516e-05,2.6676508912069648e-05,29456.449083253356,0.9972974728405753,0.00036888153606764936,0.09449143245731678,0.3344447219895536,0.0009848793208296718,0.33116221932239376,0.00013084330396662125,-0.0001180320677631741,-5.390307606800704e-05,0.9999999915229095,5.3887727859446354e-05,-0.0001180398627251833,-5.390307566316346e-05,0.9999999901014401,-0.00013083694108667008,0.0001180320675273367,0.00013084372832739,0.999999984796824,4.0292930442109576e-05,-0.0001851457405385227,-2.717702954674328e-05,3.8317196906572715e-06,-1.6643054964138238e-05,6.06336712302055e-05,-5.2837086878130784e-05,-0.0026803770189511703,0.0014755261442705974,6.79476966809408e-05,1.5713276118401167,6.784435976171705e-05,-0.0019180611954085582,-0.07538961087461823,0.04320784481979972,0.002431297244191738,0.036909534451972544,0.00249311602961345,2.1683040165909904e-06,-0.013636310961710951,0.006518404077823385,6.396375140445977e-07,0.006936798361903462,-6.612126837566985e-07,0.07793435906891748,0.01663002541873734,0.21338502833927198,0.0020216903644296024
80,0.08,0.0001990990955479278,6.52799154976663e-05,0.00020952784353251322,0.07701541086633848,0.00016982838869270624,-0.00010391712198693279,2.874001614760039e-05,27341.656484114308,0.9972166267481672,0.0003799210296455154,0.0965364255715683,0.33445527509403544,0.000984236585076,0.33116982594770655,0.00013576668052861507,-0.0001227597967603522,-5.5935866431156e-05,0.9999999908420705,5.591929517946544e-05,-0.00012276813292009386,-5.593586597733208e-05,0.9999999893335871,-0.00013575981319769004,0.0001227597964917112,0.00013576710473417464,0.9999999835713105,4.485480014715382e-05,-0.0001920604918783027,-2.722616776607012e-05,3.942410370599977e-06,-1.694949060799236e-05,6.291772036542502e-05,-5.480120285987622e-05,-0.002757392429817509,0.0015196841185820616,7.043483712821588e-05,1.5713653133840186,7.039998574233707e-05,-0.0019641159817454404,-0.07701541086633848,0.04415797431146407,0.00248714044727509,0.03770154390187565,0.002555625980620015,2.1843139352341134e-06,-0.01363376590972045,0.006517614664299032,6.669080324958641e-07,0.0069350630464235915,-6.887720131909807e-07,0.07998243287517759,0.016626905272527776,0.20788196450923443,0.0020214952136052705
81,0.081,0.00020701559069315485,6.762235727225201e-05,0.00021778025161407982,0.07866135407468922,0.0001749801876674321,-0.00011062273145199056,3.0847996009421855e-05,25473.426796023512,0.9971340486790887,0.0003912008950551454,0.09860662590873694,0.33446605689265113,0.0009835783438594144,0.3311776061872288,0.00014080838159458153,-0.00012760386317278716,-5.8017646426211655e-05,0.9999999901170683,5.799977410625564e-05,-0.0001276127742857562,-5.801764591792561e-05,0.9999999885178774,-0.00014080097758965209,0.0001276038628678141,0.0001408088056283896,0.9999999822677137,4.954880138946516e-05,-0.00019914015059072456,-2.726850735934594e-05,4.054948346905787e-06,-1.7259766245659803e-05,6.525673196004534e-05,-5.681184594784133e-05,-0.002836053783892198,0.0015648035802205817,7.297823295312782e-05,1.5714038169135351,7.301893524827291e-05,-0.0020106430879651073,-0.07866135407468922,0.045119461638520125,0.002543395824911939,0.03850352951650111,0.002618949505935839,2.2006858017900056e-06,-0.013631165862047283,0.006516808171012774,6.948982507868043e-07,0.006933290254577921,-7.170577872069853e-07,0.08205577226328623,0.016623717727714243,0.2025904731500469,0.0020212958372329342
82,0.082,0.0002151687338738714,7.00208673135093e-05,0.00022627528786021015,0.0803273917937637,0.00018024852967614706,-0.00011750766607535371,3.300101872857106e-05,23811.652362158966,0.9970497179421542,0.0004027239638848406,0.10070197061625628,0.3344770702793124,0.0009829044338081174,0.33118556192820414,0.00014596963244617456,-0.00013256545773110417,-6.014892921202275e-05,0.9999999893457175,6.012967398332417e-05,-0.00013257497917927574,-6.014892864386726e-05,0.9999999876520068,-0.00014596165796557003,0.0001325654573856097,0.00014597005629085613,0.9999999808822159,5.437574842448445e-05,-0.00020638640738754614,-2.7304081486545506e-05,4.169343225825802e-06,-1.7573926287466888e-05,6.765127900671218e-05,-5.886948583900983e-05,-0.0029163811756859614,0.0016108958555393624,7.557828519835209e-05,1.5714431323816893,7.570202670575932e-05,-0.002057639891168504,-0.0803273917937637,0.04609227531878066,0.0026000522452242695,0.039315468154117024,0.0026830914574864154,2.217421911799949e-06,-0.01362851017035339,0.006515984395509779,7.236204732767456e-07,0.006931479545418691,-7.460823639690836e-07,0.08415431561515659,0.016620461990923593,0.19749981767699942,0.002021092182984913
83,0.083,0.00022355926646568753,7.247600593262148e-05,0.00023501386567311656,0.08201347475070875,0.0001856347238001845,-0.00012457325131142577,3.5199653718224246e-05,22324.46684192655,0.9969636139109577,0.00041449305983479927,0.10282239619201718,0.33448831814389857,0.0009822146922430059,0.3311936950489208,0.00015125165207985347,-0.0001376457652462193,-6.233022560886425e-05,0.9999999885257576,6.230950168376249e-05,-0.00013765593409441682,-6.233022497454147e-05,0.9999999867335917,-0.000151243071688693,0.00013764576485610774,0.00015125207571553556,0.9999999794108694,5.933644051053788e-05,-0.0002138009441585532,-2.733292386714048e-05,4.285604556885543e-06,-1.7892014728485498e-05,7.010193177426029e-05,-6.097458961016233e-05,-0.0029983946504366704,0.001657972239339197,7.823538357121441e-05,1.571483269717873,7.8450083605581e-05,-0.0021051037711524996,-0.08201347475070875,0.04707638379983472,0.0026570983728623192,0.0401373361838902,0.002748056899821688,2.234524474370732e-06,-0.013625798189056078,0.006515143136134718,7.530871989838709e-07,0.006929630479923897,-7.758582956548374e-07,0.08627800063922451,0.0166171372722167,0.19259993450137347,0.0020208841986528005
