yagami-light7/MecArm_Kinematics/results/tcp_pose_6d_demo/null_space/20260423_001405/trajectory.csv
step,time,pos_err_norm,rot_err_norm,err_6d_norm,qdot_max,line_dev,phase_error,sigma_min,condition_number,joint_center_cost,joint_margin_min,qdot_norm,px,py,pz,roll,pitch,yaw,r11,r12,r13,r21,r22,r23,r31,r32,r33,epx,epy,epz,erx,ery,erz,q1,q2,q3,q4,q5,q6,qdot1,qdot2,qdot3,qdot4,qdot5,qdot6,qdot_null1,qdot_null2,qdot_null3,qdot_null4,qdot_null5,qdot_null6,qdot_primary_norm,qdot_null_norm,qdot_null_ratio,null_task_leak_norm
0,0.0,0.0,8.620652195328901e-10,8.620652195328901e-10,0.0033795814015025066,0.0,0.0,4.5365982948088026e-05,17317.968371345567,1.0000799182757985,3.7210469200016277e-07,0.00413787394307214,0.3340806509489974,0.0010019155657902898,0.33093286030734786,-1.6757040199877338e-10,2.8786084627085984e-10,-1.2229417478692994e-10,0.9999999999414647,2.1832294947712118e-10,-4.556171412373189e-10,-1.2229413565316075e-10,1.0000000001134242,1.6757067017938358e-10,-2.8786104749878305e-10,2.5807600501082106e-10,1.0000000003226814,0.0,0.0,0.0,4.2564667531331177e-10,7.434781889873462e-10,-9.602881350464613e-11,4.30773848398046e-10,-3.3795814015025065e-06,1.488418768000651e-06,-8.136072048961807e-11,1.570001866826101,8.12732719834134e-11,4.3077384839804595e-07,-0.0033795814015025066,0.001488418768000651,-8.136072048961806e-08,0.0018668261010726561,8.12732719834134e-08,4.315513748667331e-07,-0.003379580550976068,0.0014884154974791717,-8.348104904842302e-08,0.0018668359178505903,7.913935808602953e-08,1.0837101277956815e-08,0.004137876500974581,381789.7983100088,0.0004855523258150399
1,0.001,4.839781973952688e-07,2.390462831061477e-08,4.845681859229332e-07,0.003367199347217029,2.2370024531372474e-07,4.29177231227941e-07,4.5261936798932765e-05,17357.781931635247,1.0000766016142495,7.431072843680461e-07,0.004123097286920735,0.33408112348168306,0.0010019157085530627,0.33093296931396576,-1.5409913587924206e-10,2.462439367415584e-08,3.0141163479001606e-10,0.9999999999414644,-2.05382817829637e-10,2.3880915449997486e-08,3.0141163477237276e-10,1.0000000001134244,1.5409914309470643e-10,-2.4624393682101675e-08,2.7154734016932025e-10,1.0000000003226812,-4.7164468541804894e-07,-5.86762891529799e-10,-1.0856261778435794e-07,7.07928429396745e-10,-2.3888807694286987e-08,-5.049346025692404e-10,5.143645654335522e-10,-6.746780748719535e-06,2.9724291374721843e-06,3.0763451810304343e-10,1.5700037268294929,5.720520924886006e-10,8.359071703550622e-08,-0.003367199347217029,0.0014840103694715332,3.889952385926615e-07,0.001860003391837431,4.907788205051871e-07,4.315483132706574e-07,-0.0033795498038643487,0.0014884059791575237,-8.331075185445564e-08,0.0018668147907048886,7.896959050913531e-08,1.479067451875671e-05,0.0041378384330223415,279.7599357632426,0.0004855494549218504
2,0.002,9.605477235508244e-07,4.9180496285794965e-08,9.61805931793721e-07,0.0033870812101886773,4.4630220566803125e-07,8.50568204454821e-07,4.515827048144584e-05,17397.63261005022,1.000073263354295,1.1173081725272222e-06,0.004148443161829639,0.33408159428424705,0.0010019157354001702,0.33093307855524023,7.389694975689669e-10,4.780998424780888e-08,3.585215661267943e-10,0.9999999999414635,-2.6249269827587356e-10,4.706650608490848e-08,3.585215661058077e-10,1.0000000001134242,-7.389694807784263e-10,-4.780998426323624e-08,1.1646160702483144e-09,1.0000000003226799,-9.362383531774654e-07,-3.7180581174620086e-09,-2.1469944411212083e-07,1.8827663266871744e-09,-4.9142304848777294e-08,-4.5856300115138474e-10,-4.356547683971315e-10,-1.0133861958908213e-05,4.469232690108889e-06,2.106707799019765e-09,1.5700055968117321,2.290560837049282e-09,-9.500193338306837e-07,-0.0033870812101886773,0.0014968035526367045,1.7990732809167219e-06,0.001869982239182589,1.7185087445606815e-06,4.3154610603212577e-07,-0.0033795191581350767,0.0014883964923652264,-8.313889060170352e-08,0.0018667937330888546,7.879825418376959e-08,1.2090076963977473e-05,0.004137800490591617,342.2476267663651,0.0004855465938760629
3,0.003,1.4289656052966894e-06,7.515264834378465e-08,1.430940467550631e-06,0.0034391462333207383,6.692772696772529e-07,1.262541340872015e-06,4.505404761387363e-05,17437.88210847093,1.0000698703046094,1.4989949105470384e-06,0.0042138216468859966,0.3340820678619605,0.0010019154171314122,0.33093319069899996,4.269274711532489e-09,6.810541997026576e-08,-6.762967963425126e-10,0.9999999999414623,7.72325791644129e-10,6.736194180581578e-08,-6.762966569869581e-10,1.0000000001134246,-4.2692749955626475e-09,-6.810541997720465e-08,4.694921618142445e-09,1.0000000003226788,-1.3929849054794552e-06,-1.1815369922469482e-08,-3.1842762326927954e-07,3.958170240841996e-09,-7.504344994112001e-08,8.567743948580702e-10,-3.102930308731834e-09,-1.3573008192228953e-05,5.9959796421881535e-06,6.2519687225745e-09,1.5700074935382173,6.051523560020768e-09,-2.6672755403347026e-06,-0.0034391462333207383,0.0015267469520792644,4.145260923554735e-06,0.0018967264851659383,3.7609627229714864e-06,4.3154640938834197e-07,-0.0033794882891102778,0.0014883869367693463,-8.295958440463783e-08,0.0018667725217758867,7.861946771145758e-08,7.725827594994396e-05,0.0041377622717034225,53.55752723276886,0.00048554371353370967
4,0.004,1.8885417381142874e-06,1.0194390629882287e-07,1.891291214126264e-06,0.003523313221691651,8.941103662230604e-07,1.6634772464791922e-06,4.494833381366402e-05,17478.8980790952,1.0000663893621107,1.8924421796879594e-06,0.004319148919650334,0.3340825487089183,0.0010019145254725316,0.3309333084023691,1.2187345355130219e-08,8.377825455596621e-08,-3.525444380869658e-09,0.9999999999414613,3.6214742203226154e-09,8.30347764990691e-08,-3.5254443511362603e-09,1.0000000001134242,-1.2187345595147169e-08,-8.377825469647882e-08,1.2612991873162116e-08,1.0000000003226779,-1.8410983448347018e-06,-2.7290470271416553e-08,-4.197642332059992e-07,6.9421754110153375e-09,-1.0161836028448515e-07,4.2514803443558055e-09,-8.168331248533018e-09,-1.7096321413920605e-05,7.569768718751838e-06,1.3675899536285636e-08,1.5700094337378843,1.2666189218587316e-08,-5.065400939801184e-06,-0.003523313221691651,0.001573789076563684,7.423930813711137e-06,0.0019401996669469602,6.614665658566547e-06,4.3155087314714806e-07,-0.003379456873016535,0.0014883772123160748,-8.276697703949298e-08,0.0018667509341614807,7.842737438913597e-08,0.0001830678599810583,0.0041377233754989725,22.60212881346276,0.0004855407848283295
5,0.005,2.338661638889279e-06,1.2977622110389512e-07,2.3422596202761756e-06,0.0036395005389045637,1.12231178180662e-06,2.0517686335357005e-06,4.484019671385903e-05,17521.054384100356,1.000062787512377,2.3019117575134444e-06,0.004464345068207323,0.33408304130797817,0.00100191283307365,0.330933434311781,2.623660710909803e-08,9.310280146834771e-08,-8.908396242901517e-09,0.99999999994146,9.004427600389982e-09,9.235932310266981e-08,-8.908396303870102e-09,1.0000000001134237,-2.6236607880185634e-08,-9.310280148916439e-08,2.6662253627129928e-08,1.0000000003226766,-2.2798026844683683e-06,-5.2545431508286763e-08,-5.187262849815077e-07,1.0842841849950589e-08,-1.2889283557722677e-07,1.0532676843329875e-08,-1.630995341443533e-08,-2.073582195282517e-05,9.207647030053778e-06,2.530732754101491e-08,1.5700114341028952,2.2942369612714772e-08,-8.141622165902313e-06,-0.0036395005389045637,0.0016378783113019406,1.1631428004729271e-05,0.0020003650108654488,1.0276180394127458e-05,4.315611406571591e-07,-0.003379424586989623,0.0014883672192329107,-8.255523655818799e-08,0.0018667287482656788,7.821614182249775e-08,0.00032888665744910874,0.004137683402245367,12.580879448734537,0.00048553777877151773
6,0.006,2.7788106187335243e-06,1.5900040684745667e-07,2.7833558134316654e-06,0.0037876261032650464,1.3554278256055136e-06,2.425820245695373e-06,4.47287059797286e-05,17564.73151613777,1.0000590318300704,2.731652487541612e-06,0.004649331578404921,0.33408355013070373,0.0010019101135078973,0.3309335710629921,4.815339638142291e-08,9.436012504693281e-08,-1.7541705421564302e-08,0.99999999994146,1.7637738817479906e-08,9.361664608451004e-08,-1.7541705418028786e-08,1.000000000113423,-4.8153398083730354e-08,-9.436012502958557e-08,4.857904312149941e-08,1.0000000003226757,-2.7083318631104802e-06,-8.997263920744805e-08,-6.153307226530735e-07,1.5668252507231198e-08,-1.5689235993850078e-07,2.050421015192511e-08,-2.8203122661683888e-08,-2.4523448056090218e-05,1.0926609950166448e-05,4.2071384661426016e-08,1.5700135112883218,3.768449013985407e-08,-1.1893169247248557e-05,-0.0037876261032650464,0.0017189629201126706,1.67640571204111e-05,0.002077185426458754,1.47421205271393e-05,4.315788487530888e-07,-0.00337939110907974,0.0014883568580295456,-8.231855466384168e-08,0.0018667057427374397,7.797996130069518e-08,0.000514574970644646,0.004137641953342173,8.040892350667098,0.0004855346664533934
7,0.007,3.2085996391375227e-06,1.9011773596772426e-07,3.2142271851571e-06,0.003967607384092229,1.5950498492361505e-06,2.7840487823784256e-06,4.461293332555225e-05,17610.317186891618,1.0000550894793685,3.185900249443685e-06,0.004874028978894346,0.33408407963730696,0.0010019061412698,0.33093372128109577,7.966696902172998e-08,8.58380349022525e-08,-3.013900728987551e-08,0.9999999999414606,3.02350431179378e-08,8.509455468388993e-08,-3.01390074233391e-08,1.0000000001134206,-7.966697173994688e-08,-8.583803518848188e-08,8.009261570629533e-08,1.0000000003226748,-3.1259296590091523e-06,-1.4195480478422506e-07,-7.095944226098716e-07,2.1426512963617888e-08,-1.8564210473313465e-07,3.496665585904804e-08,-4.452039807025149e-08,-2.8491055440182446e-05,1.274360099777474e-05,6.488945408542113e-08,1.5700156819118223,5.7693653474620445e-08,-1.6317275408567605e-05,-0.003967607384092229,0.001816991047608291,2.2818069423995104e-05,0.0021706235005923185,2.0009163334766374e-05,4.3160562767543646e-07,-0.0033793561182534526,0.0014883460294988521,-8.205114584283237e-08,0.001866681696855545,7.7713046927373e-08,0.000740020217964682,0.004137598631323809,5.591196733938535,0.00048553141904271105
8,0.008,3.627793094351545e-06,2.237897490853894e-07,3.6346890633478484e-06,0.00417936139805154,1.8428212257161566e-06,3.1248828242803746e-06,4.4491952530890486e-05,17658.207092118748,1.0000509277144112,3.668877929781137e-06,0.005138354995782244,0.334084634276592,0.0010019006917736599,0.3309338875805358,1.2249951009124516e-07,6.583108014268646e-08,-4.7411025771992854e-08,0.9999999999414614,4.7507062627793255e-08,6.508759614262671e-08,-4.74110257149977e-08,1.0000000001134155,-1.2249951340575268e-07,-6.583108011840033e-08,1.229251567758105e-07,1.0000000003226717,-3.5318496051650605e-06,-2.1086497809593048e-07,-8.015341932399167e-07,2.8125751046997954e-08,-2.1516693141168625e-07,5.471732404478984e-08,-6.593157494524173e-08,-3.2670416838233984e-05,1.4675511719124549e-05,9.46791038717457e-08,1.570017962553314,8.376771627305075e-08,-2.141117687499025e-05,-0.00417936139805154,0.0019319107213498089,2.9789649786324572e-05,0.0022806414916444672,2.6074062798430296e-05,4.3164310096545873e-07,-0.0033793192943999254,0.00148833463471871,-8.174724625393317e-08,0.0018666563905329707,7.740963450851866e-08,0.0010051149244287747,0.004137553039867296,4.116497462319789,0.00048552800778746776
9,0.009000000000000001,4.036338708901404e-06,2.608335795186437e-07,4.0447576354066465e-06,0.004422804705441534,2.1004420113677985e-06,3.4467627608964783e-06,4.4364839457219677e-05,17708.805862286765,1.000046513879752,4.184795393268648e-06,0.005442223377398394,0.33408521848590106,0.0010018935413519917,0.3309340725651213,1.7836614496502534e-07,3.264053738405437e-08,-7.006557645183875e-08,0.9999999999414617,7.016161097405745e-08,3.1897047007151125e-08,-7.00655763118115e-08,1.000000000113406,-1.783661475456139e-07,-3.264053767548791e-08,1.7879179192714645e-07,1.000000000322665,-3.925354906841871e-06,-2.9906656010187695e-07,-8.911667750410857e-07,3.577411526008131e-08,-2.4549139244671557e-07,8.055026453364229e-08,-9.310368762524203e-08,-3.709322154367552e-05,1.6739181573074593e-05,1.323540074218601e-07,1.5700203697546375,1.1670137899304654e-07,-2.7172112680000296e-05,-0.004422804705441534,0.0020636698539500445,3.767490355011439e-05,0.002407201323678278,3.2933662719995795e-05,4.316928853344184e-07,-0.0033792803183344535,0.0014883225750525815,-8.140111237093435e-08,0.0018666296043198859,7.706398019354943e-08,0.0013097528340477891,0.00413750478379674,3.158996623699444,0.0004855244040150936
10,0.01,4.43439964905184e-06,3.0220206916333054e-07,4.444685178740748e-06,0.004697853406509566,2.36967115826203e-06,3.748140718962587e-06,4.423067206472197e-05,17762.528210020806,1.0000418154108204,4.73784945455524e-06,0.005785543374427599,0.33408583669106123,0.0010018844672537704,0.3309342788280404,2.489749495460103e-07,-1.5425590138562484e-08,-9.880757279034924e-08,0.9999999999414593,9.890359790428501e-08,-1.6169092790369044e-08,-9.880757292342574e-08,1.0000000001133884,-2.4897494808149986e-07,1.5425590100398567e-08,2.4940059611955334e-07,1.00000000032265,-4.305718360131383e-06,-4.089133153325694e-07,-9.785088406766285e-07,4.437977451820568e-08,-2.7663973507293654e-07,1.1325627222846044e-07,-1.267010121012237e-07,-4.179107495018509e-05,1.895139781822096e-05,1.7882385072726765e-07,1.5700229200192182,1.572862889324959e-07,-3.359732447598168e-05,-0.004697853406509566,0.002212216245146367,4.646984330540755e-05,0.0025502645807006967,4.0584909939449354e-05,4.317565905076842e-07,-0.003379238871805801,0.0014883097521525782,-8.100701937908456e-08,0.0018666011194077875,7.667035886995161e-08,0.0016538278349138105,0.004137453469092366,2.5017437602906507,0.0004855205791332383
11,0.011,4.82238881301653e-06,3.489510210070673e-07,4.834997484897883e-06,0.005004423137849314,2.6523262922568188e-06,4.0274804907386925e-06,4.408853042832662e-05,17819.80028794265,1.0000367998343918,5.33222385052864e-06,0.006168219746694333,0.33408649330633206,0.0010018732476427305,0.3309345089518742,3.36026959590896e-07,-8.005258456122988e-08,-1.3433903234272293e-07,0.9999999999414525,1.3443503403973237e-07,-8.079610807482096e-08,-1.343390321358902e-07,1.0000000001133587,-3.3602694888397917e-07,8.005258472255916e-08,3.364526062199502e-07,1.0000000003226215,-4.6722222706852e-06,-5.42749384411156e-07,-1.0635769943645457e-06,5.39509169216347e-08,-3.0863590282794e-07,1.536228925348432e-07,-1.673850684497861e-07,-4.67954980880344e-05,2.132889540211456e-05,2.3499422629446517e-07,1.5700256298117192,2.0631115657284646e-07,-4.068405634856241e-05,-0.005004423137849314,0.002377497583893601,5.617037556719754e-05,0.002709792500961824,4.9024867640350554e-05,4.3183581904279836e-07,-0.0033791946375004525,0.001488296067960066,-8.055925931751904e-08,0.0018665707176332023,7.622306230363633e-08,0.002037233576256839,0.0041373987028959225,2.0308906887677467,0.00048551650462998956
12,0.012,5.2010050732877285e-06,4.021990374448244e-07,5.216533124411867e-06,0.005342429068787707,2.9502812183692668e-06,4.283257464245144e-06,4.3937496754402644e-05,17881.061272123818,1.000031434769071,5.9720892131248075e-06,0.006590153123380873,0.33408719273435394,0.0010018596615955445,0.3309347655086117,4.412161822564542e-07,-1.6291901827614197e-07,-1.7735907853477784e-07,0.9999999999414355,1.7745503559030747e-07,-1.6366257511030158e-07,-1.7735907869804174e-07,1.0000000001133114,-4.412161534281032e-07,1.6291901853808521e-07,4.4164182894101955e-07,1.0000000003225706,-5.024158374111742e-06,-7.029092964547495e-07,-1.1463877725992333e-06,6.449574933905822e-08,-3.415035385776759e-07,2.0243442685882882e-07,-2.1581462308394542e-07,-5.213792715682211e-05,2.388835685249923e-05,3.017665136612187e-07,1.5700285155576905,2.645618853221285e-07,-4.842955463415931e-05,-0.005342429068787707,0.0025594614503846687,6.67722873667535e-05,0.002885745971330728,5.825072874928208e-05,4.31932166121745e-07,-0.0033791472990472387,0.0014882814247069848,-8.005213897613025e-08,0.0018665381814810208,7.571639703344004e-08,0.0024598633063543074,0.004137340093516521,1.6819390252893418,0.0004855121520741741
13,0.013000000000000001,5.571270975708835e-06,4.6308704545072955e-07,5.590483869616293e-06,0.005711785897689137,3.26546144410728e-06,4.513958555627629e-06,4.3776655397299056e-05,17946.7651903348,1.0000256879257794,6.661603042631452e-06,0.007051240551651063,0.3340879393661003,0.0010018434891000618,0.33093505105966375,5.662296054254057e-07,-2.6569676103704865e-07,-2.285639508770032e-07,0.9999999999414032,2.2865982921703006e-07,-2.6644036873330057e-07,-2.285639509199681e-07,1.0000000001132379,-5.662295447798327e-07,2.656967610249056e-07,5.666552522209933e-07,1.0000000003224854,-5.3608277593708564e-06,-8.917179815349455e-07,-1.226957644151483e-06,7.602249663689989e-08,-3.7526598711465877e-07,2.6047193818958566e-07,-2.726456908254711e-07,-5.7849713054511244e-05,2.6646412170525807e-05,3.800377464143412e-07,1.570031593643212,3.328217147433013e-07,-5.683106774152567e-05,-0.005711785897689137,0.002758055318026578,7.827123275312249e-05,0.003078085521629193,6.825982942117275e-05,4.3204721931773543e-07,-0.003379096541025063,0.001488265724918448,-7.947997753360355e-08,0.001866503294089425,7.514468200650425e-08,0.0029216097941551313,0.004137277250440179,1.4160950778919805,0.0004855074931160702
14,0.014,5.9345710415724556e-06,5.327439825675517e-07,5.958435163567051e-06,0.006112407848538247,3.5998381039396095e-06,4.718082139263439e-06,4.360509287556277e-05,18017.383017725628,1.0000195271082553,7.4049096815018745e-06,0.007551376105324675,0.33408873758082624,0.0010018245110533061,0.33093536815587826,7.127472083645614e-07,-3.900509870646829e-07,-2.8864700629682716e-07,0.9999999999413468,2.8874275689096767e-07,-3.9079467125877065e-07,-2.886470061988873e-07,1.0000000001131282,-7.127470958019902e-07,3.900509871843788e-07,7.131728549936156e-07,1.0000000003223508,-5.681540789059802e-06,-1.111490782897866e-06,-1.3053030105125707e-06,8.853940066580382e-08,-4.099462960066898e-07,3.285132567828451e-07,-3.385315368018765e-07,-6.396212090304949e-05,2.9619638726007498e-05,4.7070046562231743e-07,1.5700348804145312,4.118713773517633e-07,-6.588584597640538e-05,-0.006112407848538247,0.002973226555481691,9.066271920797625e-05,0.0032867713191614438,7.904966260846203e-05,4.3218255833579214e-07,-0.003379042048969807,0.0014882488714147984,-7.88371039439329e-08,0.0018664658392548846,7.45022459618132e-08,0.003422365287280803,0.004137209784338543,1.208874399967058,0.00048550249948796614
15,0.015,6.292689394752309e-06,6.122625862121086e-07,6.322405024458914e-06,0.006544208667211627,3.95542073867827e-06,4.89413798320746e-06,4.34218978884347e-05,18093.405066667056,1.00001292021356,8.206140288639533e-06,0.008090451467548611,0.33408959174602376,0.0010018025092596616,0.33093571933755417,8.824419714947851e-07,-5.376401834844557e-07,-3.5829872668813323e-07,0.9999999999412555,3.5839428084761426e-07,-5.383839782012456e-07,-3.5829872664338787e-07,1.0000000001129705,-8.824417788026107e-07,5.376401836214989e-07,8.828676181238393e-07,1.0000000003221465,-5.985617026360579e-06,-1.3645334693717683e-06,-1.3814402062828357e-06,1.020547197817841e-07,-4.455672196535626e-07,4.0733298591643074e-07,-4.1412267817272106e-07,-7.050632957026112e-05,3.282456115455813e-05,5.746425596023524e-07,1.5700383921776944,5.024892690673779e-07,-7.559114137084452e-05,-0.006544208667211627,0.0032049224285506323,0.00010394209398003496,0.003511763163123495,9.061789171561456e-05,4.3233975472701455e-07,-0.003378983509378956,0.001488230767312674,-7.811785406496421e-08,0.0018664256014355235,7.378342455545138e-08,0.003962021486708623,0.004137137307074664,1.0441986041492461,0.00048549714300436653
16,0.016,6.647844900320033e-06,7.026860745512036e-07,6.684879171539246e-06,0.007007101618058405,4.334249393779943e-06,5.040647181790417e-06,4.322616133219198e-05,18175.343703146376,1.000005835232595,9.06941281417716e-06,0.008668356441218604,0.3340905062173739,0.001001777266428816,0.3309361071344562,1.0769798861609559e-06,-7.101161560996161e-07,-4.382067246844201e-07,0.9999999999411165,4.3830198858463115e-07,-7.108601067368214e-07,-4.3820672478038557e-07,1.0000000001127478,-1.0769795749587615e-06,7.101161562800273e-07,1.0774055329565435e-06,1.0000000003218483,-6.272385158490046e-06,-1.653142247533745e-06,-1.4553854993382132e-06,1.1657672856931198e-07,-4.821512206255902e-07,4.977025077026536e-07,-5.000668856890041e-07,-7.751343118831952e-05,3.627765125670864e-05,6.927470899422907e-07,1.5700421451981736,6.054516334021981e-07,-8.594420751628295e-05,-0.007007101618058405,0.0034530901021505083,0.00011810453033993829,0.0037530204791990825,0.0001029623643348202,4.325203715770763e-07,-0.0033789206097201573,0.0014882113160275946,-7.731656752840865e-08,0.0018663823657571804,7.298255722699008e-08,0.004540469530506229,0.004137059431713759,0.9111523385426956,0.0004854913955627223
17,0.017,7.002721457101911e-06,8.050040637890989e-07,7.048839574601799e-06,0.007500999480412245,4.738386491878128e-06,5.156142090693937e-06,4.301697631656843e-05,18263.73642808261,0.9999982402506284,9.998831974728707e-06,0.009284979368055129,0.3340914853387011,0.0010017485661738016,0.3309365340658303,1.2980199661782876e-06,-9.091240369407672e-07,-5.290557494319614e-07,0.9999999999409116,5.291505979012026e-07,-9.098682024477611e-07,-5.290557494460493e-07,1.0000000001124412,-1.298019485236697e-06,9.091240371957715e-07,1.2984456129738753e-06,1.000000000321425,-6.54118292275907e-06,-1.979603773971184e-06,-1.5271550919404575e-06,1.3211371604582521e-07,-5.197204727418375e-07,6.003899890592178e-07,-5.9700918509007e-07,-8.501443066873177e-05,3.999532789891483e-05,8.258921036915957e-07,1.5700461557004879,7.215327594541287e-07,-9.694229940106593e-05,-0.007500999480412245,0.0037176766422061837,0.00013314501374930496,0.00401050231419136,0.00011608112605193057,4.327259631681824e-07,-0.003378853038437141,0.0014881904212757375,-7.642758435019693e-08,0.001866335918017448,7.209398380588132e-08,0.005157599982201532,0.0041369757725306135,0.8021125690252978,0.000485485229143795
18,0.018000000000000002,7.360490540344487e-06,9.201549011378508e-07,7.417783094468905e-06,0.008025814545049434,5.169908882600784e-06,5.239166263835966e-06,4.279343818101187e-05,18359.149369552837,0.999990103447827,1.0998489229106666e-05,0.009940207455768235,0.3340925334419302,0.001001716193008873,0.3309370026404177,1.5472142571582026e-06,-1.1363022909272047e-06,-6.315276919188761e-07,0.9999999999406197,6.316219620241547e-07,-1.1370467472987533e-06,-6.315276916934663e-07,1.000000000112027,-1.5472135393666766e-06,1.136302291570787e-06,1.5476399036207233e-06,1.0000000003208378,-6.791357035185186e-06,-2.346195167383198e-06,-1.5967651210146983e-06,1.4867398578967542e-07,-5.582968629386727e-07,7.161603876718233e-07,-7.055918583427268e-07,-9.30402452137812e-05,4.399395691642666e-05,9.749504316553143e-07,1.5700504398678186,8.515051937914295e-07,-0.00010858267325265671,-0.008025814545049434,0.003998629017511836,0.00014905832796371853,0.0042841673306188805,0.00012997243433730078,4.329580746150316e-07,-0.0033787804849586315,0.001488167987076636,-7.544524127968186e-08,0.0018662860446918572,7.111204085633715e-08,0.005813302821764258,0.004136885945020746,0.7116240235793588,0.00048547861581238895
19,0.019,7.724822671717987e-06,1.0490315794613747e-06,7.79572655781329e-06,0.008581458610767088,5.630900397377247e-06,5.2882743900400785e-06,4.255464451091762e-05,18462.18124063301,0.9999813930997995,1.2072462754503508e-05,0.010633927022808404,0.3340936548470432,0.0010016799323474164,0.33093751535647037,1.8262078449460262e-06,-1.3932827247487012e-06,-7.463015907482884e-07,0.9999999999402155,7.463950747843642e-07,-1.3940275667943813e-06,-7.463015908586161e-07,1.0000000001114773,-1.826206805092905e-06,1.3932827252535057e-06,1.8266334919081473e-06,1.0000000003200422,-7.022263118605654e-06,-2.7551840207117647e-06,-1.664231658926596e-06,1.662658557714097e-07,-5.979019939787394e-07,8.45775458090429e-07,-8.264544447272613e-07,-0.00010162170382454828,4.828985101801403e-05,1.140789472716056e-06,1.57005501384162,9.961399662996684e-07,-0.00012086258638453453,-0.008581458610767088,0.004295894101587372,0.0001658390410607416,0.004573973801445195,0.0001446347725082388,4.332182414742383e-07,-0.0033787026397056846,0.001488143917755069,-7.436386788515954e-08,0.0018662325329392797,7.003105775816694e-08,0.006507467438337358,0.004136789565909645,0.6356988497403662,0.00048547152771782665
20,0.02,8.099884341165679e-06,1.1924890205622268e-06,8.187194660225345e-06,0.009167842981002861,6.123445154989301e-06,5.302032230579843e-06,4.22996951542681e-05,18573.467828036817,0.9999720775781482,1.3224817423131935e-05,0.011366023674007656,0.3340948538620365,0.0010016395704997693,0.3309380747017661,2.1366388693877525e-06,-1.6816904908623087e-06,-8.740536405760224e-07,0.9999999999396688,8.741460758278673e-07,-1.682435838059465e-06,-8.740536407454773e-07,1.0000000001107587,-2.1366373992529302e-06,1.6816904917105885e-06,2.137064516127829e-06,1.000000000318983,-7.233265631678698e-06,-3.2088284131833074e-06,-1.7295707145370542e-06,1.8489765633437458e-07,-6.385571862583441e-07,9.899937579203925e-07,-9.602337417756035e-07,-0.00011078954680555114,5.289926969252774e-05,1.3242709641040765e-06,1.570059893721225,1.1562068300521605e-06,-0.00013377929704834224,-0.009167842981002861,0.004609418674513706,0.00018348149138802057,0.004879879604862306,0.00016006686375249216,4.3350798932724285e-07,-0.0033786191940982256,0.0014881181179433071,-7.317778237563038e-08,0.0018661751706061454,6.884535252348084e-08,0.007239982624003086,0.004136686253160952,0.5713668757815822,0.00048546393709435334
21,0.021,8.490317165982148e-06,1.3513513056123207e-06,8.597187675638543e-06,0.009784878460440157,6.64962177553255e-06,5.279016558127946e-06,4.202769223739413e-05,18693.6870902265,0.9999621253510272,1.4459604779313653e-05,0.012136382421113905,0.3340961347828803,0.001001594894671041,0.3309386831536235,2.4801385305472934e-06,-2.0031440981505e-06,-1.0154571961074055e-06,0.9999999999389428,1.0155482559310418e-06,-2.0038900965281548e-06,-1.0154571958705988e-06,1.000000000109832,-2.480136496134601e-06,2.0031440991306187e-06,2.480564177398392e-06,1.0000000003175977,-7.423737799716612e-06,-3.709376922351147e-06,-1.792798234034887e-06,2.0457773087688532e-07,-6.802834810270148e-07,1.1495706540492218e-06,-1.1075638060670664e-06,-0.0001205744252659913,5.783841911725461e-05,1.526250737559986e-06,1.570065095563444,1.3324745152859686e-06,-0.00014733006429146277,-0.009784878460440157,0.004939149424726869,0.0002019797734559095,0.005201842219115262,0.00017626768523380812,4.3382883333729965e-07,-0.0033785298405653538,0.0014880904925835769,-7.188128715634136e-08,0.001866113746234328,6.754922734677294e-08,0.008010736568163434,0.00413657562598947,0.5163789359785994,0.000485455816261929
22,0.022,8.901196892824762e-06,1.5264181004993987e-06,9.031127191129875e-06,0.010432475351625323,7.211498577888036e-06,5.21781509696178e-06,4.1737740181589276e-05,18823.564957735944,0.9999515049837117,1.5780863017009745e-05,0.012944887761101635,0.3340975018934793,0.0010015456929588513,0.3309393431789174,2.8583311015850654e-06,-2.3592554168061497e-06,-1.1711827778704276e-06,0.9999999999379957,1.1712720623262159e-06,-2.36000224429489e-06,-1.171182777851255e-06,1.0000000001086522,-2.8583283379400736e-06,2.3592554176353475e-06,2.858756748047586e-06,1.0000000003158114,-7.593061546906643e-06,-4.259068636057722e-06,-1.85393010199153e-06,2.2531443440681337e-07,-7.231016419658061e-07,1.3252583289934401e-06,-1.2690759538873519e-06,-0.00013100690061761662,6.312345206803898e-05,1.747578461313781e-06,1.5700706353821614,1.5257109975381218e-06,-0.0001615121478202855,-0.010432475351625323,0.005285032950784365,0.00022132772375379504,0.005539818717350216,0.00019323648225215317,4.341822777796724e-07,-0.0033784342725530223,0.0014880609469307595,-7.046866411698055e-08,0.0018660480490659687,6.613696388726762e-08,0.008819616852345129,0.004136457304870731,0.469006462939696,0.00048544713762675083
23,0.023,9.337971301696793e-06,1.7184699946712807e-06,9.494779995023496e-06,0.01111054345169906,7.811129765352147e-06,5.1170264627068735e-06,4.142894571929534e-05,18963.881948356444,0.9999401851391726,1.71926169577967e-05,0.01379142372328218,0.33409895946563284,0.0010014917543509272,0.3309400572340933,3.2728339367515957e-06,-2.751629685437962e-06,-1.341898081985704e-06,0.9999999999367785,1.3419851041122643e-06,-2.7523775574418707e-06,-1.341898081865129e-06,1.000000000107167,-3.2728302436376413e-06,2.751629686485735e-06,3.2732595832696276e-06,1.0000000003135376,-7.74062742819881e-06,-4.860133164252172e-06,-1.9129821418051307e-06,2.4711613368814365e-07,-7.670321578093373e-07,1.5178057872939103e-06,-1.4453987617565438e-06,-0.00014211744406931567,6.87704678311868e-05,1.9890973678238683e-06,1.570076529147924,1.7366837800139083e-06,-0.0001763228078691918,-0.01111054345169906,0.005647015763147816,0.00024151890651008737,0.005893765762571111,0.0002109727824757866,4.3456981554550486e-07,-0.0033783321845326656,0.0014880293865546788,-6.893416965067015e-08,0.001865977869049788,6.46028182816445e-08,0.009666510445427342,0.0041363309115518675,0.4279032164166976,0.00048543787368181263
24,0.024,9.806378106812936e-06,1.9282727418743882e-06,9.994162663316815e-06,0.011818992049071612,8.450552553753233e-06,4.975260104776968e-06,4.110041791018038e-05,19115.480731793425,0.9999281345786617,1.8698878029263824e-05,0.014675873893748144,0.3341005117589979,0.0010014328687229202,0.33094082776518424,3.725257482489752e-06,-3.1818655195081647e-06,-1.5282679832751e-06,0.9999999999352347,1.5283521577068384e-06,-3.182614693449798e-06,-1.5282679832583491e-06,1.000000000105316,-3.7252526190879926e-06,3.1818655208647184e-06,3.7256831291188064e-06,1.0000000003106777,-7.86583456369172e-06,-5.514790651030407e-06,-1.969970117976505e-06,2.699912060932422e-07,-8.120952449045e-07,1.7279588620368217e-06,-1.6371580668331186e-06,-0.00015393643611838728,7.47955121170553e-05,2.251643967208563e-06,1.5700827927875265,1.9661601902414227e-06,-0.00019175930507657474,-0.011818992049071612,0.006025044285868491,0.0002625465993846946,0.006263639602636868,0.00022947641022751442,4.3499292761943274e-07,-0.0033782232720099056,0.0014879957173425302,-6.727202940578389e-08,0.0018659029968474082,6.294101588915723e-08,0.010551303698993028,0.0041361960690626245,0.39200805764555496,0.00048542799700747113
25,0.025,1.0312346319538113e-05,2.1565805253343e-06,1.0535431940663013e-05,0.01255772992023112,9.131785152482619e-06,4.7911362475856e-06,4.0751268157393185e-05,19279.27480608516,0.9999153221623036,2.030364424384836e-05,0.015598121424154426,0.33410216302105133,0.0010013688268359026,0.33094165720782476,4.217205287648795e-06,-3.651554918437938e-06,-1.7309545441435148e-06,0.9999999999332995,1.731035172394012e-06,-3.6523056988237157e-06,-1.730954544195687e-06,1.0000000001030318,-4.217198966224467e-06,3.6515549195637736e-06,4.217630934111316e-06,1.0000000003071192,-7.968090572463282e-06,-6.225251786353596e-06,-2.0249097361646484e-06,2.9394803938156943e-07,-8.583108495736265e-07,1.9564602213945207e-06,-1.8449769672002472e-06,-0.0001664941660386184,8.121457697539345e-05,2.5360477463152404e-06,1.5700894421835918,2.214907691076071e-06,-0.00020781890036712856,-0.01255772992023112,0.0064190648583381535,0.00028440377910667747,0.0066493960653245905,0.000248747500834648,4.354530825309703e-07,-0.0033781072315354397,0.001487959845502339,-6.547643276340356e-08,0.0018658232238405398,6.11457457619556e-08,0.011473882342977904,0.004136052401728904,0.36047540646952175,0.00048541748027230416
26,0.026000000000000002,1.0861886870546016e-05,2.4041384157400786e-06,1.1124768218285591e-05,0.013326665326493785,9.856825491956495e-06,4.563285834760859e-06,4.038061022378832e-05,19456.258482296733,0.9999017168496958,2.2010900178081287e-05,0.01655804902969136,0.3341039174870547,0.0010012994203339462,0.33094254798726774,4.7502740123661624e-06,-4.162283270492395e-06,-1.9506170207961304e-06,0.9999999999309,1.9506932758511064e-06,-4.1630360178533665e-06,-1.950617020467718e-06,1.000000000100237,-4.750265892675109e-06,4.162283272128239e-06,4.7506996589397055e-06,1.0000000003027334,-8.04681150889941e-06,-6.9937178178490576e-06,-2.077816645684738e-06,3.1899503101737695e-07,-9.056986493624199e-07,2.204049375301408e-06,-2.0694758220414724e-06,-0.0001798208313651122,8.804360071232515e-05,2.843130853368424e-06,1.5700964931741452,2.483694206108747e-06,-0.00022449885484122515,-0.013326665326493785,0.006829023736931698,0.0003070831070531838,0.007050990553432105,0.00026878651503267625,4.359517357792502e-07,-0.0033779837607125513,0.001487921677564791,-6.354152704419154e-08,0.0018657383421367653,5.921115484436835e-08,0.012434131481347031,0.00413589953518235,0.3326247226076195,0.0004854062962334592
27,0.027,1.1460980060089332e-05,2.6716841927615373e-06,1.1768260719563326e-05,0.014125706010848843,1.062765057580566e-05,4.29035047246243e-06,3.998756024807845e-05,19647.518415934705,0.9998872877005158,2.3824616952253975e-05,0.017555538980191854,0.3341057793800189,0.0010012244417416237,0.33094350251839866,5.326053439169698e-06,-4.715629363882812e-06,-2.1879118685674825e-06,0.9999999999279526,2.1879827798368435e-06,-4.716384498171244e-06,-2.1879118683567035e-06,1.0000000000968448,-5.3260431208828684e-06,4.715629365355592e-06,5.32647908568773e-06,1.0000000002973757,-8.101421799078246e-06,-7.822380562533954e-06,-2.1287064396191546e-06,3.4514058797037105e-07,-9.54278057509094e-07,2.4714626821669806e-06,-2.311272251713458e-06,-0.00019394653737596105,9.52984678090159e-05,3.1737077681443255e-06,1.5701039615521852,2.773288459534605e-06,-0.0002417964296719855,-0.014125706010848843,0.0072548670966907465,0.0003305769147759013,0.007468378039966661,0.000289594253425858,4.36490329232091e-07,-0.00337785255820915,0.0014878811203867881,-6.14614114416815e-08,0.0018656481445779361,5.713134189813107e-08,0.013431935587970664,0.0041357370963754385,0.3079032853441768,0.0004853944177376016
28,0.028,1.2115468192046476e-05,2.9599496755517222e-06,1.247180306107696e-05,0.014954759194806367,1.1446216339541301e-05,3.97098237474778e-06,3.957123676085857e-05,19854.24697569096,0.9998720038751394,2.5748752210490396e-05,0.01859047308691351,0.33410775291067074,0.001001143684461487,0.330944523205752,5.946126481859437e-06,-5.313165388987073e-06,-2.443492751691423e-06,0.9999999999243645,2.443557185836134e-06,-5.31392340038378e-06,-2.4434927516279534e-06,1.000000000092758,-5.9461134979451954e-06,5.3131653909559845e-06,5.946552128321958e-06,1.0000000002908842,-8.131354178708694e-06,-8.713422418515785e-06,-2.1775946568158844e-06,3.723931257784425e-07,-1.0040682233590357e-06,2.7594333556932183e-06,-2.570981137723707e-06,-0.00020890129657076743,0.00010299500884196159,3.5285849576164883e-06,1.5701118630652486,3.0844603305300005e-06,-0.00025970888601024904,-0.014954759194806367,0.007696541032945688,0.00035487718947216276,0.007901513063357814,0.0003111718709953953,4.3707029049826515e-07,-0.003377713323764609,0.0014878380811533904,-5.923013068014476e-08,0.0018655524247449325,5.490035115172052e-08,0.014467178502550053,0.004135564713590099,0.28585841479562074,0.00048538181772116325
29,0.029,1.2830961274223926e-05,3.269661686624403e-06,1.324100656164831e-05,0.015813731575387673,1.2314457902049751e-05,3.6038443084198322e-06,3.91307607008755e-05,20077.757805045814,0.9998558346352613,2.7787250101224995e-05,0.019662732687081692,0.3341098422774186,0.0010010569427714834,0.33094561244352744,6.612069195721659e-06,-5.956456951228262e-06,-2.7180105486301898e-06,0.9999999999200309,2.7180671908367026e-06,-5.9572184051004395e-06,-2.718010548607369e-06,1.0000000000878677,-6.61205300495183e-06,5.9564569531676825e-06,6.612494842295202e-06,1.0000000002830771,-8.136049630291797e-06,-9.669016376630648e-06,-2.2244967841089647e-06,4.007610680938559e-07,-1.0550880353997044e-06,3.068691471757335e-06,-2.849214622621563e-06,-0.0002247150281461551,0.00011114900040489998,3.908560517024836e-06,1.5701202134149714,3.417981222189746e-06,-0.0002782334848978558,-0.015813731575387673,0.008153991562938398,0.0003799755594083471,0.008350349722838416,0.00033352089165974546,4.3769303227449885e-07,-0.0033775657582025245,0.001487792467381606,-5.6841668398740324e-08,0.0018654509769666047,5.251216567545777e-08,0.015539743426766601,0.004135382016453739,0.2661164925712087,0.0004853684692113524
30,0.03,1.3612762002124722e-05,3.601542743214067e-06,1.4081136298526784e-05,0.01670252932190949,1.3234290110884454e-05,3.187609541189053e-06,3.866525543093439e-05,20319.504014568323,0.999838749344528,2.994404125807122e-05,0.020772198627048887,0.3341120516663228,0.0010009640118223016,0.33094677261560423,7.325450788631116e-06,-6.647063072406922e-06,-3.0121133596239247e-06,0.9999999999148369,3.0121606930918473e-06,-6.647828620441609e-06,-3.012113359340515e-06,1.0000000000820537,-7.32543076537671e-06,6.647063074785228e-06,7.325876434816081e-06,1.0000000002737535,-8.114957325389138e-06,-1.069132603201189e-05,-2.2694282563739954e-06,4.302528471575144e-07,-1.1073561238348632e-06,3.399963975355649e-06,-3.1465821098111694e-06,-0.00024141755746806459,0.00011977616503228488,4.314423796325211e-06,1.5701290282566451,3.774624445076464e-06,-0.0002973674871896063,-0.01670252932190949,0.008627164627384899,0.0004058632793003746,0.008814841673675782,0.0003566432228867181,4.383599516664691e-07,-0.0033774095634428476,0.001487744186923994,-5.428994025656985e-08,0.0018653435963282754,4.996070047701433e-08,0.01664951292021638,0.00413518863595449,0.24836694355695194,0.0004853543453270605
31,0.031,1.4465813713133833e-05,3.956311548628971e-06,1.4997071962650103e-05,0.01762105807322775,1.4207608290730084e-05,2.7209617859527745e-06,3.817384675428433e-05,20581.099545461922,0.9998207174691747,3.222304278109812e-05,0.02191875124575351,0.33411438525106063,0.001000864687634682,0.33094800609555847,8.08783362815646e-06,-7.386536203135563e-06,-3.3264465133520105e-06,0.9999999999086514,3.326482798028866e-06,-7.387306589973219e-06,-3.3264465128804977e-06,1.0000000000751819,-8.087809055466117e-06,7.386536205583258e-06,8.088259274341425e-06,1.000000000262689,-8.067534560729506e-06,-1.1782505595621905e-05,-2.3124044593592075e-06,4.608769022592456e-07,-1.1608908627495537e-06,3.753974687656203e-06,-3.4636902632957868e-06,-0.0002590386155412923,0.0001288921711243925,4.746955011964321e-06,1.570138323198768,4.155165615416613e-06,-0.00031710815348461713,-0.01762105807322775,0.009116006092107604,0.00043253121563910965,0.009294942122788115,0.0003805411703401487,4.3907242948306103e-07,-0.0033772444425063087,0.001487693147969264,-5.156878676062212e-08,0.001865230078675467,4.7239795319287834e-08,0.017796368896944,0.004134984204446937,0.23234988149322128,0.0004853394192786844
32,0.032,1.5394672188795204e-05,4.334683338435613e-06,1.5993292701785204e-05,0.018569222934493763,1.5236289128074356e-05,2.202595152518695e-06,3.765566293027512e-05,20864.344377543835,0.9998017085786725,3.462815821847135e-05,0.023102270357876774,0.33411684719290036,0.001000758767096754,0.33094931524667814,8.900773253994743e-06,-8.176422226391367e-06,-3.661652574926677e-06,0.9999999999013339,3.661675824105533e-06,-8.177198301293626e-06,-3.6616525746497528e-06,1.0000000000671048,-8.900743313181405e-06,8.176422228842531e-06,8.901198900457263e-06,1.0000000002496365,-7.993246704252055e-06,-1.294469990581232e-05,-2.3534407309067085e-06,4.926416796262604e-07,-1.2157103716402291e-06,4.1314443131056115e-06,-3.8011430073633265e-06,-0.00027760783847578606,0.0001385126328738854,5.206924843943789e-06,1.5701481138025921,4.560383067993332e-06,-0.00033745274406753986,-0.018569222934493763,0.009620461749492912,0.0004599698319794687,0.009790603824042916,0.0004052174525767182,4.3983182950691725e-07,-0.0033770700995333115,0.0014876392590486526,-4.8671965818018515e-08,0.0018651102206263238,4.434320726201101e-08,0.0189801926213894,0.004134768355675666,0.21784649070411505,0.0004853236643699506
33,0.033,1.640349959416131e-05,4.737370122433082e-06,1.7073882821800432e-05,0.01954692847447861,1.6322191627287952e-05,1.6312140930704189e-06,3.7109834690811586e-05,21171.254421986145,0.9997816923463806,3.716327754849575e-05,0.024322635238346883,0.3341194416406681,0.00100064604796116,0.3309507024219794,9.765818387297287e-06,-9.018260465509798e-06,-4.0183713543306965e-06,0.9999999998927265,4.018379308820867e-06,-9.019043192393106e-06,-4.018371353879833e-06,1.000000000057661,-9.765782146751043e-06,9.018260468583728e-06,9.766244033704297e-06,1.0000000002343246,-7.891567133100352e-06,-1.4180044439670181e-05,-2.392552362728839e-06,5.255556326853024e-07,-1.2718325191892328e-06,4.533090446594591e-06,-4.159541526222907e-06,-0.0002971547669502647,0.000148653110193983,5.695094018134919e-06,1.5701584155816661,4.991058283777856e-06,-0.0003583985188595801,-0.01954692847447861,0.01014047732009759,0.00048816917419112994,0.010301779073996632,0.0004306752157845239,4.406394977375684e-07,-0.0033768862397878852,0.0014875824290360828,-4.559314500348472e-08,0.0018649838195753765,4.1264602918057035e-08,0.020200864705081093,0.004134540724780479,0.2046714724808712,0.00048530705399761035
34,0.034,1.7496076970418994e-05,5.165080850330035e-06,1.8242553810946317e-05,0.02055407872254013,1.7467158098235533e-05,1.0055333539625184e-06,3.6535495256104934e-05,21504.09715819898,0.9997606385502059,3.983227716202005e-05,0.02557972460723056,0.33412217273072176,0.0010005263288422742,0.33095216996422255,1.0684510939551473e-05,-9.913583693954564e-06,-4.397239911746453e-06,0.9999999998826573,4.39723001469821e-06,-9.914374160587686e-06,-4.397239911179521e-06,1.0000000000466727,-1.0684467344941426e-05,9.913583696959105e-06,1.068493658540337e-05,1.0000000002164549,-7.76197717938798e-06,-1.5490665324458452e-05,-2.429754602240042e-06,5.596272205892811e-07,-1.3292749244816164e-06,4.9596275807328466e-06,-4.539484263603619e-06,-0.00031770884567280483,0.0001593291086480802,6.212212873796811e-06,1.5701692440013735,5.4479763323290895e-06,-0.0003799427373807122,-0.02055407872254013,0.010675998454097174,0.0005171188556618917,0.010828419707410365,0.0004569180485512342,4.414967616111623e-07,-0.0033766925696750655,0.0014875225671541735,-4.2325893549665435e-08,0.0018648506737048095,3.799755043198874e-08,0.02145826510288921,0.004134300948318071,0.19266706456938815,0.0004852895616530416
35,0.035,1.8675830650581382e-05,5.618521524209158e-06,1.950267762660288e-05,0.021590577165878345,1.8673015137253524e-05,3.242779248347361e-07,3.5931780350734496e-05,21865.43435557735,0.9997385170732712,4.2639019845219777e-05,0.026873416615913377,0.33412504458692194,0.0010003994092133259,0.33095372020592806,1.1658386022350697e-05,-1.0863918137538064e-05,-4.798892566881818e-06,0.9999999998709378,4.79886193538277e-06,-1.0864717569985388e-05,-4.798892566162666e-06,1.000000000033946,-1.1658333885271728e-05,1.0863918141167106e-05,1.1658811668313618e-05,1.000000000195702,-7.6039660726889835e-06,-1.687867934896197e-05,-2.4650626542777054e-06,5.948649087835262e-07,-1.3880549597059656e-06,5.411767113165092e-06,-4.9415669223265265e-06,-0.00033929942283868317,0.0001705560793808791,6.759020916271669e-06,1.5701806144784665,5.931926329007482e-06,-0.000402082658722907,-0.021590577165878345,0.011226970732798904,0.0005468080424748578,0.01137047709300418,0.0004839499966783921,4.424049291937558e-07,-0.0033764887967472567,0.001487459582974863,-3.886367405712739e-08,0.0018647105819901903,3.453551117770923e-08,0.022752273109673413,0.004134048664270281,0.18169827006563755,0.0004852711609221998
36,0.036000000000000004,1.9945867772629344e-05,6.098395272403765e-06,2.0857326437050616e-05,0.022656326746738856,1.9941574578887142e-05,-4.138170098204788e-07,3.52978282197633e-05,22258.173591870753,0.9997152979045881,4.5587354762740535e-05,0.028203588834167775,0.3341280613206057,0.0010002650894034536,0.33095535546939314,1.2688971958940698e-05,-1.1870783487744063e-05,-5.223960906075575e-06,0.9999999998573621,5.223906301735701e-06,-1.1871593259694946e-05,-5.2239609051740604e-06,1.000000000019269,-1.2688909943392485e-05,1.187078349134188e-05,1.2689397604070951e-05,1.0000000001717095,-7.417030885081832e-06,-1.83461939747638e-05,-2.498491683655679e-06,6.312771683922075e-07,-1.4481897521287918e-06,5.890217353966868e-06,-5.366382463861807e-06,-0.000361955749585422,0.00018234941905096214,7.336246354817516e-06,1.5701925423805956,6.443701907030773e-06,-0.0004248155415352804,-0.022656326746738856,0.011793339670083045,0.0005772254385458467,0.011927902129224097,0.0005117755780232908,4.433652883512082e-07,-0.0033762746297211137,0.001487393386425558,-3.5199833918847266e-08,0.001864563344210973,3.0871831169988073e-08,0.024082767356873137,0.004133783512065069,0.17164902399448098,0.0004852518254871492
37,0.037,2.1309016487594664e-05,6.605402396655356e-06,2.2309314747215378e-05,0.023751229859664654,2.127463440015074e-05,-1.2100061190340212e-06,3.463277964457446e-05,22685.63076944551,0.9996909511397392,4.868111744120484e-05,0.029570118238221275,0.33413122703056053,0.0010001231705946767,0.33095707806670704,1.3777790289992708e-05,-1.2935692903059959e-05,-5.6730737898469386e-06,0.9999999998417067,5.672991588049609e-06,-1.29365145512296e-05,-5.673073789096361e-06,1.0000000000024134,-1.3777716901851553e-05,1.2935692907172988e-05,1.3778215935178473e-05,1.0000000001440918,-7.200676477026047e-06,-1.9895307347438758e-05,-2.5300568161079617e-06,6.68872476201563e-07,-1.5096961868896006e-06,6.395683533103504e-06,-5.814521107883278e-06,-0.00038570697944508665,0.00019472446976481937,7.94460562554945e-06,1.5702050430258356,6.984101704406025e-06,-0.00044813864402147064,-0.023751229859664654,0.01237505071385724,0.0006083592707319342,0.012500645240053336,0.0005403997973752526,4.4437910589335257e-07,-0.0033760497784847167,0.0014873238877898595,-3.1327596463514916e-08,0.001864408760957081,2.6999732194170945e-08,0.025449625809194954,0.004133505132585874,0.1624190926583297,0.00048523152912607344
38,0.038,2.276786726956179e-05,7.140240400005619e-06,2.3861240809611212e-05,0.024875188348851142,2.2673979567143008e-05,-2.0655339730227346e-06,3.393577795888112e-05,23151.606482831903,0.999665446981563,5.1924129753072916e-05,0.03097288119983972,0.33413454580299895,0.0009999734548189507,0.3309588902997682,1.4926355789590673e-05,-1.4060153020967192e-05,-6.146857362221425e-06,0.9999999998237288,6.146743518238049e-06,-1.4060988257093981e-05,-6.146857361274664e-06,0.9999999999831287,-1.4926269360412458e-05,1.4060153025243285e-05,1.492678143444337e-05,1.000000000112429,-6.954415443183315e-06,-2.152810830783128e-05,-2.559773141175281e-06,7.07659313075308e-07,-1.5725909086283846e-06,6.928867807989234e-06,-6.286570331833698e-06,-0.0004105821677939378,0.00020769651901229167,8.584802899451742e-06,1.5702181316822066,7.553929865759554e-06,-0.00047204922395042054,-0.024875188348851142,0.012972049247472287,0.0006401972739022926,0.013088656370953555,0.0005698281613535284,4.454476266952687e-07,-0.003375813954114363,0.0014872509977135455,-2.7240051817354154e-08,0.0018642466336394408,2.2912302653751342e-08,0.026852725761430985,0.004133213168192485,0.15392154989253146,0.0004852102457147489
39,0.039,2.4324812684659094e-05,7.703604002283375e-06,2.5515525210501713e-05,0.026028103505502966,2.4141382817350066e-05,-2.9816350899290622e-06,3.3205969064642175e-05,23660.479969910575,0.9996387557408513,5.5320199900853526e-05,0.03241175347625458,0.33413802171153406,0.0009998157449549606,0.33096079446030013,1.6136176468783958e-05,-1.524566396193805e-05,-6.645935056504015e-06,0.9999999998031652,6.645785072122146e-06,-1.5246514688031787e-05,-6.645935055470886e-06,0.9999999999611461,-1.613607514309564e-05,1.5245663966352921e-05,1.6136602112970522e-05,1.0000000000762665,-6.677768059848432e-06,-2.324667640307091e-05,-2.5876557138704293e-06,7.476461656318654e-07,-1.6368903244674226e-06,7.49046927105888e-06,-6.783114870513629e-06,-0.0004366102712994408,0.0002212807996034141,9.257529575450422e-06,1.5702318235671915,8.153996559107252e-06,-0.0004965445386799312,-0.026028103505502966,0.013584280591122447,0.00067272667599868,0.013691884984837567,0.0006000666933476977,4.465720727932808e-07,-0.0033755668688812855,0.0014871746272053289,-2.293014747606089e-08,0.0018640767644960234,1.8602488127408215e-08,0.028291943835321513,0.004132907262729801,0.14608071070125372,0.0004851879492264818
40,0.04,2.5982083892912643e-05,8.296185146167149e-06,2.727444539120521e-05,0.027209876065238964,2.5678605376206785e-05,-3.959533981677174e-06,3.244250144803558e-05,24217.325573740894,0.999610847837046,5.887312240165842e-05,0.03388661020091295,0.33414165881715663,0.000999649844725082,0.33096279282986774,1.7408753588021852e-05,-1.6493719338761537e-05,-7.170927605493205e-06,0.9999999997797321,7.17073649175714e-06,-1.6494587661741028e-05,-7.1709276039393296e-06,0.9999999999361748,-1.7408635308270953e-05,1.649371934331692e-05,1.740917923137575e-05,1.000000000035115,-6.37026223326842e-06,-2.5053081897755212e-05,-2.613719556898708e-06,7.88841524855513e-07,-1.7026106055404301e-06,8.081183957443941e-06,-7.3047367157089446e-06,-0.00046382014736467975,0.00023549248960663368,9.963463758505052e-06,1.5702461338472495,8.78511850757555e-06,-0.000521621845195315,-0.027209876065238964,0.014211690003219563,0.0007059341830546307,0.01431028005810209,0.0006311219484682969,4.477536424592942e-07,-0.003375308236271781,0.0014870946876439585,-1.8390678599107693e-08,0.0018638989566046287,1.4063081647693525e-08,0.02976715597647695,0.0041325870615528644,0.13883042991005756,0.0004851646137339956
41,0.041,2.7741782933283222e-05,8.918672997922197e-06,2.914016555137034e-05,0.02842040620559939,2.7287397606241437e-05,-5.00044519984689e-06,3.164452619537026e-05,24828.05828535774,0.9995816937989489,6.258667807209922e-05,0.035397325875064035,0.3341454611682115,0.0009994755586920513,0.3309648876798936,1.8745581667367617e-05,-1.7805806261872448e-05,-7.722453047254163e-06,0.999999999753123,7.72221528781962e-06,-1.78066945097817e-05,-7.722453045586331e-06,0.9999999999079017,-1.8745444157860147e-05,1.7805806266620386e-05,1.8746007309999868e-05,0.9999999999884461,-6.0314334479061316e-06,-2.6949385784842943e-05,-2.6379796626563312e-06,8.312538855828806e-07,-1.7697676903437826e-06,8.701704852716226e-06,-7.852015115870876e-06,-0.0004922405535702792,0.00025034671228839686,1.0703269722700715e-05,1.5702610776373263,9.44811953610029e-06,-0.0005472784001619316,-0.02842040620559939,0.014854222681763197,0.0007398059641956627,0.01494379007678538,0.0006630010285247402,4.4899350924982244e-07,-0.003375037770992087,0.0014870110907782023,-1.3614278010465246e-08,0.0018637130138878402,9.28671368546214e-09,0.03127823745147584,0.004132252211533351,0.1321126939397367,0.00048514021340907774
42,0.042,2.9605910439778308e-05,9.571753943979267e-06,3.111476187490846e-05,0.029659593543588283,2.8969499592918115e-05,-6.10557338045543e-06,3.081119700882034e-05,25499.617224266713,0.9995512642654325,6.646463401352e-05,0.036943774360015294,0.3341494328003756,0.000999292692255793,0.3309670812716749,2.014814849493618e-05,-1.918340534867724e-05,-8.301126736220965e-06,0.9999999997230089,8.300836245998248e-06,-1.91843160871584e-05,-8.301126734185474e-06,0.9999999998759896,-2.014798924537178e-05,1.918340535384845e-05,2.0148574136402697e-05,0.9999999999356917,-5.660824715814083e-06,-2.8937639796703177e-05,-2.6604509958394473e-06,8.748917471427188e-07,-1.8383772854271707e-06,9.35272190067093e-06,-8.425526575864665e-06,-0.0005219001471138675,0.00026585853605408,1.14775973593266e-05,1.570276670000359,1.0143831133128188e-05,-0.0005735114599937894,-0.029659593543588283,0.015511823765683101,0.0007743276366258855,0.015592363032761347,0.0006957115970278977,4.5029282103426005e-07,-0.003374755188987904,0.001486923748733558,-8.593405920213354e-09,0.0018635187411256626,4.265841854428417e-09,0.03282506284500276,0.004131902361083921,0.1258764493603119,0.000485114722524339
43,0.043000000000000003,3.1576388850434935e-05,1.025611158584478e-05,3.320024333789093e-05,0.03092733713323158,3.072664166901105e-05,-7.276113287905806e-06,2.9941670222467562e-05,26240.19913500152,0.9995195299861603,7.051074359755948e-05,0.03852582886999607,0.33415357773663723,0.0009991010516500376,0.3309693758563992,2.16179351366641e-05,-2.0627990730215373e-05,-8.90756134941384e-06,0.9999999996890355,8.90721143348855e-06,-2.0628926778894913e-05,-8.90756134667676e-06,0.9999999998400785,-2.161775138510012e-05,2.0627990735386584e-05,2.161836077718693e-05,0.9999999998762412,-5.2579865273960635e-06,-3.1019886415955254e-05,-2.6811484951094755e-06,9.197636128176066e-07,-1.908454869106128e-06,1.0034922011177831e-05,-9.025844856802613e-06,-0.0005528274842470991,0.0002820429743902379,1.2287081609914713e-05,1.570292925946779,1.087309302733514e-05,-0.0006003182809379469,-0.03092733713323158,0.016184438336157903,0.0008094842505881133,0.016255946420003966,0.0007292618942069532,4.5165269899924095e-07,-0.0033744602074529495,0.0014868325740137612,-3.3203393545502154e-09,0.001863315943962524,-1.0072596766073145e-09,0.03440750605705822,0.004131537160169196,0.12007662378080415,0.00048508811545335006
44,0.044,3.365508143163511e-05,1.097242673333764e-05,3.5398568538691686e-05,0.03222353546323509,3.256054488212052e-05,-8.513249858266243e-06,2.9035104818094558e-05,27059.55858254738,0.9994864618223106,7.47287464520364e-05,0.04014336196564919,0.33415789998727496,0.0009989004439389653,0.33097177367516184,2.3156415946523623e-05,-2.2141030057376554e-05,-9.542366894432774e-06,0.9999999996508236,9.541950205479057e-06,-2.2141994509457252e-05,-9.54236689156865e-06,0.9999999997997804,-2.3156204661433332e-05,2.2141030062761136e-05,2.315684158554765e-05,0.9999999998094424,-4.8224768022242515e-06,-3.319815888633477e-05,-2.7000870763127516e-06,9.658779891826288e-07,-1.980015692339965e-06,1.0748989068119967e-05,-9.653540975978326e-06,-0.0005850510197103342,0.0002989149858081456,1.3132341884222928e-05,1.57030986043401,1.163675377937545e-05,-0.0006276961191757121,-0.03222353546323509,0.016872011417907704,0.0008452602743082155,0.01693448723094957,0.0007636607520403102,4.53074236632138e-07,-0.0033741525448453165,0.001486737479506272,2.2128386986487587e-09,0.001863104428918009,-6.5405110567691855e-09,0.03602544030029728,0.004131156260326233,0.11467330380351992,0.0004850603666719351
45,0.045,3.584380757921315e-05,1.1721377398067246e-05,3.771165907095019e-05,0.03354808645465647,3.447292140953372e-05,-9.818158242144872e-06,2.8090662440993485e-05,27969.39820515872,0.9994520307473086,7.912236844715827e-05,0.04179624554801685,0.3341624035498387,0.0009986906770137467,0.3309742769589816,2.4765058575848542e-05,-2.3723984509338436e-05,-1.0206150721003837e-05,0.9999999996079683,1.0205659211720684e-05,-2.372498074934906e-05,-1.0206150717373522e-05,0.9999999997546819,-2.476481643666117e-05,2.3723984514721283e-05,2.4765484212818656e-05,0.9999999997345956,-4.353860841299628e-06,-3.547448122345699e-05,-2.7172816337017736e-06,1.0132433869311079e-06,-2.053074782450614e-06,1.1495603937350461e-05,-1.0309183206919547e-05,-0.0006185991061649907,0.0003164894737886331,1.4013981463154334e-05,1.5703274883659628,1.2435671388684411e-05,-0.0006556422309412223,-0.03354808645465647,0.017574487980487465,0.0008816395789314056,0.017627931952901327,0.000798917609308961,4.545584986824629e-07,-0.0033738319208996004,0.001486638378485105,8.01425043413095e-09,0.0018628840033961538,-1.234203791676559e-08,0.037678738097432427,0.00413075931467995,0.1096310418859756,0.00048503145075876926
46,0.046,3.8144354911257514e-05,1.2503638786412489e-05,4.014140997146282e-05,0.03490088745873526,3.646547492453601e-05,-1.1192003847548633e-05,2.7107507415815047e-05,28983.8822236996,0.9994162078475611,8.369532168205003e-05,0.04348435085312656,0.33416709240912934,0.0009984715595889905,0.33097688792881763,2.6445323981327817e-05,-2.5378308799783866e-05,-1.0899517525420066e-05,0.9999999995600355,1.0898942403122138e-05,-2.5379340524187693e-05,-1.0899517521135441e-05,0.9999999997043422,-2.6445047360446343e-05,2.537830880552233e-05,2.6445749616466063e-05,0.9999999996509557,-3.851711278368697e-06,-3.7850868225485943e-05,-2.732747042988315e-06,1.06186832002332e-06,-2.1276469443739953e-06,1.2275444474727e-05,-1.099333707957776e-05,-0.0006534999936237259,0.00033478128672820013,1.4932586886593296e-05,1.5703458245925275,1.3270713915336582e-05,-0.0006841538726582118,-0.03490088745873526,0.01829181293956704,0.0009186054234389615,0.018336226564580574,0.000835042526652171,4.561065201022769e-07,-0.003373498056639222,0.0014865351846146614,1.4092234660182528e-08,0.001862654475693715,-1.8420182819983904e-08,0.039367271278849515,0.004130345977958606,0.10491826950863013,0.0004850013423960768
47,0.047,4.055848866491828e-05,1.3319883293135046e-05,4.268969774693939e-05,0.03628183525462994,3.853990092022431e-05,-1.2635942380446156e-05,2.6084806762235233e-05,30120.321170312072,0.9993789643232002,8.845130447158915e-05,0.04520754844684029,0.33417197053718173,0.0009982429011992273,0.3309796087955863,2.8198666438328246e-05,-2.7105451186670848e-05,-1.162306936208779e-05,0.9999999995065642,1.1622401038406068e-05,-2.7106522423266805e-05,-1.16230693570572e-05,0.9999999996482898,-2.8198351378683687e-05,2.7105451192291352e-05,2.8199092070690934e-05,0.9999999995577262,-3.3156080345153605e-06,-4.032932548384124e-05,-2.7464981635083596e-06,1.111761305434644e-06,-2.203746762437655e-06,1.3089185534230995e-05,-1.1706565380673312e-05,-0.0006897818288783559,0.0003538052178863566,1.5888727326149236e-05,1.57036488390906,1.4142760116974242e-05,-0.0007132283010955532,-0.03628183525462994,0.01902393115815645,0.0009561404395559402,0.019059316532646167,0.0008720462016376608,4.577193049668743e-07,-0.0033731506743940043,0.0014864278119546938,2.0455358517888803e-08,0.001862415655012828,-2.4783517002786593e-08,0.041090910980138756,0.004129915906515969,0.1005067984112509,0.0004849700163709624
48,0.048,4.3087958871792855e-05,1.4170780495954421e-05,4.535838643075649e-05,0.03769082604738944,4.069788699288673e-05,-1.4151119886833771e-05,2.5021730211021122e-05,31400.098382328575,0.9993402714888298,9.339400133355289e-05,0.04696570822033493,0.3341770418932455,0.000998004512195191,0.3309824417601777,3.0026533545779444e-05,-2.8906853476229344e-05,-1.2377405651520235e-05,0.9999999994470614,1.2376633690746088e-05,-2.890796860629402e-05,-1.2377405645125627e-05,0.9999999995860247,-3.002617574135851e-05,2.890685348178393e-05,3.0026959175255552e-05,0.9999999994540603,-2.7451382704768434e-06,-4.2911849393701285e-05,-2.7585498410531706e-06,1.1629308638917448e-06,-2.2813886039759604e-06,1.3937498976070954e-05,-1.2449428154215689e-05,-0.0007274726549257453,0.00037357600533421156,1.6882953942807195e-05,1.5703846810558686,1.5052700100816347e-05,-0.0007428627735423776,-0.03769082604738944,0.01977078744785497,0.0009942266166579582,0.019797146808442505,0.0009099399838421046,4.5939782537460524e-07,-0.003372789497811748,0.0014863161749634883,2.7112429492906735e-08,0.0018621673514692,-3.144085240816587e-08,0.042849527639961374,0.004129468758345934,0.09637139510491194,0.0004849374475759462
49,0.049,4.573450573473956e-05,1.5056997150306586e-05,4.814933206167316e-05,0.03912775546577623,4.2941113091744703e-05,-1.57386727916377e-05,2.3917450219453723e-05,32849.94410453605,0.9993001007742787,9.852708297606267e-05,0.04875869938569154,0.3341823104237701,0.0009977562037401218,0.33098538901347235,3.193036623905243e-05,-3.078395103317533e-05,-1.3163123187442949e-05,0.9999999993810053,1.316223625454782e-05,-3.078511481317131e-05,-1.3163123179875723e-05,0.9999999995170141,-3.192996101206881e-05,3.0783951038294496e-05,3.1930791865364405e-05,0.9999999993390583,-2.1398963432894824e-06,-4.560042716452838e-05,-2.76891690981218e-06,1.2153855189326237e-06,-2.360586619914859e-06,1.4821053674910852e-05,-1.3222482702219146e-05,-0.0007666004103915215,0.00039410833190425067,1.7915799229468875e-05,1.5704052307176932,1.6001435990746982e-05,-0.0007730545480034573,-0.03912775546577623,0.02053232657003911,0.0010328452866616817,0.020549661824631325,0.000948735889930635,4.6114302032748703e-07,-0.003372414251870799,0.001486200188501389,3.407250771126413e-08,0.0018619093761011363,-3.840125400433556e-08,0.044642990997756996,0.004129004193098458,0.09248941660771391,0.00048490361100962025
50,0.05,4.849986356821955e-05,1.5979197185530535e-05,5.106438591454887e-05,0.04059251856041973,4.527125173585817e-05,-1.7399727940562714e-05,2.2771141987358224e-05,34503.719527296955,0.9992584237253579,0.00010385420628533895,0.050586390472175426,0.33418778006238603,0.0009974977878060142,0.33098845273635763,3.3911598798841425e-05,-3.2738172785595765e-05,-1.3980816147896036e-05,0.9999999993078388,1.3979801952139703e-05,-3.273939037072571e-05,-1.398081613918205e-05,0.9999999994406945,-3.3911141076102685e-05,3.2738172790296866e-05,3.3912024420712505e-05,0.9999999992117645,-1.4994837589932253e-06,-4.8397036830539206e-05,-2.777614194926503e-06,1.269133797399129e-06,-2.4413547484181914e-06,1.574051552811223e-05,-1.4026283585634865e-05,-0.0008071929289519413,0.0004154168251413558,1.8987776338388625e-05,1.5704265475231853,1.698988260949269e-05,-0.0008038008834157178,-0.04059251856041973,0.021308493237105142,0.0010719771089197508,0.021316805492129606,0.0009884466187457088,4.6295579459383426e-07,-0.00337202466289855,0.0014860797678364565,4.134491852779855e-08,0.0018616415408822206,-4.567405239687977e-08,0.04647117009189783,0.004128521872102757,0.08884049753534648,0.0004848684817781013
51,0.051000000000000004,5.138576360698806e-05,1.693804170139219e-05,5.4105396756251216e-05,0.042085009801713896,4.768996820509085e-05,-1.913540263672367e-05,2.1581983472491815e-05,36404.96591706738,0.9992152120046249,0.00010937901431373452,0.05244864932243918,0.33419345472989204,0.0009972290771696308,0.33099163509974483,3.597165885826925e-05,-3.477094123427449e-05,-1.4831076103671847e-05,0.999999999226975,1.4829921340621697e-05,-3.477221820228152e-05,-1.4831076093122569e-05,0.9999999993564659,-3.59711431494025e-05,3.477094123876222e-05,3.5972084475532906e-05,0.999999999071166,-8.23509131442357e-07,-5.130364726094107e-05,-2.7846565153755165e-06,1.3241842290312257e-06,-2.5237067157044993e-06,1.6696547464035603e-05,-1.4861382625521045e-05,-0.0008492779387536552,0.0004375160572549381,2.0099378393497032e-05,1.5704486460443823,1.8018968175886453e-05,-0.0008350990398861809,-0.042085009801713896,0.022099232113582303,0.0011116020551084071,0.02209852119689364,0.0010290855663937616,4.648370175515746e-07,-0.0033716204585822647,0.001485954828646962,4.893926540608329e-08,0.0018613636587295676,-5.326885673332415e-08,0.04833393325756706,0.004128021458381109,0.08540628043444878,0.00048483203509539066
52,0.052000000000000005,5.439393593349634e-05,1.793418896588303e-05,5.727421234902585e-05,0.04360512307811176,5.019892070520108e-05,-2.094680468160432e-05,2.0349155406625883e-05,38610.6311327057,0.99917043739215,0.0001151051362680723,0.054345343089446635,0.33419933833423743,0.0009969498854087368,0.33099493826458626,3.8111967416210035e-05,-3.688367246024171e-05,-1.5714492024976323e-05,0.9999999991377895,1.5713182318667098e-05,-3.688501483493922e-05,-1.5714492012893086e-05,0.9999999992636951,-3.811138778675055e-05,3.6883672463823916e-05,3.811239302758951e-05,0.9999999989161901,-1.11588136120222e-07,-5.4322218170387774e-05,-2.790058686474861e-06,1.3805453468277698e-06,-2.607656039168287e-06,1.7689809450379672e-05,-1.572832890447433e-05,-0.0008928830618317669,0.0004604205450722892,2.1251077787617334e-05,1.5704715407961793,1.9089635017220217e-05,-0.0008669462789532835,-0.04360512307811176,0.02290448781735111,0.0011516993941203017,0.022894751797018126,0.0010706668413337653,4.6678752201491283e-07,-0.003371201367985425,0.0014858252870265055,5.686544308385954e-08,0.001861075543515001,-6.119556789419641e-08,0.050231148125166776,0.004127502616669433,0.08217018265842314,0.0004847942462845321
53,0.053,5.752611072697827e-05,1.8968294413605327e-05,6.057268037930776e-05,0.04515275169421258,5.2799760512028096e-05,-2.2835032411707427e-05,1.907184131095419e-05,41196.66091915492,0.9991240717862899,0.00012103618749826298,0.05627633823334337,0.33420543477050946,0.0009966600268978812,0.33099836438189106,4.0333938842618267e-05,-3.9077776129659014e-05,-1.6631650294307576e-05,0.9999999990396227,1.663017013338339e-05,-3.907919040817276e-05,-1.6631650279802482e-05,0.9999999991617126,-4.0333288890730465e-05,3.907777613230447e-05,4.033436444772498e-05,0.9999999987457027,6.366565307169836e-07,-5.7454700128984054e-05,-2.7938355218193323e-06,1.438225686620435e-06,-2.6932160291943944e-06,1.872095850258866e-05,-1.6627668768344734e-05,-0.0009380358135259795,0.0004841447499930519,2.24433254645719e-05,1.570495246235799,2.0202840296680336e-05,-0.0008993398638704053,-0.04515275169421258,0.023724204920762736,0.001192247676954566,0.023705439619714653,0.0011132052794601186,4.688081030437707e-07,-0.003370767121562538,0.0014856910594879644,6.513365103357603e-08,0.0018607770100757218,-6.946439198018905e-08,0.052162681618511994,0.004126965013435968,0.07911719423359236,0.0004847550907784922
54,0.054,6.0784018997429375e-05,2.0041010645041452e-05,6.40026489541997e-05,0.04672778836908089,5.549413209672787e-05,-2.4801174736512527e-05,1.7749227511871768e-05,44266.64274471559,0.9990760872044654,0.00012717576948620483,0.058241500518801184,0.33421174792091907,0.0009963593168043857,0.33100191559274306,4.2638980891851475e-05,-4.13546555035893e-05,-1.7583134711340875e-05,0.9999999989317778,1.758146738721642e-05,-4.135614868217008e-05,-1.7583134694294873e-05,0.9999999990498109,-4.2638253719799226e-05,4.135465550531188e-05,4.263940648924214e-05,0.9999999985585057,1.421595195172376e-06,-6.070303457249597e-05,-2.796001836780082e-06,1.4972337875259832e-06,-2.78039979123989e-06,1.9790648692274554e-05,-1.755994582825923e-05,-0.0009847636018950603,0.0005087030779448193,2.3676550186188473e-05,1.5705197767622576,2.1359556755864363e-05,-0.0009322770599144934,-0.04672778836908089,0.02455832795176745,0.0012332247216165725,0.024530526458515903,0.0011567164591840282,4.7089951673705097e-07,-0.0033703174511729695,0.001485552062967444,7.375440721110881e-08,0.0018604678742241765,-7.80858540885262e-08,0.05412839995335557,0.0041264083168987995,0.0762337020931423,0.0004847145441209324
55,0.055,6.416939293304445e-05,2.1152987426485216e-05,6.756596677662872e-05,0.048330125234565535,5.8283673234178825e-05,-2.6846311175405017e-05,1.638050315655864e-05,47965.64112338438,0.9990264557839414,0.00013352746983496375,0.060240695012534366,0.3342182816547875,0.000996047571084199,0.331005594028317,4.502849470844339e-05,-4.3715707445546315e-05,-1.8569526504919054e-05,0.9999999988135192,1.8567654044875415e-05,-4.3717287046746156e-05,-1.8569526485058323e-05,0.9999999989272437,-4.502768289702405e-05,4.371570744587591e-05,4.5028920296730224e-05,0.9999999983533343,2.2435912469531694e-06,-6.406915381242768e-05,-2.7965724506140432e-06,1.5575781917226878e-06,-2.8692202273541603e-06,2.0899531155713834e-05,-1.8525700962978562e-05,-0.001033093727129626,0.000534109879339855,2.495115778420788e-05,1.570545146715828,2.256077347237019e-05,-0.0009657551347193344,-0.048330125234565535,0.025406801395035643,0.0012746075980194088,0.025369953570482356,0.0012012167165058266,4.730624790107502e-07,-0.003369852090096911,0.0014854082148290733,8.27385620938488e-08,0.001860147952759063,-8.70708123797614e-08,0.05612816863595547,0.0041258321970459545,0.0735073368192786,0.0004846725819672657
56,0.056,6.768396596221136e-05,2.2304871691006213e-05,7.126448308607897e-05,0.049959653833652105,6.117001509710629e-05,-2.8971511893471544e-05,1.4964860228643632e-05,52503.26677452361,0.9989751497826151,0.00014009486225822194,0.06227378608102853,0.33422503982853513,0.0009957246064774725,0.33100940180989546,4.750387483909435e-05,-4.616232242682372e-05,-1.9591404341490204e-05,0.9999999986840731,1.958930744027187e-05,-4.61639965279384e-05,-1.959140431815667e-05,0.9999999987932243,-4.750297041842949e-05,4.6162322425451555e-05,4.750430041738918e-05,0.9999999981288579,3.1030011795607493e-06,-6.755498104581983e-05,-2.795562188961931e-06,1.6192674446062225e-06,-2.959690040027147e-06,2.204825410235588e-05,-1.9525472321612774e-05,-0.0010830533809632781,0.0005603794490328878,2.6267530397106035e-05,1.5705713703775015,2.3807496632447858e-05,-0.000999771358634211,-0.049959653833652105,0.02626956969303273,0.0013163726128981525,0.026223661673512373,0.0012467231600776707,4.752976643613323e-07,-0.0033693707730511253,0.0014852594328690813,9.209731301380798e-08,0.0018598170634769495,-9.643047244067476e-08,0.058161852461742075,0.0041252363256553395,0.07092683865765669,0.0004846291800856166
57,0.057,7.132947260944697e-05,2.3497307539492793e-05,7.510004743239082e-05,0.051616265119047496,6.415478233679616e-05,-3.117783773868608e-05,1.3501493563829882e-05,58194.0694252385,0.9989221415798055,0.00014688150657000677,0.06434063738868687,0.3342320262856674,0.0009953902405043246,0.3310133410488861,5.0066509241109e-05,-4.8695884536265055e-05,-2.0649344333545372e-05,0.9999999985426226,2.0647002283522618e-05,-4.869766179876542e-05,-2.0649344306232124e-05,0.9999999986469259,-5.006550366184305e-05,4.869588453279908e-05,5.006693480746893e-05,0.9999999978836731,4.0001746324236365e-06,-7.116243036523493e-05,-2.792985887012378e-06,1.68231009443625e-06,-3.0518217318840727e-06,2.3237462823390657e-05,-2.0559795326722663e-05,-0.0011346696460823257,0.0005875260262800271,2.7626025691834114e-05,1.5705984619684452,2.5100750318704456e-05,-0.0010343230051098888,-0.051616265119047496,0.027146577247139328,0.001358495294728078,0.027091590943797924,0.0012932536862565972,4.776057046149072e-07,-0.003368873236201778,0.0014851056353196081,1.0184221877631887e-07,0.00185947502518113,-1.0617640193387371e-07,0.0602293155143069,0.004124620376310956,0.06848194008219652,0.0004845843143574458
58,0.058,7.5107648205331e-05,2.4730936242980297e-05,7.907450933385624e-05,0.053299849451619585,6.723959315354071e-05,-3.3466340276195575e-05,1.1989600865381378e-05,65532.60288557963,0.9988674036770473,0.00015389094867467853,0.06644111189595935,0.33423924485676526,0.0009950442914603258,0.3310174138468378,5.271777929083399e-05,-5.131777148603689e-05,-2.174392004938852e-05,0.9999999983883089,2.1741310667919938e-05,-5.131966118571141e-05,-2.1743920017744034e-05,0.9999999984874774,-5.271666339446289e-05,5.1317771480232505e-05,5.2718204843538174e-05,0.9999999976163041,4.935454429033648e-06,-7.489340676846562e-05,-2.7888583915003373e-06,1.7467146932514347e-06,-3.1456276096649404e-06,2.4467799700341868e-05,-2.1629202677834008e-05,-0.0011879694955339453,0.0006155637946987141,2.9026976070501066e-05,1.5706264356494586,2.644157731284996e-05,-0.0010694073511113428,-0.053299849451619585,0.028037768418687055,0.0014009503786669537,0.02797368101326362,0.001340826994145504,4.799871876641266e-07,-0.003368359217183029,0.0014849467408541677,1.1198521457411315e-07,0.001859121657694673,-1.1632054554392442e-07,0.062330421164278976,0.004123984024426323,0.0661632626144291,0.0004845379607789128
59,0.059000000000000004,7.902022849742675e-05,2.600639624507562e-05,8.318971785888817e-05,0.05501029659904806,7.042605935684509e-05,-3.583806182332717e-05,1.042838271981461e-05,75343.68145774784,0.9988109086988899,0.00016112672055718146,0.0685750718578522,0.3342466993594738,0.000994686578411865,0.33102162229545845,5.545905979431609e-05,-5.402935462051062e-05,-2.2875702522906494e-05,0.99999999822023,2.2872802076995354e-05,-5.4031366678079784e-05,-2.2875702486244177e-05,0.9999999983139644,-5.545782378147935e-05,5.4029354611588934e-05,5.545948533181022e-05,0.9999999973252017,5.90917661669188e-06,-7.874980616812328e-05,-2.7831945640377498e-06,1.8124897967205784e-06,-3.241119785343944e-06,2.573990421368578e-05,-2.273422435539297e-05,-0.0012429797921329935,0.0006445068822287258,3.0470687862002002e-05,1.5706553055204258,2.783103991346921e-05,-0.0011050216775589615,-0.05501029659904806,0.028943087530011666,0.0014437117915009358,0.028869870967171345,0.0013894626006192496,4.824426561921287e-07,-0.003367828455110167,0.0014847826685909448,1.2253862718969783e-07,0.0018587567818702233,-1.268752402129505e-07,0.06446503206850968,0.004123326947261191,0.06396222595243878,0.00048449009546146563
60,0.06,8.30689491975338e-05,2.7324323165074028e-05,8.744752116104751e-05,0.056747495734488944,7.371578641744994e-05,-3.8294035483874055e-05,8.817042612280673e-06,89113.30820866693,0.9987526293936994,0.0001685923402735538,0.07074237882258713,0.3342543935984927,0.0009943169211916365,0.3310259684766312,5.8291718996628106e-05,-5.683199892203561e-05,-2.4045260262450796e-05,0.9999999980374394,2.4042043391555653e-05,-5.6834143936035364e-05,-2.4045260219727925e-05,0.9999999981254272,-5.8290352395361467e-05,5.683199890969305e-05,5.829214451597009e-05,0.9999999970087388,6.921670504755895e-06,-8.27335154013468e-05,-2.776009283333991e-06,1.87964396331883e-06,-3.33831017856999e-06,2.705441295153558e-05,-2.387538762519236e-05,-0.0012997272878674825,0.0006743693610942152,3.195744049861011e-05,1.5706850856197676,2.927022076879487e-05,-0.0011411632697993909,-0.056747495734488944,0.02986247886548932,0.0014867526366081087,0.029780099341769357,0.00143918085532566,4.849726063856788e-07,-0.003367280690595923,0.0014846133380979516,1.335151904881294e-07,0.0018583802196008939,-1.3785323066783555e-07,0.06663301016933418,0.004122648823942031,0.06187096775912255,0.00048444069463292414
61,0.061,8.725554549148624e-05,2.8685349801604516e-05,9.184976598912617e-05,0.058511335435383796,7.711037351141825e-05,-4.0835285182627646e-05,7.1547869422496375e-06,109817.24965821211,0.9986925386344646,0.000176291311941699,0.07294289363055743,0.3342623313655652,0.0009939351403937314,0.3310304544624313,6.121711858897427e-05,-5.9727063019821e-05,-2.5253159259275293e-05,0.9999999978389423,2.524959889673627e-05,-5.972935229938553e-05,-2.525315920997588e-05,0.9999999979208593,-6.121561022247818e-05,5.972706300376614e-05,6.121754408816571e-05,0.999999996665208,7.973258703553032e-06,-8.684641223911569e-05,-2.7673174477493845e-06,1.948185756160519e-06,-3.4372105183771975e-06,2.8411959618306207e-05,-2.5053217043297755e-05,-0.0013582386233028662,0.000705165247766796,3.3487485677562335e-05,1.5707157899238897,3.076022372447708e-05,-0.0011778294181053937,-0.058511335435383796,0.030795886672580826,0.0015300451789522305,0.030704304122071303,0.0014900029556822075,4.875774866378983e-07,-0.003366715665767021,0.0014844386693972085,1.4492806120390314e-07,0.0018579917938326982,-1.4926768524277945e-07,0.06883421669406735,0.004121949335483063,0.05988227270375027,0.0004843897346384872
62,0.062,9.15817515314554e-05,3.0090106136610065e-05,9.639829718870397e-05,0.06030170368222121,8.061141355886656e-05,-4.346282569748564e-05,5.440825038895741e-06,144412.34664323542,0.9986306094196056,0.00018422712573239763,0.0751764764133446,0.334270516439471,0.00099354105736884,0.33103508231514367,6.423661372112477e-05,-6.27158991979293e-05,-2.6499962998638438e-05,0.9999999976236985,2.6496030289111915e-05,-6.271834479593466e-05,-2.649996294198866e-05,0.999999997699206,-6.423495167288279e-05,6.271589917738671e-05,6.42370391968905e-05,0.9999999962928214,9.064257160684708e-06,-9.109036539567622e-05,-2.757133978681381e-06,2.0181237416593366e-06,-3.537832345331407e-06,2.981317504346252e-05,-2.6268234461505132e-05,-0.0014185403269850875,0.0007369085029295905,3.506104650764196e-05,1.5707474323466293,3.230217468631415e-05,-0.001215017418207378,-0.06030170368222121,0.031743255162794554,0.001573560830079625,0.03164242273967412,0.00154195096183707,4.90257696241512e-07,-0.003366133124280072,0.0014842585829697834,1.5679083501390712e-07,0.00185759132857515,-1.6113221198918748e-07,0.07106851215450646,0.004121228164806232,0.05798950955647542,0.00048433719194174705
63,0.063,9.604929992510811e-05,3.153921933985886e-05,0.00010109495720693045,0.062118487857525835,8.422049325583081e-05,-4.6177662693637353e-05,3.6743691765614714e-06,213839.61776963485,0.9985668148737874,0.00019240325786057936,0.07744298659312902,0.3342789525860158,0.000993134494219216,0.33103985408727904,6.735155300763296e-05,-6.579985340149364e-05,-2.7786232468685057e-05,0.9999999973906168,2.778189668379678e-05,-6.580246814966856e-05,-2.778623240339429e-05,0.999999997459363,-6.734972458770956e-05,6.579985337519696e-05,6.735197845736396e-05,0.9999999958897063,1.0194975199218081e-05,-9.546723453772628e-05,-2.745473822396427e-06,2.0894664905671286e-06,-3.6401870138546127e-06,3.1258687190230634e-05,-2.7520959033361467e-05,-0.0014806588148426132,0.0007696130314423174,3.667831664079588e-05,1.5707800267387,3.389722249792955e-05,-0.0012527245718563366,-0.062118487857525835,0.032704528512726865,0.001617270133153925,0.032594392070728215,0.0015950478116153967,4.93013584073126e-07,-0.00336553281133424,0.001484072999758756,1.691175629061427e-07,0.0018571786489109707,-1.734608750826168e-07,0.07333575634678259,0.004120484996757409,0.056186575307367065,0.00048428304312516816
64,0.064,0.00010065992123192848,3.3033313773651356e-05,0.0001059415856087049,0.06396157474477032,8.79391931025822e-05,-4.898079275476291e-05,1.8546345903349195e-06,423657.1428322455,0.9985011282487343,0.00020082317057682934,0.0797422828821114,0.33428764355802487,0.0009927152737936522,0.33104477182159164,7.056327853938171e-05,-6.898026524382317e-05,-2.9112526168884045e-05,0.9999999971385564,2.9107754621529155e-05,-6.898306279038216e-05,-2.911252609395446e-05,0.9999999972001755,-7.056127024767997e-05,6.898026521146364e-05,7.056370395946976e-05,0.9999999954539032,1.1365715553046662e-05,-9.997887029361422e-05,-2.732351953527168e-06,2.1622225778950765e-06,-3.7442856931153743e-06,3.274912116439885e-05,-2.881190722078092e-05,-0.0015446203895873836,0.0008032926823073174,3.833945938880211e-05,1.5708135868871338,3.554653983336776e-05,-0.0012909481874194511,-0.06396157474477032,0.03367965086499989,0.0016611427480062258,0.03356014843391957,0.001649317335438212,4.958454472714031e-07,-0.003364914473692712,0.0014838818411758107,1.8192276783272273e-07,0.0018567535810107647,-1.86268211515358e-07,0.07563580835116875,0.004119719518133336,0.05446784542780931,0.0004842272648918059
65,0.065,0.00010541534347389748,3.4573010998127765e-05,0.00011094001861004191,0.0658308505274766,9.176908742664502e-05,-5.187320341562676e-05,1.916050866807302e-08,41007929.40732877,0.9984335229240507,0.00020949031215914185,0.0820742232822859,0.33429659309533477,0.000992283219682151,0.3310498375510953,7.387312589157702e-05,-7.225846801661717e-05,-3.0479400121130595e-05,0.9999999968663247,3.0474158075839294e-05,-7.226146286079538e-05,-3.0479400035030892e-05,0.9999999969204363,-7.387092338110852e-05,7.22584679771713e-05,7.387355127819184e-05,0.9999999949833649,1.2576774403361135e-05,-0.00010462711426223155,-2.717783377070848e-06,2.2364005833267e-06,-3.850139370438556e-06,3.428509922307005e-05,-3.014159280129007e-05,-0.0016104512401148602,0.0008379612486365674,4.004460682501946e-05,1.5708481265147225,3.72513241045811e-05,-0.00132968558050915,-0.0658308505274766,0.03466856632925002,0.0017051474362173443,0.03453962758861651,0.0017047842712133335,4.987535299072508e-07,-0.0033642778596939833,0.001483685029104119,1.9522146165923005e-07,0.0018563159521414025,-1.9956924808671071e-07,0.07796852653221328,0.004118931417696081,0.052828129513791504,0.0004841698340656233
66,0.066,0.00011031729166578233,3.615892977657873e-05,0.00011609208863251982,0.06772620078837888,9.571174440281599e-05,-5.4855873193695494e-05,1.9477949178422564e-06,403397.95557371737,0.9983639724080413,0.00021840811690491236,0.08443866508538451,0.3343058049247862,0.0009918381562107068,0.331055053299081,7.728242413307385e-05,-7.563578869529408e-05,-3.1887407877739804e-05,0.999999996572675,3.1881658460149614e-05,-7.563899622656592e-05,-3.1887407779151566e-05,0.9999999966188846,-7.72800121726297e-05,7.563578864763429e-05,7.728284948160802e-05,0.9999999944759523,1.3828441414454051e-05,-0.00010941379902201711,-2.701783131553448e-06,2.3120090909013326e-06,-3.957758851826511e-06,3.586724078350508e-05,-3.1510526875936856e-05,-0.0016781774409032391,0.0008736324676196494,4.179385887124162e-05,1.5708836592794555,3.901279838377719e-05,-0.0013689340746467847,-0.06772620078837888,0.03567121898308198,0.0017492520462221626,0.035532764733084345,0.001761474279196095,5.017380216500861e-07,-0.0033636227192720787,0.0014834824859045763,2.0902916239895047e-07,0.0018558655906797828,-2.1337951867956105e-07,0.08033376853899861,0.00411812038619844,0.05126263165592693,0.0004841107275930344
67,0.067,0.00011536748736744243,3.779168608136411e-05,0.00012139962388059265,0.06964751050856817,9.97687260699514e-05,-5.7929771619256575e-05,3.9320444276922005e-06,199829.96379223748,0.998292450338535,0.00022758000512315902,0.08683546487291711,0.3343152827602184,0.0009913799084357432,0.33106042107913325,8.079249583525794e-05,-7.911354794654102e-05,-3.333710053210481e-05,0.9999999962563069,3.333080463495127e-05,-7.911698448352308e-05,-3.333710041953195e-05,0.9999999962942051,-8.078985827075865e-05,7.911354788964903e-05,8.079292114115955e-05,0.9999999939294324,1.5120999767359589e-05,-0.00011434074813961644,-2.6843662911946176e-06,2.389056689855918e-06,-4.067154765266459e-06,3.749616243191288e-05,-3.291921787789822e-05,-0.0017478249514118072,0.0009103200204926361,4.358728236969436e-05,1.5709201987739583,4.083221234059924e-05,-0.0014086910019613659,-0.06964751050856817,0.03668755287298667,0.0017934234984527367,0.03653949450274633,0.0018194139568220428,5.047990564286103e-07,-0.0033629488039687134,0.0014832741344183616,2.2336191174010116e-07,0.0018554023261224155,-2.2771508183136758e-07,0.08273139130547506,0.004117286116399539,0.04976691496879607,0.0004840499225432704
68,0.068,0.00012056764826086067,3.947189309982955e-05,0.00012686444794361812,0.07159466406688096,0.00010394158834454643,-6.109585926694991e-05,5.972681806493826e-06,131556.34896378935,0.9982189304837146,0.00023700938312698128,0.0892644785166065,0.3343250303024622,0.0009909083021385154,0.3310659428951473,8.440465708181577e-05,-8.269306013763966e-05,-3.482902672802268e-05,0.9999999959158631,3.482214291490261e-05,-8.269674296738569e-05,-3.482902659964504e-05,0.9999999959450243,-8.44017767956178e-05,8.269306007036362e-05,8.440508233997779e-05,0.9999999933414758,1.6454726195769265e-05,-0.00011940977617850711,-2.6655479691273243e-06,2.4675519752937145e-06,-4.178337561561754e-06,3.91724779322835e-05,-3.436817158182279e-05,-0.0018194196154786883,0.0009480375325079251,4.542491014020608e-05,1.5709577585249268,4.2710843194105964e-05,-0.0014489537039245738,-0.07159466406688096,0.03771751201528901,0.0018376277705117144,0.03755975096863501,0.0018786308535067235,5.079367110896613e-07,-0.0033622558669532854,0.0014830598979734884,2.3823629286242527e-07,0.0018549259890986883,-2.425925385959849e-07,0.08516125105115176,0.004116428303089955,0.04833686978798729,0.00048398739610991794
69,0.069,0.00012591948775206614,4.120016124051705e-05,0.000132488379422451,0.07356754523923982,0.00010823188103267138,-6.435508778544172e-05,8.070476784938127e-06,97360.8200915267,0.9981433867429429,0.0002466996432262445,0.09172556117887486,0.33433505123933493,0.000990423163819459,0.33107162074134605,8.812021747806043e-05,-8.637563334312759e-05,-3.6363732668576176e-05,0.9999999955499294,3.635621707603868e-05,-8.63795807623316e-05,-3.6363732522844334e-05,0.999999995569913,-8.811707634838407e-05,8.637563326355756e-05,8.812064268187703e-05,0.9999999927096557,1.7829891019283117e-05,-0.00012462268870756918,-2.645343319784832e-06,2.5475035471240764e-06,-4.291317516318751e-06,4.08967982352669e-05,-3.5857891113946e-05,-0.0018929871607179282,0.000986798572904978,4.7306740022578146e-05,1.5709963519925627,4.4649996679506924e-05,-0.0014897195321232058,-0.07356754523923982,0.038761040397052846,0.0018818298823720682,0.03859346763585043,0.001939153485400962,5.11151004054311e-07,-0.003361543663036742,0.001482839700388228,2.5366944853856433e-07,0.0018544364113812317,-2.5802905069177227e-07,0.08762320328182209,0.004115546643109388,0.046968685107591945,0.0004839231256115312
70,0.07,0.00013142471459808223,4.297709813967504e-05,0.00013827323158042783,0.07556603719810505,0.00011264114783914951,-6.770839992694278e-05,1.0226196040923377e-05,76837.21032849787,0.9980657931475976,0.00025665416372048876,0.09421856731357534,0.3343453492456355,0.0009899243206921559,0.33107745660229665,9.194048015848111e-05,-9.016256935145961e-05,-3.794176212768008e-05,0.9999999951570315,3.793356836286452e-05,-9.016680070906766e-05,-3.7941761961939936e-05,0.9999999951673814,-9.193705901829313e-05,9.016256925863629e-05,9.194090530184607e-05,0.999999992031444,1.9246758176716394e-05,-0.00012998128230927355,-2.6237675413987027e-06,2.628920011441141e-06,-4.406104732436752e-06,4.266973148693934e-05,-3.7388876963015534e-05,-0.001968553197916033,0.001026616654881955,4.923273390420297e-05,1.5710359925700048,4.6651008029628534e-05,-0.001530985849069533,-0.07556603719810505,0.03981808197697704,0.00192599388162483,0.03964057744214433,0.002001011350121614,5.144418939737395e-07,-0.0033608119486896767,0.0014826134659763485,2.696790995315266e-07,0.0018539334258986242,-2.74042358947317e-07,0.09011710279050689,0.004114640835369523,0.04565882288614041,0.0004838570884928426
71,0.07100000000000001,0.00013708503255908635,4.48033086679861e-05,0.00014422081201867018,0.07759002251202501,0.00011717092637549208,-7.115672957656302e-05,1.2440603184100618e-05,63160.653470789985,0.9979861238619033,0.00026687630889205986,0.09674335066694566,0.3343559279831399,0.0009894116006775129,0.3310834524529275,9.586674179740129e-05,-9.405516367522182e-05,-3.9563656456298446e-05,0.9999999947356362,3.955473549552997e-05,-9.405969941417638e-05,-3.9563656268814615e-05,0.999999994735879,-9.58630203909757e-05,9.405516356716763e-05,9.586716687304264e-05,0.9999999913042086,2.070558525923971e-05,-0.00013548734458808246,-2.6008358787743546e-06,2.7118099805529946e-06,-4.522709141339872e-06,4.449188303781997e-05,-3.8961626992065345e-05,-0.002046143220428058,0.0010675052355682395,5.120281673296215e-05,1.5710766935827614,4.871524297106401e-05,-0.0015727500290498076,-0.07759002251202501,0.0408885806862844,0.001970082828759174,0.040701012756598404,0.0020642349414354754,5.178092783856572e-07,-0.0033600604820593983,0.0014823811195520203,2.862835632717677e-07,0.001853416866747535,-2.9065080202835636e-07,0.0926428036586006,0.004113710580875665,0.04440399489625506,0.00048378926232583557
72,0.07200000000000001,0.0001429021400742607,4.6679394937246e-05,0.00015033292237401298,0.07963938314529424,0.00012182274816584182,-7.470100178125937e-05,1.4714458740797155e-05,53400.60449854436,0.9979043531837668,0.00027736942899946136,0.0992997642788049,0.3343667911005966,0.0009888848323973847,0.331089610258545,9.99002926174164e-05,-9.805470555646068e-05,-4.122995459621137e-05,0.9999999942841475,4.122025467696108e-05,-9.805956725868203e-05,-4.12299543840657e-05,0.9999999942737928,-9.989624955618303e-05,9.805470543131252e-05,9.99007176176736e-05,0.9999999905252113,2.2206623543241655e-05,-0.000141142654178295,-2.576563625955597e-06,2.7961820736319146e-06,-4.64114050497649e-06,4.6363855451542777e-05,-4.057663645107978e-05,-0.0021257826035733524,0.0011094777159978454,5.321687551544935e-05,1.5711184682881398,5.0844098734967776e-05,-0.0016150094590144332,-0.07963938314529424,0.04197248042960591,0.002014058782487202,0.041774705378423246,0.0021288557639037656,5.212529923717091e-07,-0.0033592890229831194,0.0014821425864333865,3.035017728311118e-07,0.0018528865692020416,-3.0787333546311557e-07,0.09520015925724791,0.004112755582743478,0.04320114183408951,0.00048371962481028627
73,0.073,0.00014887772996104905,4.860595630737508e-05,0.0001566113580392862,0.0817140004576664,0.00012659813865167926,-7.834213277852127e-05,1.7048520138690287e-05,46089.95185252312,0.9978204555456168,0.00028813686027092376,0.10188766048392467,0.33437794223372275,0.0009883438451683893,0.3310959319748505,0.00010404241639916378,-0.00010216247797600886,-4.294119308623223e-05,0.9999999938009059,4.2930659599981165e-05,-0.00010216768840699136,-4.2941192846626046e-05,0.999999993779447,-0.00010403802911667794,0.00010216247783148037,0.00010404284131471098,0.9999999896916073,2.375011802263627e-05,-0.00014694898075208473,-2.550966128611609e-06,2.882044916178441e-06,-4.761408417467568e-06,4.8286248513812446e-05,-4.223439799058751e-05,-0.002207496604031019,0.001152547441083695,5.527475830055201e-05,1.5711613298746756,5.303900508244754e-05,-0.0016577615395077315,-0.0817140004576664,0.043069725085849615,0.0020578827851026583,0.042861586535825245,0.0021949063474797645,5.247728072194692e-07,-0.0033584973330096795,0.0014818977924489802,3.213532961760369e-07,0.001852342369729025,-3.2572955094867494e-07,0.09778902224886798,0.004111775546226449,0.04204741444003956,0.0004836481537754488
74,0.074,0.0001550134891360369,5.058358939365427e-05,0.00016305790790413705,0.08381375520414473,0.00013149861719551767,-8.208103002396028e-05,1.944354169159896e-05,40412.90844777578,0.9977344055152413,0.0002991819248981847,0.1045068909136091,0.3343893850052014,0.0009877884689953136,0.33110241954795677,0.00010829439048798406,-0.00010637975766014662,-4.469790607375401e-05,0.9999999932841869,4.46864814544544e-05,-0.00010638534081510581,-4.4697905803385744e-05,0.9999999932510998,-0.00010828963519496087,0.00010637975749394797,0.00010829481531027252,0.9999999888004383,2.5336307440226857e-05,-0.00015290808502712748,-2.5240587868124997e-06,2.9694071416482765e-06,-4.883522307482119e-06,5.025965924123706e-05,-4.393540167622688e-05,-0.0022913103592351637,0.0011967276995927389,5.737627314844686e-05,1.5712052914615606,5.530142534451935e-05,-0.0017010036856393667,-0.08381375520414473,0.04418025850904375,0.0021015148478948508,0.04396158688498456,0.002262420262071805,5.283684290871983e-07,-0.0033576851754114905,0.001481646663940803,3.398583557125841e-07,0.0018517841059967743,-3.442396959506073e-07,0.10040924458888528,0.004110770178731127,0.040940156412104155,0.0004835748271804185
75,0.075,0.0001613110983566965,5.2612888073773005e-05,0.00016967435411548555,0.08593852753483264,0.00013652569708374833,-8.591859221866168e-05,2.190027458435122e-05,35879.677391143276,0.9976461777966287,0.0003105079310304788,0.10715730649745397,0.33440112302467895,0.0009872185345645482,0.33110907491440505,0.00011265748580679968,-0.00011070781508903949,-4.6500625323186995e-05,0.9999999927322004,4.6488248934365206e-05,-0.00011071379624033595,-4.6500625018851255e-05,0.9999999926869436,-0.00011265233744238303,0.00011070781489870042,0.00011265791052456064,0.9999999878486345,2.6965424318459164e-05,-0.0001590217187742584,-2.4958570571942396e-06,3.058277390690349e-06,-5.00749143911414e-06,5.2284681890130653e-05,-4.5680135004326637e-05,-0.002377248886769996,0.0012420317241219152,5.9521187085049473e-05,1.5712503660980697,5.7632857476560615e-05,-0.0017447333280997583,-0.08593852753483264,0.04530402452917638,0.002144913936602612,0.04507463650908303,0.002331432132041269,5.320394976757168e-07,-0.0033568523152043015,0.001481389127770021,3.5903784811677243e-07,0.0018512116168890387,-3.6342469358983874e-07,0.10306067752761681,0.004109739189842141,0.03987688892013146,0.0004834996231155412
76,0.076,0.00016777223198272614,5.469444349543227e-05,0.00017646247185659818,0.0880881969949859,0.000141680885527908,-8.985570933720791e-05,2.4419466857663207e-05,32178.41028636697,0.9975557472308105,0.00032211817276873983,0.10983875746547125,0.33441315988876164,0.000986633873237167,0.3311159000011817,0.00011713296686144403,-0.00011514791450473183,-4.834988022706099e-05,0.9999999921430879,4.833648824493059e-05,-0.00011515432024995775,-4.8349879884743964e-05,0.9999999920851004,-0.00011712739904620548,0.00011514791428749761,0.00011713339146363078,0.9999999868330083,2.8637694991562324e-05,-0.00016529162482477355,-2.466376455900754e-06,3.148664312418132e-06,-5.133324913836685e-06,5.4361907965520495e-05,-4.7469082918542884e-05,-0.002465337083764982,0.0012884726910749593,6.170922504196645e-05,1.5712965667629872,6.0034835127231666e-05,-0.001788947914216249,-0.0880881969949859,0.046440966953044234,0.0021880379569169848,0.04620066491753573,0.0024019776506710526,5.357855849067779e-07,-0.0033559985191632595,0.0014811251113217637,3.7891336444995277e-07,0.0018506247425160577,-3.8330616281617306e-07,0.10574317161251771,0.004108682291342526,0.03885529655152968,0.00048342251980335813
77,0.077,0.00017439855775533097,5.68288440835132e-05,0.00018342402914287912,0.09026264252501649,0.00014696568366586547,-9.389326265375275e-05,2.700186339290802e-05,29101.12425356505,0.9974630887967035,0.00033401593016000393,0.1125510933502711,0.3344254991810145,0.000986034317041954,0.3311228967257347,0.00012172209175176363,-0.00011970131391869643,-5.0246197813574867e-05,0.9999999915149222,5.023172310965703e-05,-0.00011970817222967112,-5.024619742964186e-05,0.9999999914436257,-0.00012171607673832401,0.00011970131367144456,0.0001217225162256641,0.999999985750256,3.0353339634969778e-05,-0.00017171953707767918,-2.4356325608043683e-06,3.2405765640363937e-06,-5.261031672634072e-06,5.649192622968713e-05,-4.930272782760155e-05,-0.0025555997262899986,0.0013360637206400157,6.394006878200292e-05,1.5713439063640324,6.25089287217955e-05,-0.0018336449090586647,-0.09026264252501649,0.04759102956505641,0.0022308437400364706,0.047339601045222265,0.002474093594563845,5.396061936101447e-07,-0.0033551235558390504,0.001480854542509318,3.9950721056031944e-07,0.0018500233242264776,-4.0390643886975944e-07,0.10845657669047362,0.004107599197234293,0.037873214539300634,0.0004833434955994981
78,0.078,0.00018119173659371317,5.9016675547855955e-05,0.0001905607866339936,0.09246174246066775,0.0001523815865620081,-9.803212476885666e-05,2.964820589722167e-05,26503.784595568406,0.9973681776119545,0.0003462044691920178,0.11529416298956853,0.3344381444719592,0.0009854196986682367,0.33113006699599057,0.00012642611218005584,-0.00012436926511938395,-5.219010275903102e-05,0.9999999908457045,5.217447477739209e-05,-0.00012437660539295,-5.2190102328571506e-05,0.9999999907605019,-0.00012641962080227318,0.00012436926483887223,0.00012642653651212532,0.9999999845969507,3.2112572295850406e-05,-0.00017830718050674697,-2.4036410138927877e-06,3.3340228121535136e-06,-5.390620497274392e-06,5.8675322711198655e-05,-5.1181549624186966e-05,-0.0026480614687506665,0.0013848178767680711,6.621335581027783e-05,1.5713923977372843,6.505674655979896e-05,-0.001878821796585416,-0.09246174246066775,0.048754156128055295,0.002273287028274905,0.04849137325186465,0.0025478178380034535,5.435007562210597e-07,-0.003354227195575999,0.0014805773497793043,4.20842427767211e-07,0.0018494072046201693,-4.252485940271438e-07,0.11120074191040609,0.004106489623761384,0.036928617140279826,0.0004832625289938629
79,0.079,0.00018815342240726,6.12585208907073e-05,0.00019787449746059253,0.09468537453328216,0.00015793008320673016,-0.00010227315963574869,3.2359232888249226e-05,24283.482579956326,0.9972709889337856,0.0003586870417880496,0.11806781452892574,0.3344510993190727,0.0009847898514584847,0.3311374127103706,0.00013124627345995066,-0.00012915301368066068,-5.4182117394052653e-05,0.9999999901333634,5.416526202935004e-05,-0.00012916086678995894,-5.418211691259935e-05,0.9999999900336386,-0.00013123927508145198,0.00012915301336360006,0.0001312466976349791,0.9999999833695428,3.391560092302903e-05,-0.00018505627116733561,-2.3704175236005653e-06,3.4290117328883537e-06,-5.522100012001957e-06,6.09126807135459e-05,-5.310602570502657e-05,-0.0027427468432839486,0.0014347481671521983,6.8528678270999e-05,1.5714420536466058,6.767993592704993e-05,-0.001924476080839603,-0.09468537453328216,0.04993029038412733,0.0023153224607211672,0.0496559093215129,0.0026231893672509702,5.474686334887506e-07,-0.0033533092105271856,0.0014802934621162057,4.4294281382981336e-07,0.001848776227558592,-4.473564586335613e-07,0.11397551572610838,0.004105353289428848,0.03601960704664234,0.0004831795986114447
80,0.08,0.0001952852619222177,6.355496041456116e-05,0.00020536690706471092,0.09693341587008658,0.000163612656515972,-0.0001066172225853746,3.513567967923143e-05,22364.73597344099,0.9971714981598376,0.00037146688580189124,0.12087189542463839,0.33446436726678686,0.0009841446094007056,0.33114493575780807,0.0001361838145248484,-0.00013405379897024616,-5.6222761716462344e-05,0.9999999893757546,5.620460118611496e-05,-0.00013406219731659785,-5.622276117843943e-05,0.9999999892608722,-0.00013617627698773866,0.00013405379861220618,0.00013618423852679307,0.9999999820643557,3.576262739574121e-05,-0.00019196851620300844,-2.33597786758466e-06,3.525552011565672e-06,-5.655478685121992e-06,6.32045808241168e-05,-5.5076630992215874e-05,-0.0028396802591540353,0.001485867543207565,7.088558182995326e-05,1.571492886783068,7.03801842218301e-05,-0.0019706052871893073,-0.09693341587008658,0.051119376055366574,0.002356903558954268,0.05083313646209535,0.0027002482947801744,5.515091131988208e-07,-0.003352369374673945,0.0014800028090477355,4.6583294420242697e-07,0.0018481302381789548,-4.702546424236608e-07,0.11678074589921247,0.004104189915027621,0.03514440572707588,0.00048309468321367264
81,0.081,0.00020258889452203708,6.590657172966996e-05,0.00021303975305284972,0.09920574299465773,0.0001694307833293313,-0.00011106516035221846,3.797827836396259e-05,20690.92363817155,0.9970696808290195,0.0003845472250130624,0.12370625244696933,0.3344779518464877,0.0009834838071206323,0.33115263801776385,0.00014123996793768967,-0.00013907285415593051,-5.831255339838748e-05,0.9999999885706582,5.8293006114588266e-05,-0.0001390818317234463,-5.831255279796195e-05,0.999999988439963,-0.00014123185750777417,0.00013907285375274088,0.00014124039174895353,0.9999999806775843,3.765384755288759e-05,-0.0001990456138519425,-2.30033789438977e-06,3.6236523447602286e-06,-5.790764830667933e-06,6.55516009226193e-05,-5.709383795583632e-05,-0.002938886002148693,0.0015381889000522495,7.328356454277857e-05,1.571544909764373,7.315922009529829e-05,-0.0020172069636204487,-0.09920574299465773,0.05232135684468459,0.00239798271282531,0.052022981305104875,0.002779035873468191,5.556214089092816e-07,-0.003351407463839526,0.0014797053206485353,4.895381935661307e-07,0.00184746908290389,-4.939685561205338e-07,0.11961627950250371,0.00410299922365193,0.03430134460528634,0.00048300776169900224
82,0.082,0.0002100659521003426,6.831392976203918e-05,0.00022089476506100423,0.10150223182742044,0.00017538593440899383,-0.0001156178110989535,4.088775780195602e-05,19218.74141734891,0.9969655126223518,0.0003979312691222024,0.12657073168354982,0.33449185657651537,0.000982807279873869,0.331160521360244,0.00014641595990028122,-0.00014421140621534434,-6.0452007796918394e-05,0.9999999877157774,6.043098823491892e-05,-0.00014422099862490545,-6.045200712775341e-05,0.9999999875685935,-0.00014640724121224423,0.00014421140576228834,0.0001464163835010468,0.9999999792052927,3.958945122151114e-05,-0.00020628925345329765,-2.263513526390426e-06,3.7233214393107624e-06,-5.927966609903776e-06,6.795431619010125e-05,-5.915811663791073e-05,-0.0030403882339761134,0.0015917250764888096,7.572207570906551e-05,1.5715981351342785,7.601881460600532e-05,-0.002064278682074404,-0.10150223182742044,0.053536176436560085,0.0024385111662869447,0.053225369905377164,0.0028595945107070253,5.598046587038787e-07,-0.0033504232557082466,0.0014794009275458705,5.140847576454734e-07,0.0018467926094549452,-5.185244333216998e-07,0.1224819629233897,0.0041017809407236285,0.033488856994035365,0.000482918813104257
83,0.083,0.0002177180589252186,7.077760676092925e-05,0.00022893366463010566,0.10382275768627798,0.000181479574436791,-0.0001202760044414813,4.386484360329101e-05,17914.50502248156,0.9968589693638146,0.00041162221374665904,0.1294651785430747,0.3345060849621639,0.000982114863537546,0.33116858764581486,0.00015171301025951323,-0.00014947067594350827,-6.264163796299016e-05,0.9999999868087355,6.261905652741806e-05,-0.00014948092050831585,-6.26416372186011e-05,0.9999999866443681,-0.00015170364626288578,0.0001494706754351545,0.00015171343362940792,0.9999999776434101,4.1569622245218874e-05,-0.00021370111545309333,-2.2255207611787675e-06,3.824568013634355e-06,-6.067092032822363e-06,7.041329911727674e-05,-6.126993467775116e-05,-0.0031442109916623912,0.0016464888549866362,7.820051471236098e-05,1.5716525753620194,7.896078238846931e-05,-0.0021118180398404305,-0.10382275768627798,0.054763778497826564,0.002478439003295462,0.05444022774096468,0.0029419677824639853,5.640579239628383e-07,-0.0033494165298426064,0.0014790895609243409,5.394996753058764e-07,0.001846100666864758,-5.439493526677691e-07,0.12537764186766046,0.004100534794013933,0.03270547071151214,0.00048282781660566803
