yagami-light7/MecArm_Kinematics/results/dls_demo/20260419_172402/trajectory.csv
step,error_norm,px,py,pz,q1,q2,q3,q4,q5,q6,qdot1,qdot2,qdot3,qdot4,qdot5,qdot6
0,0.5408326913195984,0.15291296556554193,0.001000885447252818,0.3044558456967691,0.0025,-0.0025,0.0025,0.0006236422150649915,0.0025,0.0,2.5,-2.5,2.5,0.6236422150649915,2.5,0.0
1,0.540160214307909,0.1533299376853466,0.0014032663098611509,0.3051321603226412,0.005,-0.005,0.005,0.0012267343964911664,0.005,0.0,2.5,-2.5,2.5,0.6030921814261748,2.5,0.0
2,0.5394878840142506,0.15374755161913098,0.0018071185220680172,0.3058078157201485,0.0075,-0.0075,0.0075,0.0018094019494679608,0.0075,0.0,2.5,-2.5,2.5,0.5826675529767944,2.5,0.0
3,0.5388157095214929,0.15416580146339262,0.0022124555360106893,0.3064828065373688,0.01,-0.01,0.01,0.0023717715149017193,0.01,0.0,2.5,-2.5,2.5,0.5623695654337587,2.5,0.0
4,0.5381437000422515,0.1545846812131942,0.0026192908359456285,0.3071571274736707,0.012413782597078345,-0.0125,0.0125,0.0029139709178198866,0.0125,0.0,2.413782597078345,-2.5,2.5,0.5421994029181673,2.5,0.0
5,0.5374728166395215,0.15500444522054171,0.003014273866227407,0.3078307732791219,0.014732431297439015,-0.015000000000000001,0.015000000000000001,0.0034367553225280356,0.015000000000000001,0.0,2.318648700360669,-2.5,2.5,0.5227844047081489,2.5,0.0
6,0.5368030513376901,0.15542521982506885,0.0033959426992779887,0.3085037388199121,0.016959873659515526,-0.0175,0.0175,0.003940937875880549,0.0175,0.0,2.2274423620765114,-2.5,2.5,0.5041825533525128,2.5,0.0
7,0.5361342534834842,0.15584709316320852,0.0037648233890769725,0.30917601905705633,0.01909986963311802,-0.02,0.02,0.004427296103666676,0.02,0.0,2.139995973602493,-2.5,2.5,0.4863582277861268,2.5,0.0
8,0.5354662841059065,0.15627014478639842,0.0041214208001078625,0.3098476090336719,0.021156018819012908,-0.0225,0.0225,0.004896573489160289,0.0225,0.0,2.0561491858948893,-2.5,2.5,0.46927738549361364,2.5,0.0
9,0.534799015013568,0.15669444639922925,0.0044662194406689185,0.3105185038682034,0.023131767421787495,-0.024999999999999998,0.024999999999999998,0.005349480983634212,0.024999999999999998,0.0,1.9757486027745852,-2.5,2.5,0.45290749447392276,2.5,0.0
10,0.53413232796217,0.15712006253610206,0.004799684269155335,0.3111886987482291,0.025030414907186365,-0.027499999999999997,0.027499999999999997,0.005786698451399879,0.027499999999999997,0.0,1.8986474853988693,-2.5,2.5,0.43721746776566756,2.5,0.0
11,0.5334661138867276,0.15754705118142678,0.0051222614732997565,0.3118581889248002,0.02685512037496435,-0.029999999999999995,0.029999999999999995,0.006208876051889907,0.029999999999999995,0.0,1.8247054677779861,-2.5,2.5,0.4221776004900277,2.5,0.0
12,0.5328002721935224,0.15797546433799378,0.005434379222511464,0.3125269697072688,0.028608908658117497,-0.032499999999999994,0.032499999999999994,0.006616635561250318,0.032499999999999994,0.0,1.7537882831531455,-2.5,2.5,0.40775950936041155,2.5,0.0
13,0.5321347101071631,0.15840534854777147,0.00573644839358306,0.31319503645855934,0.030294676159136908,-0.034999999999999996,0.034999999999999996,0.007010571635852582,0.034999999999999996,0.0,1.6857675010194106,-2.5,2.5,0.3939360746022641,2.5,0.0
14,0.5314693420684594,0.1588367453690532,0.006028863270137887,0.31386238459085136,0.03191519643368729,-0.0375,0.0375,0.007391253020074094,0.0375,0.0,1.6205202745503793,-2.5,2.5,0.38068138422151176,2.5,0.0
15,0.5308040891791664,0.159269691813544,0.006312002216278513,0.31452900956163293,0.03347312553184821,-0.04,0.04,0.007759223700630931,0.04,0.0,1.5579290981609215,-2.5,2.5,0.3679706805568371,2.5,0.0
16,0.5301388786899338,0.15970422074670082,0.006586228324964936,0.3151949068700973,0.03497100710677678,-0.0425,0.0425,0.008115004009679088,0.0425,0.0,1.4978815749285692,-2.5,2.5,0.35578030904815716,2.5,0.0
17,0.5294736435280955,0.16014036125435743,0.0068518900417068734,0.3158600720538515,0.03641127730035945,-0.045000000000000005,0.045000000000000005,0.008459091678831184,0.045000000000000005,0.0,1.440270193582668,-2.5,2.5,0.3440876691520965,2.5,0.0
18,0.5288083218621803,0.16057813897843032,0.007109321764196527,0.3165245006859107,0.03779626941512209,-0.04750000000000001,0.04750000000000001,0.008791962846165206,0.04750000000000001,0.0,1.3849921147626403,-2.5,2.5,0.33287116733402156,2.5,0.0
19,0.5281428567002759,0.16101757642426096,0.0073588444185408095,0.3171881883719544,0.03912821838136406,-0.05000000000000001,0.05000000000000001,0.009114073018231049,0.05000000000000001,0.0,1.3319489662419681,-2.5,2.5,0.3221101720658422,2.5,0.0
20,0.5274771955195917,0.16145869324195275,0.007600766012774797,0.3178511307478211,0.04040926502817631,-0.05250000000000001,0.05250000000000001,0.00942585798898974,0.05250000000000001,0.0,1.2810466468122526,-2.5,2.5,0.3117849707586916,2.5,0.0
21,0.5268112899247834,0.16190150648385518,0.007835382168353194,0.31851332347722255,0.04164146016669818,-0.055000000000000014,0.055000000000000014,0.009727734717549806,0.055000000000000014,0.0,1.2321951385218761,-2.5,2.5,0.3018767285600661,2.5,0.0
22,0.5261450953327816,0.16234603084018182,0.00806297663032652,0.3191747622496576,0.04282676849366358,-0.057500000000000016,0.057500000000000016,0.010020102166495575,0.057500000000000016,0.0,1.185308326965402,-2.5,2.5,0.29236744894576955,2.5,0.0
23,0.5254785706820521,0.16279227885457806,0.008283821756910725,0.3198354427785085,0.04396707232298693,-0.06000000000000002,0.06000000000000002,0.01030334210253358,0.06000000000000002,0.0,1.1403038293233516,-2.5,2.5,0.28323993603800574,2.5,0.0
24,0.5248116781643716,0.16324026112130668,0.00849817898915902,0.3204953607993061,0.04506417515284334,-0.06250000000000001,0.06250000000000001,0.01057781986111587,0.06250000000000001,0.0,1.0971028298564054,-2.5,2.5,0.274477758582289,2.5,0.0
25,0.5241443829773579,0.1636899864655841,0.00870629930143859,0.3211545120681462,0.04611980507540703,-0.06500000000000002,0.06500000000000002,0.010843885076633118,0.06500000000000002,0.0,1.0556299225636883,-2.5,2.5,0.2660652155172471,2.5,0.0
26,0.5234766530961273,0.16414146210847008,0.008908423633407686,0.3218128923602473,0.0471356180361281,-0.06750000000000002,0.06750000000000002,0.011101872379706161,0.06750000000000002,0.0,1.015812960721071,-2.5,2.5,0.25798730307304313,2.5,0.0
27,0.5228084590625856,0.1645946938175998,0.00910478330417646,0.32247049746863554,0.04811320094915057,-0.07000000000000002,0.07000000000000002,0.011352102063041951,0.07000000000000002,0.0,0.9775829130224745,-2.5,2.5,0.2502296833357905,2.5,0.0
28,0.5221397737909672,0.1650496860449422,0.0092956004093235,0.3231273232029467,0.04905407467520509,-0.07250000000000002,0.07250000000000002,0.011594880717259165,0.07250000000000002,0.0,0.9408737260545181,-2.5,2.5,0.2427786542172137,2.5,0.0
29,0.5214705723883619,0.16550644205266368,0.009481088201423758,0.32378336538833613,0.0499596968680478,-0.07500000000000002,0.07500000000000002,0.01183050183802974,0.07500000000000002,0.0,0.9056221928427055,-2.5,2.5,0.23562112077057343,2.5,0.0
30,0.5208008319890467,0.16596496402809902,0.009661451454729006,0.324438619864485,0.0508314646952632,-0.07750000000000003,0.07750000000000003,0.012059246405825595,0.07750000000000003,0.0,0.8717678272154021,-2.5,2.5,0.22874456779585442,2.5,0.0
31,0.5201305316015562,0.16642525318873305,0.009836886814623767,0.3250930824846975,0.05167071743900327,-0.08000000000000003,0.08000000000000003,0.012281383439504651,0.08000000000000003,0.0,0.8392527437400656,-2.5,2.5,0.2221370336790571,2.5,0.0
32,0.5194596519674882,0.1668873098780377,0.010007583132463096,0.3257467491150788,0.052478738981997716,-0.08250000000000003,0.08250000000000003,0.012497170524917063,0.08250000000000003,0.0,0.8080215429944442,-2.5,2.5,0.2157870854124126,2.5,0.0
33,0.5187881754311373,0.16735113365292575,0.010173721786379125,0.3263996156337885,0.05325676018394162,-0.08500000000000003,0.08500000000000003,0.012706854319661284,0.08500000000000003,0.0,0.7780212019439023,-2.5,2.5,0.20968379474422055,2.5,0.0
34,0.5181160858191087,0.1678167233635274,0.010335476988625553,0.32705167793036205,0.054005961153145814,-0.08750000000000004,0.08750000000000004,0.01291067103507021,0.08750000000000004,0.0,0.7492009692041934,-2.5,2.5,0.20381671540892632,2.5,0.0
35,0.5174433683291393,0.16828407722593355,0.010493016080010152,0.3277029319050947,0.05472747341812309,-0.09000000000000004,0.09000000000000004,0.013108846896460136,0.09000000000000004,0.0,0.7215122649772785,-2.5,2.5,0.1981758613899273,2.5,0.0
36,0.5167700094274069,0.16875319288850005,0.0106464998119465,0.32835337346848287,0.05542238200357902,-0.09250000000000004,0.09250000000000004,0.013301598582629571,0.09250000000000004,0.0,0.6949085854559249,-2.5,2.5,0.1927516861694354,2.5,0.0
37,0.516095996753672,0.16922406749225266,0.010796082616637732,0.32900299854071746,0.056091727415079715,-0.09500000000000004,0.09500000000000004,0.013489133645551116,0.09500000000000004,0.0,0.6693454115006987,-2.5,2.5,0.18753506292154512,2.5,0.0
38,0.515421319033644,0.16969669772589074,0.010941912865885868,0.32965180305122493,0.05673650753648057,-0.09750000000000004,0.09750000000000004,0.013671650911157518,0.09750000000000004,0.0,0.6447801214008524,-2.5,2.5,0.1825172656064009,2.5,0.0
39,0.5147459659980107,0.17017107987584756,0.011084133119002977,0.3302997829382522,0.0573576794440187,-0.10000000000000005,0.10000000000000005,0.01384934086208261,0.10000000000000005,0.0,0.6211719075381299,-2.5,2.5,0.17768995092509213,2.5,0.0
40,0.5140699283076182,0.1706472098718243,0.011222880360281563,0.33094693414849113,0.05795616114079871,-0.10250000000000005,0.10250000000000005,0.014022386003179189,0.10250000000000005,0.0,0.5984816967800137,-2.5,2.5,0.17304514109657873,2.5,0.0
41,0.5133931974843238,0.17112508332818163,0.01135828622646447,0.3315932526367397,0.058532833215234774,-0.10500000000000005,0.10500000000000005,0.014190961210598752,0.10500000000000005,0.0,0.5766720744360607,-2.5,2.5,0.1685752074195627,2.5,0.0
42,0.5127157658470862,0.17160469558154007,0.011490477224637051,0.33223873436559626,0.0590885404268528,-0.10750000000000005,0.10750000000000005,0.014355234065182545,0.10750000000000005,0.0,0.5557072116180266,-2.5,2.5,0.16427285458379218,2.5,0.0
43,0.5120376264528886,0.17208604172491232,0.011619574940948063,0.3328833753051839,0.05962409322270397,-0.11000000000000006,0.11000000000000006,0.014515365170879367,0.11000000000000006,0.0,0.5355527958511681,-2.5,2.5,0.1601311056968227,2.5,0.0
44,0.5113587730421221,0.17256911663866356,0.01174569624054879,0.3335271714329037,0.060140269187494697,-0.11250000000000006,0.11250000000000006,0.014671508458873063,0.11250000000000006,0.0,0.5161759647907269,-2.5,2.5,0.15614328799369617,2.5,0.0
45,0.5106791999880865,0.17305391501856987,0.011868953459125017,0.33417011873321184,0.06063781443039851,-0.11500000000000006,0.11500000000000006,0.014823811478071523,0.11500000000000006,0.0,0.4975452429038105,-2.5,2.5,0.15230301919845965,2.5,0.0
46,0.5099989022502966,0.1735404314012232,0.011989454586379875,0.3348122131974205,0.061117444911381574,-0.11750000000000006,0.11750000000000006,0.014972415672579268,0.11750000000000006,0.0,0.4796304809830687,-2.5,2.5,0.1486041945077449,2.5,0.0
47,0.5093178753312947,0.17402866018701227,0.012107303441812274,0.3354534508235205,0.061579847709745894,-0.12000000000000006,0.12000000000000006,0.015117456646747282,0.12000000000000006,0.0,0.46240279836431997,-2.5,2.5,0.1450409741680149,2.5,0.0
48,0.5086361152367083,0.17451859566088618,0.012222599843119939,0.33609382761602224,0.06202568223747185,-0.12250000000000007,0.12250000000000007,0.015259064418366565,0.12250000000000007,0.0,0.44583452772596255,-2.5,2.5,0.14160777161928312,2.5,0.0
49,0.5079536184383017,0.17501023201109356,0.01233543976754323,0.33673333958581475,0.062455581399825294,-0.12500000000000006,0.12500000000000006,0.015397363660545926,0.12500000000000006,0.0,0.4298991623534394,-2.5,2.5,0.13829924217936163,2.5,0.0
50,0.507270381839792,0.17550356334607242,0.012445915506452254,0.3373719827500406,0.06287015270558242,-0.12750000000000006,0.12750000000000006,0.015532473932789769,0.12750000000000006,0.0,0.4145713057571294,-2.5,2.5,0.1351102722438425,2.5,0.0
51,0.5065864027452218,0.17599858370965143,0.01255411581346677,0.33800975313198534,0.06326997932911957,-0.13000000000000006,0.13000000000000006,0.015664509901767903,0.13000000000000006,0.0,0.39982662353714105,-2.5,2.5,0.132035968978133,2.5,0.0
52,0.505901678829692,0.17649528709470902,0.012660126046386434,0.3386466467609811,0.06365562112651273,-0.13250000000000006,0.13250000000000006,0.01579358155224684,0.13250000000000006,0.0,0.38564179739316407,-2.5,2.5,0.1290716504789369,2.5,0.0
53,0.5052162081122742,0.17699366745542863,0.012764028303196846,0.3392826596723211,0.06402761560769492,-0.13500000000000006,0.13500000000000006,0.015919794388630438,0.13500000000000006,0.0,0.37199448118218736,-2.5,2.5,0.1262128363835969,2.5,0.0
54,0.5045299889309425,0.1774937187182687,0.012865901552405662,0.33991778790718596,0.06438647886662613,-0.13750000000000007,0.13750000000000007,0.016043249627537146,0.13750000000000007,0.0,0.35886325893120485,-2.5,2.5,0.12345523890670888,2.5,0.0
55,0.503843019919365,0.17799543479176558,0.01296582175795177,0.3405520275125803,0.06473270647134248,-0.14000000000000007,0.14000000000000007,0.016164044381821476,0.14000000000000007,0.0,0.34622760471635106,-2.5,2.5,0.12079475428433147,2.5,0.0
56,0.5031552999854192,0.1784988095752704,0.013063861998920345,0.34118537454127773,0.06506677431566625,-0.14250000000000007,0.14250000000000007,0.016282271836428507,0.14250000000000007,0.0,0.3340678443237657,-2.5,2.5,0.11822745460703259,2.5,0.0
57,0.5024668282912986,0.1790038369667165,0.0131600925842866,0.34181782505177516,0.06538913943427774,-0.14500000000000007,0.14500000000000007,0.016398021416452385,0.14500000000000007,0.0,0.3223651186114882,-2.5,2.5,0.11574958002387763,2.5,0.0
58,0.5017776042350923,0.17951051086950354,0.01325458116290085,0.342449375108254,0.06570024078277302,-0.14750000000000008,0.14750000000000008,0.016511378947752654,0.14750000000000008,0.0,0.3111013484952796,-2.5,2.5,0.11335753130026938,2.5,0.0
59,0.501087627433725,0.18001882519857776,0.013347392828919113,0.3430800207805485,0.06600049998425778,-0.15000000000000008,0.15000000000000008,0.016622426810466006,0.15000000000000008,0.0,0.3002592014847534,-2.5,2.5,0.1110478627133505,2.5,0.0
60,0.5003968977071556,0.1805287738857839,0.013438590222873716,0.3437097581441206,0.06629032204395746,-0.15250000000000008,0.15250000000000008,0.01673124408573542,0.15250000000000008,0.0,0.28982205969968833,-2.5,2.5,0.10881727526941667,2.5,0.0
61,0.49970541506374083,0.18104035088455242,0.013528233628570762,0.3443385832800399,0.06657009603325688,-0.15500000000000008,0.15500000000000008,0.01683790669596395,0.15500000000000008,0.0,0.27977398929941355,-2.5,2.5,0.10666261022852738,2.5,0.0
62,0.4990131796866756,0.18155355017398517,0.013616381065992361,0.3449664922749694,0.06684019574451831,-0.15750000000000008,0.15750000000000008,0.01694248753888611,0.15750000000000008,0.0,0.27009971126143517,-2.5,2.5,0.10458084292215752,2.5,0.0
63,0.4983201919214294,0.18206836576239496,0.013703088380374418,0.34559348122115596,0.0671009803179665,-0.1600000000000001,0.1600000000000001,0.017045056615736517,0.1600000000000001,0.0,0.2607845734481984,-2.5,2.5,0.10256907685040804,2.5,0.0
64,0.4976264522641048,0.1825847916903508,0.013788409327622948,0.3462195462164244,0.06735279484187036,-0.1625000000000001,0.1625000000000001,0.01714568115378243,0.1625000000000001,0.0,0.25181452390385806,-2.5,2.5,0.10062453804591277,2.5,0.0
65,0.49693196135064954,0.18310282203327427,0.013872395656225032,0.3468446833641758,0.06759597092719578,-0.1650000000000001,0.1650000000000001,0.017244425723474604,0.1650000000000001,0.0,0.24317608532542279,-2.5,2.5,0.09874456969217363,2.5,0.0
66,0.4962367199468571,0.18362245090363205,0.013955097185803352,0.3474688887733895,0.06783082725785115,-0.1675000000000001,0.1675000000000001,0.017341352350459225,0.1675000000000001,0.0,0.2348563306553686,-2.5,2.5,0.09692662698462197,2.5,0.0
67,0.4955407289390986,0.18414367245276153,0.01403656188245734,0.348092158558628,0.06805767011759621,-0.1700000000000001,0.1700000000000001,0.017436520622682476,0.1700000000000001,0.0,0.22684285974506357,-2.5,2.5,0.09516827222325164,2.5,0.0
68,0.49484398932573187,0.18466648087236662,0.014116835931026844,0.34871448884004486,0.06827679389463705,-0.1725000000000001,0.1725000000000001,0.017529987792808663,0.1725000000000001,0.0,0.21912377704083275,-2.5,2.5,0.09346717012618574,2.5,0.0
69,0.49414650220913536,0.18519087039571636,0.014195963804409368,0.34933587574339453,0.06848848156488363,-0.1750000000000001,0.1750000000000001,0.017621808876162694,0.1750000000000001,0.0,0.2116876702465813,-2.5,2.5,0.09182108335403075,2.5,0.0
70,0.49344826878832326,0.18571683529857572,0.014273988330055373,0.3499563154000459,0.06869300515480269,-0.1775000000000001,0.1775000000000001,0.01771203674439804,0.1775000000000001,0.0,0.20452358991905317,-2.5,2.5,0.09022786823534511,2.5,0.0
71,0.49274929035209614,0.186244369899897,0.014350950753760899,0.35057580394699583,0.06889062618475655,-0.1800000000000001,0.1800000000000001,0.017800722215082037,0.1800000000000001,0.0,0.19762102995387165,-2.5,2.5,0.08868547068399582,2.5,0.0
72,0.49204956827269064,0.18677346856229404,0.014426890800871985,0.3511943375268871,0.06908159609367884,-0.1825000000000001,0.1825000000000001,0.01788791413738165,0.1825000000000001,0.0,0.19096990892228893,-2.5,2.5,0.08719192229961073,2.5,0.0
73,0.49134910399988857,0.18730412569232546,0.014501846735009746,0.35181191228802555,0.06926615664589941,-0.1850000000000001,0.1850000000000001,0.01797365947402438,0.1850000000000001,0.0,0.1845605522205691,-2.5,2.5,0.08574533664273373,2.5,0.0
74,0.4906478990555522,0.1878363357406061,0.014575855414420861,0.35242852438440025,0.06944454032089496,-0.1875000000000001,0.1875000000000001,0.018058003379701072,0.1875000000000001,0.0,0.1783836749955463,-2.5,2.5,0.08434390567668908,2.5,0.0
75,0.4899459550285572,0.18837009320176312,0.014648952346052964,0.35304416997570465,0.06961697068670662,-0.1900000000000001,0.1900000000000001,0.0181409892760696,0.1900000000000001,0.0,0.17243036581166216,-2.5,2.5,0.08298589636852857,2.5,0.0
76,0.48924327357008884,0.18890539261425882,0.014721171737450987,0.3536588452273589,0.0697836627577329,-0.19250000000000012,0.19250000000000012,0.018222658923511388,0.19250000000000012,0.0,0.16669207102628247,-2.5,2.5,0.08166964744178583,2.5,0.0
77,0.48853985638927994,0.18944222856009157,0.0147925465465653,0.3542725463105328,0.06994482333757462,-0.19500000000000012,0.19500000000000012,0.01830305248978549,0.19500000000000012,0.0,0.1611605798417206,-2.5,2.5,0.08039356627410232,2.5,0.0
78,0.4878357052491618,0.18998059566439143,0.014863108529559677,0.3548852694021701,0.07010065134757835,-0.19750000000000012,0.19750000000000012,0.01838220861571861,0.19750000000000012,0.0,0.1558280100037246,-2.5,2.5,0.07915612593311916,2.5,0.0
79,0.4871308219629081,0.19052048859492152,0.014932888286702257,0.35549701068501405,0.07025133814169603,-0.20000000000000012,0.20000000000000012,0.01846016447806293,0.20000000000000012,0.0,0.1506867941176675,-2.5,2.5,0.07795586234432297,2.5,0.0
80,0.4864252083903474,0.1910619020615,0.015001915306419769,0.3561077663476323,0.07039706780825095,-0.20250000000000012,0.20250000000000012,0.01853695584964776,0.20250000000000012,0.0,0.1457296665549217,-2.5,2.5,0.0767913715848274,2.5,0.0
81,0.48571886643472767,0.1916048308153492,0.01507021800759167,0.3567175325844444,0.07053801745917414,-0.20500000000000013,0.20500000000000013,0.018612617156945132,0.20500000000000013,0.0,0.14094965092318912,-2.5,2.5,0.07566130729737289,2.5,0.0
82,0.48501179803971156,0.19214926964838533,0.015137823780157229,0.3573263055957476,0.07067435750724987,-0.20750000000000013,0.20750000000000013,0.018687181535164184,0.20750000000000013,0.0,0.1363400480757373,-2.5,2.5,0.07456437821905203,2.5,0.0
83,0.4843040051865889,0.19269521339245474,0.015204759024105771,0.357934081587745,0.07080625193188554,-0.21000000000000013,0.21000000000000013,0.018760680880983746,0.21000000000000013,0.0,0.13189442463567014,-2.5,2.5,0.07349934581956244,2.5,0.0
84,0.48359548989168744,0.1932426569185264,0.015271049186917424,0.358540856772573,0.0709338585338979,-0.21250000000000013,0.21250000000000013,0.018833145903027756,0.21250000000000013,0.0,0.12760660201235696,-2.5,2.5,0.0724650220440111,2.5,0.0
85,0.48288625420396886,0.19379159513584754,0.01533671879951811,0.3591466273683299,0.07105732917978623,-0.21500000000000014,0.21500000000000014,0.01890460617018327,0.21500000000000014,0.0,0.12347064588833234,-2.5,2.5,0.07146026715551626,2.5,0.0
86,0.4821763002027978,0.19434202299106765,0.015401791510810565,0.3597513895991038,0.07117681003594202,-0.21750000000000014,0.21750000000000014,0.018975090157856363,0.21750000000000014,0.0,0.11948085615578696,-2.5,2.5,0.07048398767309086,2.5,0.0
87,0.4814656299958684,0.19489393546733877,0.01546629012084013,0.3603551396950016,0.0712924417932249,-0.22000000000000014,0.22000000000000014,0.019044625292256853,0.22000000000000014,0.0,0.115631757282884,-2.5,2.5,0.06953513440049125,2.5,0.0
88,0.480754245717281,0.19544732758339492,0.015530236612651575,0.36095787389217754,0.07140435988231579,-0.22250000000000014,0.22250000000000014,0.019113237992798765,0.22250000000000014,0.0,0.11191808909089618,-2.5,2.5,0.06861270054191293,2.5,0.0
89,0.4800421495257531,0.19600219439261798,0.015593652182890771,0.3615595884328627,0.07151269468023991,-0.22500000000000014,0.22500000000000014,0.019180953712699372,0.22500000000000014,0.0,0.10833479792412071,-2.5,2.5,0.06771571990060657,2.5,0.0
90,0.47932934360296137,0.19655853098209136,0.015656557271203003,0.36216027956539365,0.07161757170843519,-0.22750000000000015,0.22750000000000015,0.019247796977856044,0.22750000000000015,0.0,0.104877028195276,-2.5,2.5,0.06684326515667216,2.5,0.0
91,0.47861583015199693,0.19711633247164925,0.015718971588477057,0.36275994354424207,0.0717191118227251,-0.23000000000000015,0.23000000000000015,0.0193137914240765,0.23000000000000015,0.0,0.10154011428991083,-2.5,2.5,0.06599444622045568,2.5,0.0
92,0.4779016113959356,0.19767559401291918,0.01578091414398256,0.36335857663004345,0.07181743139553917,-0.23250000000000015,0.23250000000000015,0.019378959832734646,0.23250000000000015,0.0,0.09831957281406734,-2.5,2.5,0.06516840865814552,2.5,0.0
93,0.47718668957650484,0.1982363107883678,0.01584240327144561,0.3639561750896269,0.07191264249070936,-0.23500000000000015,0.23500000000000015,0.019443324164920953,0.23500000000000015,0.0,0.095211095170185,-2.5,2.5,0.06436433218630869,2.5,0.0
94,0.47647106695284885,0.198798478010346,0.015903456654106456,0.36455273519604425,0.07200485303115622,-0.23750000000000016,0.23750000000000016,0.01950690559415323,0.23750000000000016,0.0,0.09221054044685673,-2.5,2.5,0.06358142923227701,2.5,0.0
95,0.4757547458003797,0.19936209092014034,0.015964091348800172,0.365148253228599,0.07209416695976499,-0.24000000000000016,0.24000000000000016,0.019569724537710647,0.24000000000000016,0.0,0.08931392860876386,-2.5,2.5,0.06281894355741524,2.5,0.0
96,0.4750377284097095,0.199927144787031,0.016024323809100557,0.3657427254728761,0.07218068439373868,-0.24250000000000016,0.24250000000000016,0.019631800686651102,0.24250000000000016,0.0,0.0865174339736785,-2.5,2.5,0.062076148940453504,2.5,0.0
97,0.474320017085659,0.20049363490735814,0.01608416990756498,0.3663361482207704,0.07226450177270269,-0.24500000000000016,0.24500000000000016,0.019693153034569283,0.24500000000000016,0.0,0.08381737896400931,-2.5,2.5,0.06135234791818146,2.5,0.0
98,0.4736016141463365,0.20106155660359878,0.016143644957117037,0.36692851777051616,0.07234571200082368,-0.24750000000000016,0.24750000000000016,0.01975379990515024,0.24750000000000016,0.0,0.0812102281209941,-2.5,2.5,0.06064687058095668,2.5,0.0
99,0.47288252192228036,0.20163090522345548,0.016202763731601368,0.3675198304267163,0.07242440458319375,-0.25000000000000017,0.25000000000000017,0.01981375897857078,0.25000000000000017,0.0,0.07869258237006793,-2.5,2.5,0.059959073420541055,2.5,0.0
100,0.4721627427556635,0.20220167613895798,0.016261540485544682,0.36811008250037053,0.07250066575672032,-0.25250000000000017,0.25250000000000017,0.019873047316798738,0.25250000000000017,0.0,0.07626117352656614,-2.5,2.5,0.059288338227957565,2.5,0.0
101,0.471442278999554,0.2027738647455784,0.016319988973154606,0.3686992703089047,0.07257457861575162,-0.25500000000000017,0.25500000000000017,0.019931681387837855,0.25500000000000017,0.0,0.0739128590313003,-2.5,2.5,0.05863407103911604,2.5,0.0
102,0.4707211330172268,0.20334746646136234,0.016378122466587285,0.36928739017619916,0.07264622323265771,-0.2575000000000002,0.2575000000000002,0.019989677088963934,0.2575000000000002,0.0,0.07164461690609025,-2.5,2.5,0.05799570112608065,2.5,0.0
103,0.469999307181525,0.20392247672607455,0.016435953773513083,0.36987443843261786,0.07271567677357746,-0.2600000000000002,0.2600000000000002,0.020047049768995885,0.2600000000000002,0.0,0.06945354091974654,-2.5,2.5,0.057372680031949494,2.5,0.0
104,0.4692768038742653,0.20449889100036228,0.016493495254008533,0.3704604114150357,0.07278301360953285,-0.2625000000000002,0.2625000000000002,0.020103814249643283,0.2625000000000002,0.0,0.0673368359553903,-2.5,2.5,0.056764480647399335,2.5,0.0
105,0.468553625485686,0.20507670476493367,0.01655075883680156,0.3710453054668681,0.07284830542310333,-0.2650000000000002,0.2650000000000002,0.02015998484597033,0.2650000000000002,0.0,0.06529181357048319,-2.5,2.5,0.056170596327048836,2.5,0.0
106,0.4678297744139336,0.20565591351975557,0.01660775603489603,0.3716291169380979,0.07291162131084457,-0.2675000000000002,0.2675000000000002,0.020215575386014203,0.2675000000000002,0.0,0.06331588774123098,-2.5,2.5,0.055590540043871164,2.5,0.0
107,0.4671052530645848,0.20623651278326693,0.01666449796060003,0.3722118421853044,0.07297302788162803,-0.2700000000000002,0.2700000000000002,0.020270599229594163,0.2700000000000002,0.0,0.0614065707834599,-2.5,2.5,0.05502384357996035,2.5,0.0
108,0.4663800638502035,0.2068184980916115,0.016720995339982152,0.3727934775716903,0.07303258935107042,-0.2725000000000002,0.2725000000000002,0.02032506928634622,0.2725000000000002,0.0,0.05956146944238894,-2.5,2.5,0.05447005675205606,2.5,0.0
109,0.46565420918992695,0.20740186499788835,0.016777258526778076,0.37337401946711013,0.07309036763221448,-0.2750000000000002,0.2750000000000002,0.020378998033016488,0.2750000000000002,0.0,0.0577782811440577,-2.5,2.5,0.05392874667026995,2.5,0.0
110,0.46492769150908375,0.20798660907141892,0.016833297515769757,0.37395346424809717,0.07314642242261596,-0.2775000000000002,0.2775000000000002,0.020432397530045054,0.2775000000000002,0.0,0.0560547904014852,-2.5,2.5,0.05339949702856594,2.5,0.0
111,0.46420051323883504,0.20857272589703474,0.01688912195565772,0.37453180829789134,0.07320081128798493,-0.2800000000000002,0.2800000000000002,0.020485279437470628,0.2800000000000002,0.0,0.05438886536896881,-2.5,2.5,0.05288190742557276,2.5,0.0
112,0.4634726768158442,0.2091602110743814,0.016944741161446893,0.37510904800646605,0.07325358974252309,-0.2825000000000002,0.2825000000000002,0.020537655030185033,0.2825000000000002,0.0,0.0527784545381671,-2.5,2.5,0.05237559271440561,2.5,0.0
113,0.4627441846819672,0.2097490602172415,0.017000164126364976,0.3756851797705554,0.07330481132609305,-0.2850000000000002,0.2850000000000002,0.020589535212565246,0.2850000000000002,0.0,0.051221583569958096,-2.5,2.5,0.051880182380212164,2.5,0.0
114,0.46201503928396664,0.21033926895287436,0.017055399533331964,0.3762601999936815,0.07335452767834934,-0.2875000000000002,0.2875000000000002,0.020640930532509472,0.2875000000000002,0.0,0.04971635225628068,-2.5,2.5,0.051395319944225984,2.5,0.0
115,0.46128524307324376,0.210930832921376,0.017110455765998404,0.37683410508618026,0.07340278860995576,-0.2900000000000002,0.2900000000000002,0.020691851194902633,0.2900000000000002,0.0,0.04826093160642486,-2.5,2.5,0.050920662393161016,2.5,0.0
116,0.460554798505591,0.2115237477750536,0.017165340919369405,0.37740689146522893,0.07344964217100827,-0.2925000000000002,0.2925000000000002,0.020742307074535466,0.2925000000000002,0.0,0.046853561052503157,-2.5,2.5,0.050455879632831886,2.5,0.0
117,0.4598237080409606,0.21211800917782014,0.017220062810030662,0.37797855555487214,0.07349513471677734,-0.2950000000000002,0.2950000000000002,0.020792307728500412,0.2950000000000002,0.0,0.04549254576906847,-2.5,2.5,0.05000065396494785,2.5,0.0
118,0.4590919741432504,0.21271361280460435,0.01727462898599217,0.3785490937860483,0.07353931097087933,-0.2975000000000002,0.2975000000000002,0.020841862408086467,0.2975000000000002,0.0,0.04417625410199033,-2.5,2.5,0.04955467958605268,2.5,0.0
119,0.4583595992801026,0.2133105543407795,0.017329046736164373,0.37911850259661567,0.0735822140859814,-0.3000000000000002,0.3000000000000002,0.020890980070194118,0.3000000000000002,0.0,0.04290311510206024,-2.5,2.5,0.04911766210764999,2.5,0.0
120,0.4576265859227205,0.21390882948160572,0.01738332309948147,0.3796867784313783,0.07362388570214021,-0.3025000000000002,0.3025000000000002,0.02093966938829071,0.3025000000000002,0.0,0.041671616158815095,-2.5,2.5,0.048689318096591036,2.5,0.0
121,0.4568929365456926,0.21450843393169317,0.017437464873685273,0.38025391774211204,0.07366436600287064,-0.3050000000000002,0.3050000000000002,0.02098793876292554,0.3050000000000002,0.0,0.04048030073043796,-2.5,2.5,0.04826937463483068,2.5,0.0
122,0.45615865362683367,0.21510936340447734,0.01749147862378307,0.3808199169875903,0.07370369376903627,-0.3075000000000002,0.3075000000000002,0.021035796331823255,0.3075000000000002,0.0,0.03932776616562128,-2.5,2.5,0.047857568897715294,2.5,0.0
123,0.4554237396470343,0.2157116136217125,0.017545370690192224,0.38138477263360915,0.07374190643064986,-0.3100000000000002,0.3100000000000002,0.021083249979573258,0.3100000000000002,0.0,0.038212661613595156,-2.5,2.5,0.0474536477500016,2.5,0.0
124,0.45468819709012237,0.21631518031297906,0.017599147196583245,0.38194848115301316,0.07377904011666843,-0.3125000000000002,0.3125000000000002,0.021130307346932074,0.3125000000000002,0.0,0.03713368601856537,-2.5,2.5,0.04705736735881583,2.5,0.0
125,0.4539520284427318,0.21692005921520807,0.017652814057433703,0.3825110390257209,0.0738151297028635,-0.3150000000000002,0.3150000000000002,0.02117697583975492,0.3150000000000002,0.0,0.0360895861950703,-2.5,2.5,0.046668492822843154,2.5,0.0
126,0.45321523619418386,0.21752624607221843,0.017706376985303446,0.3830724427387491,0.07385020885784434,-0.3175000000000002,0.3175000000000002,0.021223262637571943,0.3175000000000002,0.0,0.03507915498083669,-2.5,2.5,0.04628679781702235,2.5,0.0
127,0.4524778228363736,0.2181337366342699,0.017759841497842464,0.3836326887862386,0.07388431008730825,-0.32000000000000023,0.32000000000000023,0.02126917470182403,0.32000000000000023,0.0,0.03410122946391825,-2.5,2.5,0.045912064252087895,2.5,0.0
128,0.45173979086366606,0.2187425266576302,0.01781321292454139,0.38419177366947876,0.07391746477658927,-0.32250000000000023,0.32250000000000023,0.021314718783772345,0.32250000000000023,0.0,0.033154689281015504,-2.5,2.5,0.0455440819483138,2.5,0.0
129,0.4510011427727984,0.21935261190415514,0.017866496413234515,0.3847496938969322,0.07394970323157327,-0.32500000000000023,0.32500000000000023,0.021359901432095183,0.32500000000000023,0.0,0.03223845498400335,-2.5,2.5,0.045182648322837055,2.5,0.0
130,0.4502618810627899,0.21996398814088314,0.017919696936365134,0.38530644598425945,0.0739810547180451,-0.32750000000000024,0.32750000000000024,0.021404729000185176,0.32750000000000024,0.0,0.031351486471840495,-2.5,2.5,0.04482756808999262,2.5,0.0
131,0.4495220082348577,0.2205766511396423,0.017972819297021922,0.3858620264543434,0.07401154749953023,-0.33000000000000024,0.33000000000000024,0.021449207653159257,0.33000000000000024,0.0,0.03049278148513679,-2.5,2.5,0.04447865297408006,2.5,0.0
132,0.44878152679233774,0.221190596676671,0.01802586813475554,0.38641643183731333,0.07404120887369102,-0.33250000000000024,0.33250000000000024,0.021493343374593302,0.33250000000000024,0.0,0.029661374160784515,-2.5,2.5,0.044135721434044276,2.5,0.0
133,0.44804043924061215,0.2218058205322496,0.018078847931183407,0.38696965867056987,0.0740700652073352,-0.33500000000000024,0.33500000000000024,0.021537141972992845,0.33500000000000024,0.0,0.028856333644173393,-2.5,2.5,0.04379859839954399,2.5,0.0
134,0.4472987480870411,0.22242231849034635,0.01813176301539123,0.38752170349880805,0.07409814197009178,-0.33750000000000024,0.33750000000000024,0.021580609088010773,0.33750000000000024,0.0,0.02807676275658233,-2.5,2.5,0.04346711501792781,2.5,0.0
135,0.4465564558408998,0.22304008633827266,0.01818461756913845,0.3880725628740419,0.07412546376680729,-0.34000000000000025,0.34000000000000025,0.021623750196422424,0.34000000000000025,0.0,0.027321796715515934,-2.5,2.5,0.04314110841165052,2.5,0.0
136,0.44581356501331826,0.22365911986635265,0.018237415631875736,0.38862223335562834,0.07415205436871304,-0.34250000000000025,0.34250000000000025,0.0216665706178681,0.34250000000000025,0.0,0.0265906019057498,-2.5,2.5,0.04282042144567577,2.5,0.0
137,0.4450700781172282,0.22427941486760097,0.018290161105580998,0.3891707115102902,0.07417793674341208,-0.34500000000000025,0.34500000000000025,0.021709075520372545,0.34500000000000025,0.0,0.025882374699034205,-2.5,2.5,0.04250490250444584,2.5,0.0
138,0.44432599766730946,0.22490096713741453,0.0183428577594213,0.3897179939121406,0.07420313308373254,-0.34750000000000025,0.34750000000000025,0.021751269925650553,0.34750000000000025,0.0,0.025196340320454702,-2.5,2.5,0.04219440527800922,2.5,0.0
139,0.4435813261799449,0.22552377247327118,0.018395509234246883,0.3902640771427061,0.07422766483549204,-0.35000000000000026,0.35000000000000026,0.02179315871420746,0.35000000000000026,0.0,0.02453175175950051,-2.5,2.5,0.04188878855690707,2.5,0.0
140,0.44283606617317345,0.22614782667444294,0.018448119046924102,0.3908089577909497,0.0742515527242161,-0.35250000000000026,0.35250000000000026,0.021834746630242922,0.35250000000000026,0.0,0.02388788872405989,-2.5,2.5,0.04158791603546057,2.5,0.0
141,0.4420902201666503,0.22677312554171541,0.01850069059451269,0.3913526324532949,0.07427481678085164,-0.35500000000000026,0.35500000000000026,0.021876038286366008,0.35500000000000026,0.0,0.02326405663553599,-2.5,2.5,0.04129165612308493,2.5,0.0
142,0.4413437906816075,0.2273996648771189,0.018553227158293873,0.3918950977336479,0.07429747636651508,-0.35750000000000026,0.35750000000000026,0.021917038168129312,0.35750000000000026,0.0,0.022659585663439064,-2.5,2.5,0.04099988176330603,2.5,0.0
143,0.4405967802408183,0.2280274404836686,0.018605731907654563,0.3924363502434214,0.07431955019631292,-0.36000000000000026,0.36000000000000026,0.02195775063838945,0.36000000000000026,0.0,0.02207382979783379,-2.5,2.5,0.04071247026013897,2.5,0.0
144,0.4398491913685629,0.22865644816511366,0.018658207903833032,0.39297638660155676,0.07434105636227101,-0.36250000000000027,0.36250000000000027,0.021998179941500978,0.36250000000000027,0.0,0.021506165958079748,-2.5,2.5,0.040429303111526,2.5,0.0
145,0.4391010265905977,0.22928668372569488,0.018710658103531518,0.39351520343454816,0.07436201235540743,-0.36500000000000027,0.36500000000000027,0.02203833020735051,0.36500000000000027,0.0,0.02095599313641916,-2.5,2.5,0.040150265849532324,2.5,0.0
146,0.4383522884341263,0.22991814296991164,0.018763085362400258,0.3940527973764632,0.07438243508698242,-0.36750000000000027,0.36750000000000027,0.02207820545523752,0.36750000000000027,0.0,0.020422731574984976,-2.5,2.5,0.03987524788701038,2.5,0.0
147,0.4376029794277709,0.23055082170229702,0.01881549243839839,0.3945891650689678,0.07440234090895728,-0.3700000000000003,0.3700000000000003,0.02211780959760799,0.3700000000000003,0.0,0.019905821974860682,-2.5,2.5,0.03960414237046946,2.5,0.0
148,0.4368531021015486,0.23118471572719992,0.018867881995035723,0.39512430316134695,0.07442174563369319,-0.3725000000000003,0.3725000000000003,0.022157146443646872,0.3725000000000003,0.0,0.019404724735908374,-2.5,2.5,0.03933684603888121,2.5,0.0
149,0.4361026589868462,0.23181982084857672,0.0189202566045001,0.395658208310528,0.07444066455291931,-0.3750000000000003,0.3750000000000003,0.022196219702735043,0.3750000000000003,0.0,0.018918919226120767,-2.5,2.5,0.03907325908817126,2.5,0.0
150,0.43535165261639885,0.23245613286978908,0.018972618750674526,0.396190877181103,0.07445911245599861,-0.3775000000000003,0.3775000000000003,0.022235032987776206,0.3775000000000003,0.0,0.018447903079302996,-2.5,2.5,0.038813285041164436,2.5,0.0
151,0.434600085524269,0.2330936475934099,0.019024970832048304,0.39672230644535045,0.07447710364751854,-0.3800000000000003,0.3800000000000003,0.022273589818398956,0.3800000000000003,0.0,0.01799119151993045,-2.5,2.5,0.038556830622751406,2.5,0.0
152,0.4338479602458268,0.23373236082103638,0.019077315164525675,0.39725249278325747,0.07449465196423265,-0.3825000000000003,0.3825000000000003,0.02231189362403901,0.3825000000000003,0.0,0.01754831671410395,-2.5,2.5,0.03830380564005321,2.5,0.0
153,0.43309527931773295,0.23437226835310881,0.01912965398413631,0.39778143288254275,0.0745117707913782,-0.3850000000000003,0.3850000000000003,0.022349947746906396,0.3850000000000003,0.0,0.01711882714556001,-2.5,2.5,0.03805412286738634,2.5,0.0
154,0.4323420452779206,0.2350133659887383,0.01918198944965092,0.3983091234386772,0.07452847307839389,-0.3875000000000003,0.3875000000000003,0.022387755444842214,0.3875000000000003,0.0,0.016702287015686768,-2.5,2.5,0.03780769793581728,2.5,0.0
155,0.43158826066558087,0.2356556495255381,0.01923432364510533,0.39883556115490615,0.07454477135406054,-0.3900000000000003,0.3900000000000003,0.02242531989406933,0.3900000000000003,0.0,0.016298275666656536,-2.5,2.5,0.037564449227116097,2.5,0.0
156,0.43083392802114684,0.23629911475946433,0.019286658582237038,0.3993607427422721,0.07456067774108721,-0.3925000000000003,0.3925000000000003,0.02246264419184127,0.3925000000000003,0.0,0.015906387026671354,-2.5,2.5,0.03732429777193806,2.5,0.0
157,0.4300790498862806,0.23694375748465987,0.019338996202836464,0.39988466491963526,0.07457620397016371,-0.3950000000000003,0.3950000000000003,0.022499731358993306,0.3950000000000003,0.0,0.015526229076501252,-2.5,2.5,0.037087167152035985,2.5,0.0
158,0.42932362880386016,0.23758957349330634,0.01939133838101721,0.4004073244136955,0.07459136139350013,-0.3975000000000003,0.3975000000000003,0.022536584342399666,0.3975000000000003,0.0,0.015157423336420894,-2.5,2.5,0.03685298340636063,2.5,0.0
159,0.42856766731796786,0.23823655857547976,0.019443686925407003,0.40092871795901386,0.0746061609978729,-0.4000000000000003,0.4000000000000003,0.02257320601734053,0.4000000000000003,0.0,0.014799604372770947,-2.5,2.5,0.03662167494086582,2.5,0.0
160,0.4278111679738781,0.23888470851901414,0.01949604358126343,0.40144884229803396,0.07462061341719622,-0.4025000000000003,0.4025000000000003,0.02260959918978241,0.4025000000000003,0.0,0.014452419323319976,-2.5,2.5,0.036393172441880534,2.5,0.0
161,0.42705413331804776,0.23953401910936803,0.019548410032516342,0.40196769418110356,0.07463472894463695,-0.4050000000000003,0.4050000000000003,0.0226457665985753,0.4050000000000003,0.0,0.014115527440723419,-2.5,2.5,0.03616740879289354,2.5,0.0
162,0.4262965658981061,0.24018448612949772,0.019600787903739883,0.4024852703664953,0.07464851754429028,-0.4075000000000003,0.4075000000000003,0.022681710917569913,0.4075000000000003,0.0,0.013788599653334455,-2.5,2.5,0.03594431899460997,2.5,0.0
163,0.4255384682628455,0.24083610535973476,0.019653178762056887,0.4030015676204286,0.07466198886243296,-0.4100000000000003,0.4100000000000003,0.02271743475765806,0.4100000000000003,0.0,0.013471318142686428,-2.5,2.5,0.03572384008814777,2.5,0.0
164,0.4247798429622133,0.2414888725776686,0.019705584118977746,0.40351658271708984,0.07467515223836994,-0.4125000000000003,0.4125000000000003,0.0227529406687393,0.4125000000000003,0.0,0.013163375936991795,-2.5,2.5,0.03550591108124142,2.5,0.0
165,0.42402069254730296,0.2421427835580339,0.019758005432176394,0.4040303124386545,0.07468801671488996,-0.4150000000000003,0.4150000000000003,0.02278823114161663,0.4150000000000003,0.0,0.012864476520020762,-2.5,2.5,0.035290472877331495,2.5,0.0
166,0.42326101957034745,0.24279783407260214,0.01981044410720547,0.4045427535753067,0.07470059104834473,-0.4175000000000003,0.4175000000000003,0.022823308609824056,0.4175000000000003,0.0,0.012574333454761,-2.5,2.5,0.035077468207424356,2.5,0.0
167,0.4225008265847121,0.24345401989007767,0.019862901499153165,0.40505390292526144,0.07471288371836599,-0.4200000000000003,0.4200000000000003,0.022858175451388657,0.4200000000000003,0.0,0.012292670021255336,-2.5,2.5,0.03486684156460229,2.5,0.0
168,0.4217401161448876,0.24411133677599864,0.019915378914243248,0.40556375729478444,0.07472490293723409,-0.4225000000000003,0.4225000000000003,0.022892833990529732,0.4225000000000003,0.0,0.012019218868101866,-2.5,2.5,0.03465853914107654,2.5,0.0
169,0.4209788908064849,0.24476978049264037,0.01996787761138122,0.40607231349821343,0.07473665665891112,-0.4250000000000003,0.4250000000000003,0.022927286499297424,0.4250000000000003,0.0,0.011753721677024931,-2.5,2.5,0.03445250876769146,2.5,0.0
170,0.4202171531262282,0.24542934679892528,0.02002039880364747,0.4065795683579781,0.07474815258775118,-0.4275000000000003,0.4275000000000003,0.02296153519915318,0.4275000000000003,0.0,0.011495928840064673,-2.5,2.5,0.03424869985575755,2.5,0.0
171,0.4194549056619518,0.24609003145033334,0.020072943659740366,0.40708551870462123,0.07475939818690001,-0.4300000000000003,0.4300000000000003,0.022995582262494325,0.4300000000000003,0.0,0.01124559914882961,-2.5,2.5,0.03404706334114231,2.5,0.0
172,0.4186921509725929,0.24675183019882002,0.020125513305370216,0.40759016137681914,0.07477040068639541,-0.43250000000000033,0.43250000000000033,0.023029429814124834,0.43250000000000033,0.0,0.011002499495403884,-2.5,2.5,0.033847551630509676,2.5,0.0
173,0.41792889161818864,0.24741473879273443,0.020178108824606352,0.408093493221402,0.07478116709097982,-0.43500000000000033,0.43500000000000033,0.023063079932674462,0.43500000000000033,0.0,0.01076640458440492,-2.5,2.5,0.033650118549628356,2.5,0.0
174,0.41716513015987206,0.24807875297674245,0.02023073126117887,0.4085955110933738,0.07479170418763559,-0.43750000000000033,0.43750000000000033,0.02309653465196813,0.43750000000000033,0.0,0.0105370966557774,-2.5,2.5,0.03345471929366685,2.5,0.0
175,0.4164008691598669,0.24874386849175426,0.020283381619736647,0.40909621185593303,0.07480201855285351,-0.44000000000000034,0.44000000000000034,0.023129795962347523,0.44000000000000034,0.0,0.010314365217919619,-2.5,2.5,0.03326131037939095,2.5,0.0
176,0.4156361111814857,0.2494100810748528,0.020336060867063042,0.40959559238049276,0.07481211655964422,-0.44250000000000034,0.44250000000000034,0.023162865811946706,0.44250000000000034,0.0,0.01009800679070505,-2.5,2.5,0.03306984959918332,2.5,0.0
177,0.41487085878912566,0.25007738645922695,0.02038876993325106,0.41009364954670113,0.07482200438430227,-0.44500000000000034,0.44500000000000034,0.02319574610792353,0.44500000000000034,0.0,0.009887824658056266,-2.5,2.5,0.03288029597682625,2.5,0.0
178,0.4141051145482658,0.2507457803741078,0.02044150971283921,0.4105903802424605,0.07483168801293194,-0.44750000000000034,0.44750000000000034,0.02322843871764849,0.44750000000000034,0.0,0.009683628629674201,-2.5,2.5,0.032692609724957994,2.5,0.0
179,0.4133388810254648,0.25141525854470675,0.02049428106590949,0.4110857813639481,0.07484117324774352,-0.45000000000000034,0.45000000000000034,0.02326094546985264,0.45000000000000034,0.0,0.009485234811578369,-2.5,2.5,0.032506752204150016,2.5,0.0
180,0.4125721607883578,0.25208581669215785,0.020547084819148752,0.411579849815636,0.07485046571312863,-0.45250000000000035,0.45250000000000035,0.02329326815573617,0.45250000000000035,0.0,0.009292465385112303,-2.5,2.5,0.032322685883529004,2.5,0.0
181,0.4118049564056551,0.25275745053346166,0.020599921766874953,0.41207258251031054,0.07485957086152274,-0.45500000000000035,0.45500000000000035,0.023325408530039064,0.45500000000000035,0.0,0.009105148394111584,-2.5,2.5,0.03214037430289419,2.5,0.0
182,0.41103727044714,0.2534301557814325,0.020652792672029376,0.41256397636909237,0.07486849397906262,-0.45750000000000035,0.45750000000000035,0.02335736831207532,0.45750000000000035,0.0,0.008923117539876957,-2.5,2.5,0.03195978203625671,2.5,0.0
183,0.41026910548366674,0.2541039281446484,0.020705698267135923,0.41305402832145605,0.07487724019104632,-0.46000000000000035,0.46000000000000035,0.023389149186732076,0.46000000000000035,0.0,0.008746211983696961,-2.5,2.5,0.03178087465675475,2.5,0.0
184,0.40950046408715973,0.2547787633274026,0.020758639255228868,0.4135427353052497,0.07488581446720291,-0.46250000000000036,0.46250000000000036,0.02342075280543496,0.46250000000000036,0.0,0.008574276156601446,-2.5,2.5,0.03160361870288439,2.5,0.0
185,0.40873134883061213,0.2554546570296587,0.020811616310749903,0.4140300942667146,0.074894221626779,-0.46500000000000036,0.46500000000000036,0.023452180787080956,0.46500000000000036,0.0,0.008407159576087286,-2.5,2.5,0.031427981645993766,2.5,0.0
186,0.4079617622880849,0.25613160494700715,0.020864630080415843,0.41451610216050505,0.07490246634344853,-0.46750000000000036,0.46750000000000036,0.02348343471893995,0.46750000000000036,0.0,0.008244716669539187,-2.5,2.5,0.03125393185899465,2.5,0.0
187,0.40719170703470564,0.25680960277062514,0.02091768118405776,0.4150007559497068,0.07491055315005261,-0.47000000000000036,0.47000000000000036,0.023514516157526186,0.47000000000000036,0.0,0.008086806604086227,-2.5,2.5,0.03108143858623686,2.5,0.0
188,0.406421185646669,0.2574886461872369,0.02097077021543258,0.4154840526058573,0.07491848644317528,-0.47250000000000036,0.47250000000000036,0.023545426629440692,0.47250000000000036,0.0,0.00793329312266855,-2.5,2.5,0.030910471914505435,2.5,0.0
189,0.405650200701236,0.25816873087907755,0.021023897743008318,0.41596598910896504,0.07492627048756133,-0.47500000000000037,0.47500000000000037,0.023576167632185785,0.47500000000000037,0.0,0.007784044386051514,-2.5,2.5,0.03074100274509168,2.5,0.0
190,0.4048787547767332,0.2588498525238593,0.0210770643107235,0.4164465624475282,0.07493390942038192,-0.47750000000000037,0.47750000000000037,0.023606740634952682,0.47750000000000037,0.0,0.007638932820592581,-2.5,2.5,0.030573002766898484,2.5,0.0
191,0.40410685045255423,0.2595320067947378,0.021130270438722062,0.41692576961855415,0.07494140725535342,-0.48000000000000037,0.48000000000000037,0.023637147079383223,0.48000000000000037,0.0,0.007497834971503803,-2.5,2.5,0.03040644443053949,2.5,0.0
192,0.403334490309159,0.26021518936028243,0.02118351662406419,0.41740360762757883,0.07494876788671485,-0.4825000000000004,0.4825000000000004,0.02366738838030661,0.4825000000000004,0.0,0.007360631361438941,-2.5,2.5,0.03024130092338886,2.5,0.0
193,0.4025616769280748,0.2608993958844472,0.02123680334141413,0.41788007348868494,0.07495599509306904,-0.4850000000000004,0.4850000000000004,0.02369746592645216,0.4850000000000004,0.0,0.007227206354188054,-2.5,2.5,0.030077546145548823,2.5,0.0
194,0.4017884128918965,0.2615846220265441,0.02129013104370602,0.41835516422452207,0.0749630925410923,-0.4875000000000004,0.4875000000000004,0.023727381081138862,0.4875000000000004,0.0,0.0070974480232735004,-2.5,2.5,0.029915154686701285,2.5,0.0
195,0.4010147007842887,0.26227086344121703,0.021343500162787705,0.41882887686632475,0.0749700637891176,-0.4900000000000004,0.4900000000000004,0.02375713518294266,0.4900000000000004,0.0,0.006971248025295029,-2.5,2.5,0.029754101803796833,2.5,0.0
196,0.40024054318998564,0.26295811577841927,0.021396911110044305,0.4193012084539317,0.0749769122905954,-0.4925000000000004,0.4925000000000004,0.023786729546342224,0.4925000000000004,0.0,0.006848501477811908,-2.5,2.5,0.029594363399565872,2.5,0.0
197,0.39946594269479263,0.2636463746833918,0.021450364277001338,0.4197721560358042,0.07498364139743702,-0.4950000000000004,0.4950000000000004,0.023816165462344028,0.4950000000000004,0.0,0.0067291068416142075,-2.5,2.5,0.029435916001803182,2.5,0.0
198,0.398690901885589,0.26433563579664143,0.02150386003590885,0.4202417166690456,0.07499025436324422,-0.4975000000000004,0.4975000000000004,0.023845444199087438,0.4975000000000004,0.0,0.00661296580720272,-2.5,2.5,0.029278736743411526,2.5,0.0
199,0.3979154233503285,0.26502589475392363,0.021557398740306405,0.42070988741941906,0.07499675434642956,-0.5000000000000003,0.5000000000000003,0.023874567002430597,0.5000000000000003,0.0,0.00649998318534184,-2.5,2.5,0.029122803343157394,2.5,0.0
200,0.3971395096780419,0.26571714718622425,0.021610980725570418,0.421176665361367,0.07500314441323107,-0.5025000000000003,0.5025000000000003,0.023903535096517724,0.5025000000000003,0.0,0.006390066801500227,-2.5,2.5,0.02896809408712931,2.5,0.0
201,0.396363163458839,0.2664093887197443,0.021664606309443783,0.4216420475780288,0.07500942754062515,-0.5050000000000002,0.5050000000000002,0.023932349684328582,0.5050000000000002,0.0,0.006283127394071775,-2.5,2.5,0.028814587810857446,2.5,0.0
202,0.3955863872839113,0.2671026149758847,0.021718275792548626,0.42210603116126,0.07501560661914135,-0.5075000000000002,0.5075000000000002,0.023961011948210657,0.5075000000000002,0.0,0.00617907851620747,-2.5,2.5,0.02866226388207605,2.5,0.0
203,0.39480918374553475,0.26779682157123386,0.021771989458883007,0.4225686132116504,0.07502168445558248,-0.5100000000000001,0.5100000000000001,0.02398952305039476,0.5100000000000001,0.0,0.00607783644112625,-2.5,2.5,0.02851110218410404,2.5,0.0
204,0.394031555437072,0.2684920041175553,0.021825747576301544,0.42302979083854236,0.07502766377565329,-0.5125000000000001,0.5125000000000001,0.024017884133494576,0.5125000000000001,0.0,0.005979320070800265,-2.5,2.5,0.028361083099814804,2.5,0.0
205,0.3932535049529764,0.2691881582217772,0.02187955039698103,0.423489561160049,0.07503354722650116,-0.515,0.515,0.024046096320990754,0.515,0.0,0.00588345084786579,-2.5,2.5,0.02821218749617938,2.5,0.0
206,0.3924750348887944,0.26988527948598323,0.021933398157871407,0.42394792130307285,0.07503933737917179,-0.5175,0.5175,0.024074160717700112,0.5175,0.0,0.0057901526706301,-2.5,2.5,0.02806439670935706,2.5,0.0
207,0.3916961478411702,0.27058336350740364,0.021987291081132263,0.4244048684033237,0.0750450367309829,-0.5199999999999999,0.5199999999999999,0.02410207841023042,0.5199999999999999,0.0,0.0056993518111041475,-2.5,2.5,0.027917692530311053,2.5,0.0
208,0.39091684640784813,0.27128240587840924,0.02204122937455588,0.42486039960533667,0.0750506477078188,-0.5224999999999999,0.5224999999999999,0.024129850467421356,0.5224999999999999,0.0,0.0056109768359018375,-2.5,2.5,0.027772057190933633,2.5,0.0
209,0.3901371331876781,0.27198240218650444,0.022095213231976833,0.42531451206249027,0.07505617266634873,-0.5249999999999998,0.5249999999999998,0.024157477940772012,0.5249999999999998,0.0,0.005524958529923074,-2.5,2.5,0.027627473350657836,2.5,0.0
210,0.38935701078061896,0.2726833480143228,0.02214924283366887,0.4257672029370246,0.07506161389617146,-0.5274999999999997,0.5274999999999997,0.024184961864855553,0.5274999999999997,0.0,0.0054412298227217715,-2.5,2.5,0.027483924083540376,2.5,0.0
211,0.38857648178774334,0.2733852389396229,0.022203318346729273,0.4262184694000591,0.0750669736218889,-0.5299999999999997,0.5299999999999997,0.024212303257721345,0.5299999999999997,0.0,0.0053597257174440305,-2.5,2.5,0.02734139286579254,2.5,0.0
212,0.3877955488112422,0.2740880705352862,0.022257439925451372,0.42666830863161015,0.07507225400511115,-0.5324999999999996,0.5324999999999996,0.024239503121285092,0.5324999999999996,0.0,0.005280383222262763,-2.5,2.5,0.027199863563748566,2.5,0.0
213,0.38701421445442974,0.27479183836931415,0.02231160771168528,0.42711671782060956,0.07507745714639535,-0.5349999999999996,0.5349999999999996,0.024266562441707343,0.5349999999999996,0.0,0.005203141284195523,-2.5,2.5,0.02705932042224935,2.5,0.0
214,0.38623248132174964,0.2754965380048274,0.022365821835187698,0.42756369416492157,0.07508258508712058,-0.5374999999999995,0.5374999999999995,0.024293482189760775,0.5374919003991999,0.0,0.005127940725227154,-2.5,2.5,0.026919748053432883,2.4919003992003237,0.0
215,0.38545058719023934,0.276201950123562,0.02242006933502268,0.4280091128670949,0.07508763963210519,-0.5399999999999995,0.5399999999999995,0.024320263476910273,0.5399728590644673,0.0,0.005054544984599785,-2.5,2.5,0.02678128714949956,2.480958665267458,0.0
216,0.38466861634387384,0.2769079958968722,0.02247434581010331,0.4284529265376783,0.0750926224722115,-0.5424999999999994,0.5424999999999994,0.024346907454711856,0.5424429560975718,0.0,0.004982840106313446,-2.5,2.5,0.02664397780158117,2.470097033104449,0.0
217,0.3838865680351481,0.277614674228302,0.02252865157777866,0.4288951314622245,0.0750975352520607,-0.5449999999999994,0.5449999999999994,0.024373415259039858,0.5449022708224752,0.0,0.004912779849191251,-2.5,2.5,0.026507804328002094,2.4593147249034994,0.0
218,0.3831044415345415,0.2783219839891486,0.022582986943490924,0.42933572395993375,0.07510237957143938,-0.5474999999999993,0.5474999999999993,0.024399788010397168,0.5473508817932001,0.0,0.004844319378675799,-2.5,2.5,0.026372751357310927,2.4486109707249204,0.0
219,0.3823222361305738,0.27902992401868376,0.022637352201050762,0.4297747003832149,0.07510715698665985,-0.5499999999999993,0.5499999999999993,0.02442602681421706,0.5497888668016299,0.0,0.004777415220473369,-2.5,2.5,0.026238803819888832,2.4379850084297403,0.0
220,0.38153995112985767,0.27973849312437604,0.02269174763290478,0.4302120571172525,0.07511186901187568,-0.5524999999999992,0.5524999999999992,0.024452132761156896,0.5522163028852421,0.0,0.004712025215828142,-2.5,2.5,0.02610594693983894,2.427436083612238,0.0
221,0.38075758585714703,0.2804476900821132,0.02274617351039575,0.43064779057958397,0.07511651712035403,-0.5549999999999992,0.5549999999999992,0.024478106927384044,0.5546332663347745,0.0,0.004648108478350288,-2.5,2.5,0.025974166227149216,2.416963449532297,0.0
222,0.3799751396553825,0.28115751363642527,0.022800630094015235,0.4310818972196845,0.07512110274570641,-0.5574999999999991,0.5574999999999991,0.024503950374854155,0.5570398327018222,0.0,0.004585625352376388,-2.5,2.5,0.025843447470112108,2.4065663670476978,0.0
223,0.37919261188573217,0.28186796250070895,0.02285511763364941,0.4315143735185607,0.07512562728307919,-0.559999999999999,0.559999999999999,0.024529664151582153,0.5594360768063686,0.0,0.004524537372775805,-2.5,2.5,0.02571377672799726,2.3962441045463923,0.0
224,0.3784100019276313,0.2825790353574499,0.022909636368817776,0.43194521598835134,0.07513009209030534,-0.562499999999999,0.562499999999999,0.024555249291906115,0.5618220727442474,0.0,0.00446480722615239,-2.5,2.5,0.025585140323962505,2.385995937878752,0.0
225,0.3776273091788166,0.2832907308584476,0.022964186528905584,0.4323744211719363,0.07513449848901875,-0.564999999999999,0.564999999999999,0.024580706816744315,0.5641978938945373,0.0,0.004406398713405313,-2.5,2.5,0.02545752483820049,2.375821150289837,0.0
226,0.37684453305535814,0.28400304762503986,0.023018768333389474,0.43280198564255423,0.07513884776573235,-0.5674999999999989,0.5674999999999989,0.024606037733845617,0.5665636129268891,0.0,0.004349276713596639,-2.5,2.5,0.02533091710130288,2.365719032351703,0.0
227,0.3760616729916904,0.2847159842483255,0.023073381992057253,0.43322790600342587,0.07514314117288139,-0.5699999999999988,0.5699999999999988,0.024631243038033462,0.5689193018087849,0.0,0.0042934071490454695,-2.5,2.5,0.02520530418784627,2.3556888818958113,0.0
228,0.3752787284406375,0.28542953928938974,0.023128027705221363,0.4336521788873868,0.07514737992983304,-0.5724999999999988,0.5724999999999988,0.02465632371144364,0.5712650318127305,0.0,0.004238756951657763,-2.5,2.5,0.025080673410179093,2.3457300039455147,0.0
229,0.37449569887343825,0.28614371127952726,0.02318270566392671,0.43407480095652523,0.07515156522386345,-0.5749999999999987,0.5749999999999987,0.02468128072375605,0.5736008735233792,0.0,0.00418529403040746,-2.5,2.5,0.02495701231241137,2.335841710648697,0.0
230,0.37371258377976824,0.286858498720466,0.02323741605015275,0.4344957689018297,0.07515569821110336,-0.5774999999999987,0.5774999999999987,0.024706115032420647,0.5759268968445898,0.0,0.004132987239925168,-2.5,2.5,0.02483430866459509,2.326023321210531,0.0
231,0.37292938266775794,0.2875739000845918,0.023292159037010166,0.4349150794428414,0.07515978001745356,-0.5799999999999986,0.5799999999999986,0.024730827582877736,0.5782431710064162,0.0,0.0040818063501939505,-2.5,2.5,0.02471255045708788,2.316274161826423,0.0
232,0.3721460950640124,0.28828991381516933,0.02334693478893214,0.43533272932731404,0.07516381173947081,-0.5824999999999986,0.5824999999999986,0.024755419308772834,0.5805497645720314,0.0,0.004031722017252326,-2.5,2.5,0.02459172589509916,2.3065935656151995,0.0
233,0.37136272051362457,0.2890065383265668,0.023401743461860604,0.4357487153308813,0.07516779444522574,-0.5849999999999985,0.5849999999999985,0.024779891132166238,0.5828467454445838,0.0,0.003982705754922433,-2.5,2.5,0.024471823393401957,2.296980872552423,0.0
234,0.3705792585801897,0.28972377200447746,0.023456585203427405,0.43616303425672975,0.07517172917513325,-0.5874999999999985,0.5874999999999985,0.024804243963737455,0.5851341808739878,0.0,0.003934729907502765,-2.5,2.5,0.024352831571215084,2.2874354294039856,0.0
235,0.36979570884581675,0.29044161320614165,0.02351146015313076,0.4365756829352787,0.07517561694275662,-0.5899999999999984,0.5899999999999984,0.024828478702984696,0.5874121374636478,0.0,0.0038877676233721736,-2.5,2.5,0.024234739247240806,2.277956589660006,0.0
236,0.3690120709111383,0.2911600602605676,0.02356636844250684,0.4369866582238673,0.07517945873558614,-0.5924999999999984,0.5924999999999984,0.024852596238419556,0.5896806811771167,0.0,0.003841792829516688,-2.5,2.5,0.024117535434858634,2.268543713468877,0.0
237,0.3682283443953188,0.2918791114687531,0.023621310195297035,0.43739595700644546,0.07518325551579304,-0.5949999999999983,0.5949999999999983,0.024876597447757023,0.5919398773446884,0.0,0.0037967802069043266,-2.5,2.5,0.024001209337465912,2.25919616757173,0.0
238,0.3674445289360612,0.29259876510390476,0.023676285527610662,0.4378035761932738,0.07518700822095974,-0.5974999999999983,0.5974999999999983,0.024900483198100985,0.5941897906699255,0.0,0.0037527051666990108,-2.5,2.5,0.02388575034396058,2.2499133252370984,0.0
239,0.3666606241896129,0.29331901941165756,0.023731294548083495,0.4382095127206274,0.07519071776478702,-0.5999999999999982,0.5999999999999982,0.024924254346125347,0.5964304852361214,0.0,0.003709543827277839,-2.5,2.5,0.02377114802436355,2.2406945661959634,0.0
240,0.3658766298307697,0.2940398726102935,0.023786337358032032,0.43861376355050674,0.07519438503777905,-0.6024999999999981,0.6024999999999981,0.02494791173825092,0.5986620245126985,0.0,0.0036672729920241842,-2.5,2.5,0.02365739212557002,2.2315392765770867,0.0
241,0.36509254555287785,0.2947613228909599,0.02384141405160394,0.43901632567035354,0.07519801090790691,-0.6049999999999981,0.6049999999999981,0.02497145621081815,0.6008844713615412,0.0,0.003625870127865971,-2.5,2.5,0.023544472567232397,2.222446848842717,0.0
242,0.3643083710678374,0.29548336841788586,0.02389652471592442,0.43941719609277274,0.07520159622125144,-0.607499999999998,0.607499999999998,0.024994888590255917,0.6030978880432658,0.0,0.0035853133445380436,-2.5,2.5,0.023432379437765063,2.213416681724621,0.0
243,0.36352410610610225,0.2962060073285984,0.0239516694312389,0.43981637185525985,0.07520514180262598,-0.609999999999998,0.609999999999998,0.025018209693246387,0.6053023362234263,0.0,0.003545581374536644,-2.5,2.5,0.023321102990468603,2.2044481801605227,0.0
244,0.36273975041667916,0.2969292377341394,0.024006848271052088,0.4402138500199339,0.07520864845617974,-0.6124999999999979,0.6124999999999979,0.025041420326886155,0.6074978769786572,0.0,0.003506653553746464,-2.5,2.5,0.023210633639766637,2.195540755230867,0.0
245,0.3619553037671283,0.2976530577192779,0.024062061302263318,0.4406096276732754,0.07521211696598244,-0.6149999999999979,0.6149999999999979,0.025064521288843712,0.6096845708027532,0.0,0.0034685098027096295,-2.5,2.5,0.02310096195755676,2.186693824096012,0.0
246,0.36117076594356096,0.298377465342725,0.024117308585298626,0.4410037019258696,0.07521554809659096,-0.6174999999999978,0.6174999999999978,0.02508751336751338,0.611862477612687,0.0,0.0034311306085268445,-2.5,2.5,0.02299207866966711,2.177906809933804,0.0
247,0.36038613675063685,0.29910245863734597,0.024172590174239363,0.4413960699121553,0.07521894259359832,-0.6199999999999978,0.6199999999999978,0.025110397342165795,0.6140316567545645,0.0,0.0033944970073505054,-2.5,2.5,0.02288397465241549,2.1691791418775472,0.0
248,0.3596014160115617,0.29982803561037186,0.024227906116947688,0.44178672879017816,0.07522230118416579,-0.6224999999999977,0.6224999999999977,0.025133173983095065,0.616192167009519,0.0,0.0033585905674609062,-2.5,2.5,0.022776640929268434,2.1605102549543957,0.0
249,0.3588166035680828,0.3005541942436105,0.02428325645518867,0.44217567574134925,0.0752256245775387,-0.6249999999999977,0.6249999999999977,0.025155844051762664,0.6183440665995431,0.0,0.003323393372917316,-2.5,2.5,0.022670068667597475,2.1518995900241693,0.0
250,0.3580316992804866,0.3012809324936553,0.024338641224749605,0.44256290797020764,0.07522891346554642,-0.6274999999999976,0.6274999999999976,0.02517840830093819,0.6204874131932617,0.0,0.003288888007715096,-2.5,2.5,0.022564249175527018,2.1433465937185905,0.0
251,0.35724670302759315,0.30200824829209394,0.024394060455556164,0.4429484227041896,0.07523216852308692,-0.6299999999999976,0.6299999999999976,0.025200867474837064,0.6226222639116427,0.0,0.003255057540503259,-2.5,2.5,0.02245917389887257,2.1348507183809646,0.0
252,0.35646161470675214,0.302736139545716,0.024449514171785747,0.44333221719339994,0.0752353904085967,-0.6324999999999975,0.6324999999999975,0.02522322230925523,0.624748675333649,0.0,0.003221885509780531,-2.5,2.5,0.022354834418165492,2.126411422006275,0.0
253,0.3556764342338372,0.3034646041367196,0.024505002391978135,0.44371428871039004,0.07523857976450628,-0.6349999999999975,0.6349999999999975,0.025245473531700993,0.6268667035018307,0.0,0.0031893559095823587,-2.5,2.5,0.022251222445762973,2.118028168181757,0.0
254,0.3548911615432429,0.30419363992291504,0.024560525129142995,0.4440946345499388,0.07524173721768192,-0.6374999999999974,0.6374999999999974,0.025267621861524026,0.6289764039278586,0.0,0.0031574531756421997,-2.5,2.5,0.022148329823033983,2.109700426027901,0.0
255,0.35410579658787716,0.3049232447379308,0.024616082390865476,0.44447325202883936,0.07524486337985391,-0.6399999999999973,0.6399999999999973,0.025289668010041656,0.6310778315979985,0.0,0.003126162171993796,-2.5,2.5,0.022046148517631307,2.1014276701399126,0.0
256,0.353320339339158,0.3056534163914149,0.024671674179408448,0.4448501384856884,0.07524795884803194,-0.6424999999999973,0.6424999999999973,0.02531161268066249,0.6331710409785282,0.0,0.003095468178026639,-2.5,2.5,0.021944670620831386,2.093209380529649,0.0
257,0.35253478978700825,0.306384152669237,0.024727300491812907,0.44522529128068156,0.07525102420490788,-0.6449999999999972,0.6449999999999972,0.025333456569007443,0.6352560860210962,0.0,0.003065356875943337,-2.5,2.5,0.02184388834495218,2.0850450425679843,0.0
258,0.3517491479398496,0.3071154513336895,0.02478296131999541,0.44559870779541144,0.07525406001924652,-0.6474999999999972,0.6474999999999972,0.025355200363028282,0.6373330201680238,0.0,0.0030358143386433056,-2.5,2.5,0.02174379402083893,2.0769341469276763,0.0
259,0.3509634138245992,0.3078473101236858,0.02483865665084368,0.4459703854326703,0.0752570668462645,-0.6499999999999971,0.6499999999999971,0.025376844743123704,0.6394018963575505,0.0,0.0030068270179848255,-2.5,2.5,0.02164438009542024,2.0688761895266716,0.0
260,0.350177587486664,0.3085797267549595,0.02489438646630957,0.4463403216162564,0.07526004522799792,-0.6524999999999971,0.6524999999999971,0.025398390382253035,0.6414627670290225,0.0,0.0029783817334296803,-2.5,2.5,0.021545639129329656,2.0608706714719287,0.0
261,0.349391668989937,0.3093126989202604,0.02495015074349977,0.44670851379078524,0.07526299569365899,-0.654999999999997,0.654999999999997,0.025419837946047623,0.6435156841280262,0.0,0.002950465661064161,-2.5,2.5,0.02144756379458746,2.052917099003645,0.0
262,0.3486056584167935,0.3100462242895507,0.02500594945476483,0.4470749594215025,0.07526591875998194,-0.657499999999997,0.657499999999997,0.025441188092919974,0.6455606991114662,0.0,0.0029230663229529164,-2.5,2.5,0.021350146872351893,2.045014983440033,0.0
263,0.34781955586808677,0.31078030051019945,0.02506178256778535,0.44743965599410324,0.0752688149315588,-0.6599999999999969,0.6599999999999969,0.025462441474170695,0.6475978629525887,0.0,0.002896171576866058,-2.5,2.5,0.02125338125072128,2.037163841122514,0.0
264,0.3470333614631462,0.31151492520717494,0.025117650045656893,0.44780260101455277,0.0752716847011651,-0.6624999999999969,0.6624999999999969,0.025483598734093296,0.6496272261459501,0.0,0.002869769606298034,-2.5,2.5,0.021157259922601528,2.029363193361435,0.0
265,0.3462470753397732,0.31225009598323794,0.02517355184697237,0.44816379200891204,0.07527452855007594,-0.6649999999999968,0.6649999999999968,0.02550466051007692,0.6516488387123324,0.0,0.002843848910836666,-2.5,2.5,0.0210617759836246,2.021612566382245,0.0
266,0.3454606976542404,0.3129858104191315,0.02522948792590281,0.44852322652316634,0.07527734694837275,-0.6674999999999968,0.6674999999999968,0.025525627432707042,0.6536627502036045,0.0,0.0028183982968204013,-2.5,2.5,0.020966922630124053,2.013911491272145,0.0
267,0.3446742285812896,0.31372206607377034,0.02528545823227596,0.4488809021230574,0.07528014035524107,-0.6699999999999967,0.6699999999999967,0.0255465001258642,0.6556690097075317,0.0,0.002793406868311532,-2.5,2.5,0.020872693157159,2.0062595039272435,0.0
268,0.3438876683141313,0.3144588604844294,0.025341462711653502,0.4492368163939186,0.0752829092192594,-0.6724999999999967,0.6724999999999967,0.0255672792068208,0.6576676658525319,0.0,0.00276886401833365,-2.5,2.5,0.020779080956595915,1.998656145000172,0.0
269,0.343101017064444,0.31519619116693076,0.025397501305406092,0.4495909669405147,0.0752856539786798,-0.6749999999999966,0.6749999999999966,0.025587965286336032,0.6596587668123801,0.0,0.0027447594204055292,-2.5,2.5,0.020686079515232235,1.9911009598481741,0.0
270,0.3423142750623755,0.31593405561582893,0.02545357395078688,0.44994335138688246,0.07528837506170014,-0.6774999999999965,0.6774999999999965,0.025608558968749,0.6616423603108619,0.0,0.002721083020333692,-2.5,2.5,0.02059368241297059,1.9835934984817358,0.0
271,0.3415274425565442,0.3166724513045952,0.025509680581003256,0.45029396737617733,0.07529107288672841,-0.6799999999999965,0.6799999999999965,0.02562906085207004,0.6636184936263755,0.0,0.002697825028272316,-2.5,2.5,0.020501883321041033,1.9761333155135905,0.0
272,0.34074051981404113,0.31741137568580124,0.025565821125287214,0.45064281257052047,0.07529374786263943,-0.6824999999999964,0.6824999999999964,0.025649471528070306,0.6655872135964838,0.0,0.0026749759110187288,-2.5,2.5,0.020410676000264718,1.968719970108326,0.0
273,0.3399535071204334,0.31815082619130036,0.02562199550896369,0.45098988465085094,0.07529640038902399,-0.6849999999999964,0.6849999999999964,0.025669791582369667,0.6675485666224161,0.0,0.0026525263845718072,-2.5,2.5,0.020320054299362067,1.9613530259323713,0.0
274,0.3391664047797684,0.31889080023240796,0.025678203653517865,0.4513351813167798,0.0752990308564309,-0.6874999999999963,0.6874999999999963,0.025690021594522973,0.6695025986735207,0.0,0.0026304674069015377,-2.5,2.5,0.020230012153304167,1.9540320511045224,0.0
275,0.33837921311457836,0.31963129520008143,0.02573444547666054,0.45167870028644735,0.07530163964660186,-0.6899999999999963,0.6899999999999963,0.025710162138104675,0.6714493552916676,0.0,0.002608790170962827,-2.5,2.5,0.02014054358170148,1.9467566181469174,0.0
276,0.3375919324658873,0.32037230846509734,0.02579072089239238,0.4520204392963833,0.07530422713269978,-0.6924999999999962,0.6924999999999962,0.025730213780791912,0.6733888815956041,0.0,0.0025874860979226977,-2.5,2.5,0.020051642687237185,1.9395263039364998,0.0
277,0.33680456319321755,0.3211138373782286,0.025847029811066496,0.4523603961013699,0.07530679367953037,-0.6949999999999962,0.6949999999999962,0.025750177084446046,0.675321222285261,0.0,0.0025665468305904326,-2.5,2.5,0.019963303654132743,1.9323406896569475,0.0
278,0.33601710567459814,0.3218558792704198,0.025903372139449828,0.4526985684743071,0.07530933964375744,-0.6974999999999961,0.6974999999999961,0.025770052605192703,0.6772464216460121,0.0,0.002545964227067099,-2.5,2.5,0.01987552074665498,1.9251993607510915,0.0
279,0.33522956030657497,0.3225984314529609,0.025959747780783003,0.4530349542060818,0.07531186537411201,-0.6999999999999961,0.6999999999999961,0.02578984089350036,0.6791645235528859,0.0,0.002525730354575151,-2.5,2.5,0.019788288307656745,1.9181019068737877,0.0
280,0.33444192750422,0.3233414912176611,0.02601615663483917,0.4533695511054383,0.07531437121159551,-0.702499999999996,0.702499999999996,0.02580954249425751,0.6810755714747312,0.0,0.002505837483494311,-2.5,2.5,0.019701600757153402,1.911047921845264,0.0
281,0.3336542077011447,0.32408505583701924,0.026072598597981236,0.4537023569988522,0.07531685748967708,-0.704999999999996,0.704999999999996,0.025829157946848445,0.6829796084783362,0.0,0.00248627808157309,-2.5,2.5,0.01961545259093359,1.9040370036049363,0.0
282,0.33286640134951173,0.3248291225643954,0.026129073563218017,0.4540333697304063,0.07531932453448541,-0.7074999999999959,0.7074999999999959,0.025848687785227645,0.6848766772325019,0.0,0.0024670448083254914,-2.5,2.5,0.0195298383792005,1.8970687541657014,0.0
283,0.3320785089200512,0.32557368863417807,0.0261855814202593,0.4543625871616697,0.075321772664995,-0.7099999999999959,0.7099999999999959,0.025868132537992895,0.6867668200120706,0.0,0.0024481305095849226,-2.5,2.5,0.01944475276524863,1.8901427795686738,0.0
284,0.3312905309020741,0.3263187512619547,0.026242122055569448,0.45469000717157887,0.07532420219320725,-0.7124999999999958,0.7124999999999958,0.02588749272845706,0.688650078701909,0.0,0.0024295282122539508,-2.5,2.5,0.01936019046416633,1.883258689838377,0.0
285,0.3305024678034921,0.32706430764467515,0.026298695352420173,0.4550156276563211,0.07532661342432644,-0.7149999999999958,0.7149999999999958,0.025906768874718634,0.6905264948008474,0.0,0.002411231119182178,-2.5,2.5,0.01927614626157443,1.8764160989384342,0.0
286,0.3297143201508339,0.3278103549608197,0.02635530119094195,0.45533944652921987,0.07532900665693067,-0.7174999999999957,0.7174999999999957,0.025925961489731024,0.6923961094255751,0.0,0.0023932326042250818,-2.5,2.5,0.01919261501238935,1.8696146247276748,0.0
287,0.3289260884892666,0.32855689037056157,0.026411939448174455,0.455661461720624,0.0753313821831381,-0.7199999999999956,0.7199999999999956,0.02594507108137064,0.6942589633144918,0.0,0.0023755262074434125,-2.5,2.5,0.019109591639615328,1.8628538889166995,0.0
288,0.3281377733826172,0.3293039110159299,0.02646860999811599,0.4559816711777974,0.07533374028876855,-0.7224999999999956,0.7224999999999956,0.025964098152503806,0.6961150968315167,0.0,0.002358105630445584,-2.5,2.5,0.019027071133165895,1.8561335170249182,0.0
289,0.32734937541339554,0.33005141402097155,0.026525312711771776,0.45630007286481183,0.07533608125350043,-0.7249999999999955,0.7249999999999955,0.025983043201052516,0.6979645499698548,0.0,0.0023409647318846094,-2.5,2.5,0.018945048548711173,1.8494531383380135,0.0
290,0.3265608951828186,0.330799396491912,0.026582047457201306,0.45661666476244167,0.0753384053510235,-0.7274999999999955,0.7274999999999955,0.026001906720059063,0.6998073623557206,0.0,0.002324097523077606,-2.5,2.5,0.018863519006548302,1.842812385865861,0.0
291,0.32577233331083816,0.33154785551731303,0.0266388140995647,0.4569314448680611,0.07534071284918727,-0.7299999999999954,0.7299999999999954,0.026020689197749566,0.7016435732520214,0.0,0.002307498163764521,-2.5,2.5,0.01878247769050336,1.8362108963008708,0.0
292,0.32498369043616704,0.33229678816823216,0.026695612501168094,0.4572444111955427,0.07534300401014526,-0.7324999999999954,0.7324999999999954,0.026039391117596414,0.7034732215619982,0.0,0.00229116095799764,-2.5,2.5,0.01870191984684895,1.8296483099768044,0.0
293,0.3241949672163104,0.33304619149837844,0.026752442521508227,0.45755556177515866,0.0753452790904954,-0.7349999999999953,0.7349999999999953,0.02605801295837967,0.7052963458328262,0.0,0.0022750803501432326,-2.5,2.5,0.01862184078325501,1.8231242708280044,0.0
294,0.32340616432759617,0.33379606254426814,0.026809304017315894,0.45786489465348384,0.07534753834141643,-0.7374999999999953,0.7374999999999953,0.026076555194247425,0.7071129842591752,0.0,0.0022592509210224154,-2.5,2.5,0.0185422358677559,1.8166384263490467,0.0
295,0.3226172824652086,0.3345463983253792,0.026866196842598698,0.4581724078933008,0.07534978200880058,-0.7399999999999952,0.7399999999999952,0.026095018294775167,0.70892317468673,0.0,0.002243667384151493,-2.5,2.5,0.01846310052774139,1.8101904275548362,0.0
296,0.32182832234322367,0.33529719584430384,0.026923120848682924,0.45847809957350644,0.07535201033338267,-0.7424999999999952,0.7424999999999952,0.02611340272502414,0.7107269546156711,0.0,0.002228324582095098,-2.5,2.5,0.018384430248972523,1.8037799289411394,0.0
297,0.32103928469464504,0.33604845208690126,0.026980075884254537,0.4587819677890208,0.07535422355086561,-0.7449999999999951,0.7449999999999951,0.026131708945598752,0.7125243612041167,0.0,0.0022132174829434526,-2.5,2.5,0.018306220574614618,1.7974065884455195,0.0
298,0.320250170271444,0.33680016402244745,0.027037061795399272,0.45908401065069804,0.07535642189204249,-0.7474999999999951,0.7474999999999951,0.026149937412703047,0.7143154312715254,0.0,0.002198341176879559,-2.5,2.5,0.01822846710429315,1.7910700674087021,0.0
299,0.3194609798445985,0.33755232860378576,0.027094078425642203,0.45938422628523845,0.07535860558291534,-0.749999999999995,0.749999999999995,0.026168088578196216,0.7161002013020618,0.0,0.00218369087285164,-2.5,2.5,0.018151165493169537,1.7847700305363539,0.0
300,0.3186717142041377,0.33830494276747414,0.027151125615986187,0.4596826128351029,0.07536077484481069,-0.752499999999995,0.752499999999995,0.02618616288964725,0.717878707447923,0.0,0.0021692618953523812,-2.5,2.5,0.018074311451036315,1.7785061458612659,0.0
301,0.3178823741591852,0.33905800343393333,0.027208203204949852,0.4599791684584284,0.07536292989449196,-0.7549999999999949,0.7549999999999949,0.026204160790388682,0.719650985532629,0.0,0.002155049681280108,-2.5,2.5,0.01799790074143089,1.7722780847059714,0.0
302,0.3170929605380062,0.33981150750759237,0.02726531102860466,0.4602738913289459,0.07536507094426886,-0.7574999999999948,0.7574999999999948,0.02622208271956945,0.7214170710542748,0.0,0.0021410497769083214,-2.5,2.5,0.017921929180768615,1.7660855216457576,0.0
303,0.3163034741880564,0.3405654518770336,0.027322448920611368,0.46056677963589965,0.07536719820210379,-0.7599999999999948,0.7599999999999948,0.026239929112206944,0.7231769991887468,0.0,0.002127257834924512,-2.5,2.5,0.017846392637492686,1.7599281344720437,0.0
304,0.31551391597603196,0.34131983341513716,0.02737961671225565,0.4608578315839679,0.07536931187171537,-0.7624999999999947,0.7624999999999947,0.026257700399238186,0.7249308047929031,0.0,0.0021136696115837683,-2.5,2.5,0.017771287031243144,1.7538056041562347,0.0
305,0.31472428678792397,0.34207464897922235,0.02743681423248321,0.46114704539318563,0.07537141215267928,-0.7649999999999947,0.7649999999999947,0.026275397007570228,0.7266785224077169,0.0,0.0021002809639152353,-2.5,2.5,0.017696608332041574,1.7477176148138915,0.0
306,0.3139345875290721,0.3428298954111905,0.027494041307934047,0.4614344192988681,0.07537349924052632,-0.7674999999999946,0.7674999999999946,0.026293019360129722,0.7284201862613863,0.0,0.0020870878470331533,-2.5,2.5,0.017622352559492693,1.7416638536693634,0.0
307,0.3131448191242228,0.3435855695376647,0.02755129776297623,0.46171995155153694,0.07537557332683784,-0.7699999999999946,0.7699999999999946,0.026310567875911725,0.730155830272407,0.0,0.002074086311518286,-2.5,2.5,0.01754851578200325,1.7356440110207347,0.0
308,0.31235498251758914,0.344341668170129,0.02760858341973892,0.462003640416847,0.0753776345993387,-0.7724999999999945,0.7724999999999945,0.02632804297002774,0.7318854880526123,0.0,0.002061272500872624,-2.5,2.5,0.01747509411601493,1.729657780205236,0.0
309,0.3115650786729116,0.34509818810506765,0.027665898098144865,0.46228548417551507,0.07537968324198775,-0.7749999999999945,0.7749999999999945,0.026345445053752997,0.7336091929101773,0.0,0.002048642649054022,-2.5,2.5,0.01740208372525444,1.7237048575649674,0.0
310,0.3107751085735242,0.3458551261241005,0.027723241615942175,0.4625654811232493,0.07538171943506583,-0.7774999999999944,0.7774999999999944,0.026362774534572996,0.7353269778525904,0.0,0.0020361930780807835,-2.5,2.5,0.01732948081999714,1.7177849424130638,0.0
311,0.3099850732224194,0.3466124789941211,0.027780613788735597,0.46284362957068126,0.07538374335526153,-0.7799999999999944,0.7799999999999944,0.02638003181622934,0.7370388755895906,0.0,0.0020239201957006347,-2.5,2.5,0.017257281656344624,1.7118977370001638,0.0
312,0.3091949736423179,0.34737024346743056,0.02783801443001727,0.46311992784329853,0.07538575517575466,-0.7824999999999943,0.7824999999999943,0.02639721729876486,0.7387449185360719,0.0,0.0020118204931325323,-2.5,2.5,0.01718548253552053,1.7060429464813187,0.0
313,0.3084048108757405,0.34812841628187147,0.02789544335119663,0.46339437428137853,0.07538775506629754,-0.7849999999999943,0.7849999999999943,0.026414331378568034,0.7404451388149551,0.0,0.0019998905428795233,-2.5,2.5,0.017114079803174385,1.700220278883219,0.0
314,0.30761458598508196,0.34888699416096103,0.02795290036163023,0.46366696723992423,0.07538974319329413,-0.7874999999999942,0.7874999999999942,0.02643137444841674,0.7421395682600269,0.0,0.001988126996586015,-2.5,2.5,0.01704306984870376,1.69442944507182,0.0
315,0.3068243000526867,0.3496459738140235,0.02801038526865064,0.46393770508860105,0.0753917197198771,-0.7899999999999942,0.7899999999999942,0.026448346897521326,0.7438282384187472,0.0,0.0019765265829732037,-2.5,2.5,0.016972449104586958,1.6886701587202886,0.0
316,0.3060339541809295,0.3504053519363199,0.028067897877594835,0.4642065862116743,0.07539368480598292,-0.7924999999999941,0.7924999999999941,0.026465249111567054,0.7455111805550246,0.0,0.001965086105830016,-2.5,2.5,0.01690221404572927,1.6829421362773567,0.0
317,0.30524354949229615,0.3511651252091786,0.02812543799183241,0.4644736090079493,0.07539563860842498,-0.794999999999994,0.794999999999994,0.026482081472755877,0.7471884256519606,0.0,0.0019538024420568956,-2.5,2.5,0.0168323611888229,1.6772450969359856,0.0
318,0.30445308712946856,0.3519252903001236,0.028183005412792932,0.464738771890711,0.07539758128096474,-0.797499999999994,0.797499999999994,0.026498844359847593,0.748860004414563,0.0,0.001942672539769319,-2.5,2.5,0.01676288709171666,1.6715787626023946,0.0
319,0.3036625682554114,0.352685843863003,0.028240599939992953,0.4650020732876663,0.0753995129743812,-0.7999999999999939,0.7999999999999939,0.026515538148200395,0.7505259472724285,0.0,0.001931693416454383,-2.5,2.5,0.016693788352799735,1.6659428578654425,0.0
320,0.3028719940534622,0.35344678253811523,0.028298221371062568,0.4652635116408866,0.07540143383653838,-0.8024999999999939,0.8024999999999939,0.02653216320981079,0.7521862843823949,0.0,0.001920862157177572,-2.5,2.5,0.01662506161039569,1.6603371099663464,0.0
321,0.30208136572742444,0.3542081029523348,0.028355869501771484,0.46552308540675197,0.07540334401245123,-0.8049999999999938,0.8049999999999938,0.02654871991335296,0.7538410456311636,0.0,0.0019101759128423712,-2.5,2.5,0.01655670354216999,1.654761248768736,0.0
322,0.30129068450166296,0.35496980171923714,0.02841354412605456,0.4657807930558962,0.07540524364434974,-0.8074999999999938,0.8074999999999938,0.026565208624217507,0.7554902606378927,0.0,0.001899631898505838,-2.5,2.5,0.016488710864544964,1.6492150067290496,0.0
323,0.30049995162120186,0.3557318754392229,0.028471245036037058,0.46603663307315285,0.07540713287174146,-0.8099999999999937,0.8099999999999937,0.026581629704549636,0.7571339587567599,0.0,0.0018892273917261448,-2.5,2.5,0.016421080332129814,1.643698118867261,0.0
324,0.2997091683518268,0.35649432069964004,0.028528972022059326,0.46629060395750294,0.07540901183147243,-0.8124999999999937,0.8124999999999937,0.026597983513286794,0.7587721690794978,0.0,0.001878959730967189,-2.5,2.5,0.016353808737157062,1.6382103227379314,0.0
325,0.2989183359801885,0.35725713407490656,0.028586724872701048,0.4665427042220231,0.07541088065778648,-0.8149999999999936,0.8149999999999936,0.026614270406195725,0.7604049204378994,0.0,0.00186882631405072,-2.5,2.5,0.016286892908932336,1.6327513584015882,0.0
326,0.29812745581391126,0.3580203121266303,0.02864450337480527,0.46679293239383496,0.07541273948238313,-0.8174999999999936,0.8174999999999936,0.026630490735909017,0.7620322414062959,0.0,0.0018588245966419947,-2.5,2.5,0.016220329713293763,1.6273209683964305,0.0
327,0.29733652918170195,0.3587838514037305,0.028702307313501787,0.46704128701405556,0.0754145884344739,-0.8199999999999935,0.8199999999999935,0.026646644851961096,0.7636541603040062,0.0,0.0018489520907842838,-2.5,2.5,0.016154116052079587,1.6219188977103465,0.0
328,0.2965455574334657,0.3595477484425548,0.028760136472230177,0.46728776663774885,0.07541642764083738,-0.8224999999999935,0.8224999999999935,0.0266627331008237,0.7652707051977595,0.0,0.0018392063634760092,-2.5,2.5,0.016088248862606513,1.6165448937532498,0.0
329,0.2957545419404201,0.360311999767,0.028817990632762663,0.4675323698338781,0.07541825722587266,-0.8249999999999934,0.8249999999999934,0.02667875582594086,0.7668819039040893,0.0,0.0018295850352829657,-2.5,2.5,0.016022725117158007,1.611198706329723,0.0
330,0.2949634840952178,0.3610766018886267,0.028875869575226348,0.46777509518525895,0.07542007731165164,-0.8274999999999934,0.8274999999999934,0.02669471336776334,0.7684877839917013,0.0,0.0018200857789845148,-2.5,2.5,0.015957541822480773,1.6058800876119772,0.0
331,0.29417238531206763,0.3618415513067777,0.028933773078125107,0.4680159412885142,0.07542188801796991,-0.8299999999999933,0.8299999999999933,0.02671060606378263,0.7700883727838144,0.0,0.0018107063182748462,-2.5,2.5,0.015892696019290074,1.6005887921131086,0.0
332,0.2933812470268633,0.3626068445086918,0.028991700918361285,0.46825490675402814,0.07542368946239639,-0.8324999999999932,0.8324999999999932,0.026726434248564416,0.771683697360475,0.0,0.001801444426478449,-2.5,2.5,0.01582818478178504,1.5953245766606616,0.0
333,0.29259007069731163,0.36337247796961947,0.02904965287125691,0.4684919902059038,0.0754254817603217,-0.8349999999999932,0.8349999999999932,0.026742198253781588,0.7732737845608455,0.0,0.0017922979253164328,-2.5,2.5,0.015764005217171334,1.590087200370476,0.0
334,0.29179885780306736,0.3641384481529359,0.029107628710574537,0.46872719028191867,0.0754272650250054,-0.8374999999999931,0.8374999999999931,0.02675789840824678,0.7748586609854664,0.0,0.0017832646836990484,-2.5,2.5,0.015700154465192122,1.584876424620869,0.0
335,0.2910076098458692,0.3649047515102541,0.02916562820853785,0.46896050563348346,0.07542903936762195,-0.8399999999999931,0.8399999999999931,0.026773535037944447,0.7764383529984935,0.0,0.0017743426165555132,-2.5,2.5,0.01563662969766883,1.5796920130270522,0.0
336,0.290216328349681,0.3656713844815366,0.029223651135851895,0.4691919349256002,0.07543080489730565,-0.842499999999993,0.842499999999993,0.026789108466062497,0.7780128867299094,0.0,0.001765529683695366,-2.5,2.5,0.015573428118047922,1.574533731415877,0.0
337,0.28942501486083533,0.3664383434952066,0.029281697261722885,0.4694214768368217,0.07543256172119435,-0.844999999999993,0.844999999999993,0.026804619013023452,0.7795822880777102,0.0,0.0017568238886935816,-2.5,2.5,0.015510546960955105,1.569401347800857,0.0
338,0.28863367094818193,0.36720562496825826,0.029339766353877975,0.4696491300592125,0.07543430994447217,-0.8474999999999929,0.8474999999999929,0.026820066996515214,0.7811465827100678,0.0,0.0017482232778200935,-2.5,2.5,0.01544798349176225,1.5642946323574674,0.0
339,0.2878422982032386,0.36797322530636584,0.0293978581785843,0.4698748932983089,0.07543604967041116,-0.8499999999999929,0.8499999999999929,0.026835452731521367,0.7827057960674665,0.0,0.0017397259389877462,-2.5,2.5,0.015385735006153117,1.5592133573987152,0.0
340,0.2870508982403473,0.3687411409039922,0.029455972500668167,0.4700987652730815,0.07543778100041189,-0.8524999999999928,0.8524999999999928,0.026850776530351072,0.7842599533648175,0.0,0.0017313300007246735,-2.5,2.5,0.01532379882970486,1.5541572973510136,0.0
341,0.2862594726968321,0.3695093681444972,0.029514109083533573,0.4703207447158976,0.07543950403404308,-0.8549999999999928,0.8549999999999928,0.026866038702668543,0.7858090795935477,0.0,0.0017230336311961914,-2.5,2.5,0.015262172317471071,1.5491262287302923,0.0
342,0.28546802323316367,0.3702779034002436,0.029572267689180667,0.47054083037248434,0.0754412188690803,-0.8574999999999927,0.8574999999999927,0.02688123955552212,0.7873531995236661,0.0,0.0017148350372240273,-2.5,2.5,0.015200852853574667,1.5441199301184048,0.0
343,0.2846765515331255,0.3710467430327037,0.029630448078223837,0.47075902100189315,0.07544292560154366,-0.8599999999999927,0.8599999999999927,0.026896379393372926,0.7888923377058059,0.0,0.001706732463354621,-2.5,2.5,0.015139837850806373,1.5391381821397823,0.0
344,0.2838850593039851,0.37181588339256466,0.029688650009909546,0.47097531537646403,0.0754446243257346,-0.8624999999999926,0.8624999999999926,0.026911458518123155,0.7904265184732443,0.0,0.001698724190940304,-2.5,2.5,0.015079124750229895,1.5341807674383718,0.0
345,0.28309354827666927,0.37258532081983287,0.029746873242133858,0.4711897122817916,0.07544631513427184,-0.8649999999999926,0.8649999999999926,0.02692647722914395,0.7919557659438992,0.0,0.001690808537252897,-2.5,2.5,0.015018711020795631,1.5292474706548098,0.0
346,0.2823020202059435,0.37335505164393773,0.02980511753145978,0.47140221051669046,0.07544799811812646,-0.8674999999999925,0.8674999999999925,0.026941435823302908,0.7934801040223031,0.0,0.0016829838546121856,-2.5,2.5,0.014958594158957755,1.5243380784038785,0.0
347,0.2815104768705964,0.37412507218383384,0.02986338263313415,0.47161280889316237,0.075449673366656,-0.8699999999999924,0.8699999999999924,0.026956334594991208,0.7949995564015553,0.0,0.0016752485295461472,-2.5,2.5,0.014898771688298364,1.5194523792521994,0.0
348,0.2807189200736257,0.3748953787481047,0.029921668301104647,0.47182150623636404,0.07545134096763798,-0.8724999999999924,0.8724999999999924,0.02697117383615037,0.7965141465652514,0.0,0.0016676009819687199,-2.5,2.5,0.014839241159160734,1.5145901636961705,0.0
349,0.2799273516424324,0.375665967635063,0.029979974288036088,0.4720283013845746,0.07545300100730236,-0.8749999999999923,0.8749999999999923,0.026985953836298655,0.7980238977893916,0.0,0.001660039664382218,-2.5,2.5,0.014780000148285137,1.5097512241401767,0.0
350,0.27913577342901713,0.3764368351328511,0.030038300345326813,0.4722331931891645,0.07545465357036346,-0.8774999999999923,0.8774999999999923,0.027000674882557106,0.7995288331442667,0.0,0.0016525630610966235,-2.5,2.5,0.014721046258450558,1.5049353548750295,0.0
351,0.2783441873101812,0.37720797751954155,0.030096646223124694,0.4724361805145651,0.07545629874005094,-0.8799999999999922,0.8799999999999922,0.027015337259675233,0.8010289754963233,0.0,0.001645169687476633,-2.5,2.5,0.014662377118126554,1.5001423520566484,0.0
352,0.2775525951877323,0.37797939106323625,0.030155011670343013,0.47263726223823815,0.07545793659814014,-0.8824999999999922,0.8824999999999922,0.027029941250056356,0.8025243475100083,0.0,0.0016378580891966976,-2.5,2.5,0.01460399038112394,1.4953720136849815,0.0
353,0.27676099898869594,0.37875107202216446,0.030213396434675903,0.4728364372506466,0.07545956722498168,-0.8849999999999921,0.8849999999999921,0.027044487133782612,0.8040149716495915,0.0,0.001630626841533589,-2.5,2.5,0.014545883726257588,1.4906241395831739,0.0
354,0.2759694006655305,0.37952301664478044,0.03027180026261383,0.47303370445522536,0.07546119069953033,-0.8874999999999921,0.8874999999999921,0.027058975188639624,0.8055008701809684,0.0,0.001623474548657855,-2.5,2.5,0.014488054857010432,1.4858985313769562,0.0
355,0.275177802196347,0.3802952211698612,0.030330222899458612,0.4732290627683531,0.0754628070993733,-0.889999999999992,0.889999999999992,0.027073405690140828,0.8069820651734426,0.0,0.0016163998429594706,-2.5,2.5,0.014430501501203943,1.4811949924742738,0.0
356,0.27438620558513505,0.38106768182660206,0.030388664089338453,0.47342251111932454,0.07546441650075768,-0.892499999999992,0.892499999999992,0.027087778911551504,0.8084585785014877,0.0,0.0016094013843812593,-2.5,2.5,0.01437322141067548,1.4765133280451317,0.0
357,0.27359461286199294,0.38184039483471205,0.03044712357522256,0.47361404845032284,0.07546601897861745,-0.8949999999999919,0.8949999999999919,0.027102095123912463,0.8099304318464894,0.0,0.0016024778597731881,-2.5,2.5,0.014316212360957732,1.471853345001687,0.0
358,0.27280302608336215,0.38261335640450994,0.03050560109893562,0.4738036737163928,0.07546761460659972,-0.8974999999999919,0.8974999999999919,0.02711635459606343,0.8113976466984679,0.0,0.0015956279822684216,-2.5,2.5,0.014259472150965305,1.467214851978536,0.0
359,0.2720114473322694,0.3833865627370168,0.030564096401172226,0.47399138588541506,0.07546920345709038,-0.8999999999999918,0.8999999999999918,0.027130557594666115,0.8128602443577811,0.0,0.0015888504906631518,-2.5,2.5,0.014202998602686137,1.4625976593132504,0.0
360,0.271219878718571,0.384160010024051,0.0306226092215108,0.4741771839380799,0.07547078560123921,-0.9024999999999918,0.9024999999999918,0.027144704384226993,0.8143182459368082,0.0,0.0015821441488279575,-2.5,2.5,0.01414678956087688,1.4580015790271,0.0
361,0.27042832237920433,0.3849336944483204,0.03068113929842764,0.4743610668678619,0.07547236110898432,-0.9049999999999917,0.9049999999999917,0.027158795227119756,0.8157716723616143,0.0,0.0015755077451184984,-2.5,2.5,0.014090842892763198,1.4534264248060236,0.0
362,0.26963678047844547,0.3857076121835141,0.030739686369310532,0.4745430336809953,0.07547393004907614,-0.9074999999999916,0.9074999999999916,0.027172830383607502,0.817220544373596,0.0,0.0015689400918159624,-2.5,2.5,0.014035156487745221,1.4488720119817875,0.0
363,0.26884525520816993,0.3864817593943951,0.030798250170472382,0.4747230833964499,0.07547549248910071,-0.9099999999999916,0.9099999999999916,0.02718681011186461,0.8186648825311094,0.0,0.00156244002457262,-2.5,2.5,0.013979728257107703,1.4443381575133534,0.0
364,0.2680537487881221,0.38725613223688965,0.03085683043716443,0.4749012150459067,0.07547704849550259,-0.9124999999999915,0.9124999999999915,0.02720073466799834,0.8201047072110779,0.0,0.0015560064018729225,-2.5,2.5,0.01392455613373304,1.4398246799684764,0.0
365,0.26726226346618753,0.38803072685817885,0.030915426903589463,0.4750774276737346,0.0754785981336071,-0.9149999999999915,0.9149999999999915,0.027214604306070162,0.8215400386105833,0.0,0.0015496381045112528,-2.5,2.5,0.013869638071820142,1.435331399505482,0.0
366,0.2664708015186731,0.38880553939678747,0.030974039302914824,0.47525172033696766,0.07548014146764219,-0.9174999999999914,0.9174999999999914,0.02722841927811677,0.8229708967484386,0.0,0.0015433340350829994,-2.5,2.5,0.013814972046607523,1.4308581378552607,0.0
367,0.2656793652505924,0.38958056598267304,0.031032667367285202,0.4754240921052822,0.07548167856075967,-0.9199999999999914,0.9199999999999914,0.02724217983417087,0.8243973014667421,0.0,0.0015370931174882863,-2.5,2.5,0.013760556054100839,1.426404718303452,0.0
368,0.2648879569959574,0.39035580273731413,0.031091310827835273,0.4755945420609746,0.07548320947505612,-0.9224999999999913,0.9224999999999913,0.027255886222281672,0.8258192724324149,0.0,0.001530914296437258,-2.5,2.5,0.013706388110802471,1.421970965672836,0.0
369,0.26409657911807616,0.3911312457737981,0.031149969414702224,0.4757630692989402,0.0754847342715931,-0.9249999999999913,0.9249999999999913,0.02726953868853512,0.8272368291387209,0.0,0.0015247965369888927,-2.5,2.5,0.01365246625344759,1.4175567063059051,0.0
370,0.2633052340098562,0.39190689119690847,0.031208642857037967,0.475929672926651,0.0754862530104172,-0.9274999999999912,0.9274999999999912,0.027283137477073865,0.8286499909067685,0.0,0.0015187388240880395,-2.5,2.5,0.013598788538743667,1.4131617680476483,0.0
371,0.26251392409411634,0.3926827351032106,0.0312673308830214,0.47609435206413553,0.0754877657505793,-0.9299999999999912,0.9299999999999912,0.027296682830116978,0.830058776886997,0.0,0.0015127401621133352,-2.5,2.5,0.01354535304311275,1.4087859802284985,0.0
372,0.26172265182390236,0.3934587735811384,0.03132603321987036,0.47625710584395725,0.07548927255015374,-0.9324999999999911,0.9324999999999911,0.027310174987979417,0.8314632060606445,0.0,0.0015067995744391105,-2.5,2.5,0.013492157862439005,1.4044291736475079,0.0
373,0.2609314196828113,0.39423500271107903,0.0313847495938534,0.47641793341119576,0.07549077346625675,-0.9349999999999911,0.9349999999999911,0.027323614189091235,0.8328632972412001,0.0,0.0015009161030143936,-2.5,2.5,0.013439201111817763,1.4000911805556497,0.0
374,0.26014023018532156,0.39501141856545813,0.03144347973030164,0.47657683392342554,0.07549226855506469,-0.937499999999991,0.937499999999991,0.027337000670016546,0.8342590690758395,0.0,0.0014950888079410252,-2.5,2.5,0.013386480925311835,1.395771834639365,0.0
375,0.2593490858771304,0.3957880172088234,0.03150222335362017,0.4767338065506974,0.07549375787183177,-0.939999999999991,0.939999999999991,0.027350334665472254,0.8356505400468437,0.0,0.0014893167670715357,-2.5,2.5,0.013333995455708543,1.3914709710042372,0.0
376,0.2585579893354985,0.39656479469792805,0.031560980187299525,0.4768888504755187,0.07549524147090737,-0.9424999999999909,0.9424999999999909,0.027363616408346534,0.8370377284730026,0.0,0.0014835990756107975,-2.5,2.5,0.013281742874280748,1.3871884261588887,0.0
377,0.25776694316960025,0.3973417470818148,0.031619749953926926,0.4770419648928352,0.07549671940575312,-0.9449999999999908,0.9449999999999908,0.027376846129717084,0.8384206525110016,0.0,0.0014779348457354402,-2.5,2.5,0.013229721370551836,1.3829240379990262,0.0
378,0.25697595002088425,0.3981188704018967,0.03167853237519736,0.477193149010012,0.07549819172895933,-0.9474999999999908,0.9474999999999908,0.027390024058869148,0.8397993301567933,0.0,0.001472323206211934,-2.5,2.5,0.013177929152064331,1.3786776457916603,0.0
379,0.2561850125634379,0.3988961606920402,0.03173732717192469,0.47734240204681516,0.07549965849226137,-0.9499999999999907,0.9499999999999907,0.027403150423313302,0.8411737792469528,0.0,0.0014667633020331028,-2.5,2.5,0.013126364444152598,1.3744490901595154,0.0
380,0.2553941335043618,0.39967361397864615,0.031796134064052364,0.4774897232353949,0.07550111974655542,-0.9524999999999907,0.9524999999999907,0.027416225448803018,0.8425440174600184,0.0,0.0014612542940588558,-2.5,2.5,0.013075025489715056,1.3702382130655832,0.0
381,0.25460331558415145,0.4004512262807299,0.03185495277066415,0.47763511182026697,0.07550257554191409,-0.9549999999999906,0.9549999999999906,0.027429249359352013,0.8439100623178163,0.0,0.001455795358669354,-2.5,2.5,0.013023910548995437,1.3660448577978752,0.0
382,0.2538125615770854,0.40122899361000264,0.03191378300999482,0.47777856705829624,0.07550402592760151,-0.9574999999999906,0.9574999999999906,0.027442222377251375,0.8452719311867706,0.0,0.00145038568742617,-2.5,2.5,0.012973017899362447,1.361868868954302,0.0
383,0.25302187429162404,0.40200691197094984,0.03197262449944055,0.47792008821867854,0.07550547095208825,-0.9599999999999905,0.9599999999999905,0.02745514472308647,0.8466296412791984,0.0,0.00144502448673145,-2.5,2.5,0.012922345835095014,1.3577100924277539,0.0
384,0.2522312565708134,0.40278497736091123,0.03203147695556924,0.478059674582926,0.07550691066306577,-0.9624999999999905,0.9624999999999905,0.027468016615753637,0.8479832096545897,0.0,0.0014397109775150518,-2.5,2.5,0.012871892667168594,1.3535683753913128,0.0
385,0.2514407112926998,0.4035631857701593,0.03209034009413073,0.47819732544484833,0.07550834510746068,-0.9649999999999904,0.9649999999999904,0.027480838272476684,0.8493326532208734,0.0,0.0014344443949130259,-2.5,2.5,0.012821656723047694,1.3494435662836441,0.0
386,0.2506502413707517,0.40434153318197696,0.032149213630066974,0.4783330401105382,0.07550977433144865,-0.9674999999999904,0.9674999999999904,0.02749360990882316,0.8506779887356679,0.0,0.0014292239879574176,-2.5,2.5,0.012771636346478505,1.3453355147945318,0.0
387,0.24985984975429082,0.4051200155727351,0.03220809727752187,0.47846681789835516,0.07551119838046794,-0.9699999999999903,0.9699999999999903,0.027506331738720448,0.8520192328075185,0.0,0.0014240490192822808,-2.5,2.5,0.012721829897284969,1.3412440718505672,0.0
388,0.2490695394289304,0.4058986289119706,0.03226699074985127,0.4785986581389099,0.07551261729923275,-0.9724999999999903,0.9724999999999903,0.027519003974471615,0.8533564018971195,0.0,0.0014189187648230295,-2.5,2.5,0.01267223575116848,1.3371690896010051,0.0
389,0.24827931341702536,0.40667736916246155,0.03232589375963268,0.47872856017504817,0.07551403113174629,-0.9749999999999902,0.9749999999999902,0.027531626826771124,0.8546895123185232,0.0,0.0014138325135326646,-2.5,2.5,0.01262285229951066,1.333110421403764,0.0
390,0.24748917477812818,0.4074562322803048,0.032384806018674786,0.4788565233618374,0.07551543992131339,-0.9774999999999902,0.9774999999999902,0.0275442005047203,0.8560185802403347,0.0,0.0014087895671051065,-2.5,2.5,0.012573677949176895,1.329067921811565,0.0
391,0.24669912660945756,0.40823521421498976,0.032443727238027215,0.47898254706654997,0.07551684371055309,-0.9799999999999901,0.9799999999999901,0.027556725215842626,0.8573436216868929,0.0,0.0014037892396936424,-2.5,2.5,0.012524711122325498,1.3250414465582263,0.0
392,0.24590917204637328,0.409014310909475,0.032502657127989665,0.4791066306686497,0.07551824254141075,-0.98249999999999,0.98249999999999,0.02756920116609884,0.858664652539438,0.0,0.0013988308576602382,-2.5,2.5,0.012475950256216277,1.3210308525451138,0.0
393,0.24511931426286282,0.4097935183002622,0.032561595398121486,0.47922877355977717,0.07551963645517004,-0.98499999999999,0.98499999999999,0.027581628559901865,0.8599816885372658,0.0,0.0013939137592957618,-2.5,2.5,0.012427393803024774,1.3170359978277046,0.0
394,0.24432955647203713,0.41057283231747055,0.03262054175725066,0.47934897514373537,0.07552102549246463,-0.9874999999999899,0.9874999999999899,0.02759400760013152,0.8612947452788681,0.0,0.0013890372945852825,-2.5,2.5,0.012379040229657077,1.313056741602333,0.0
395,0.24353990192663694,0.41135224888490973,0.03267949591348314,0.4794672348364757,0.07552240969328958,-0.9899999999999899,0.9899999999999899,0.027606338488149088,0.8626038382230611,0.0,0.0013842008249445037,-2.5,2.5,0.012330888017568532,1.309092944193041,0.0
396,0.242750353919548,0.4121317639201543,0.03273845757421166,0.4795835520660848,0.07552378909701257,-0.9924999999999898,0.9924999999999898,0.027618621423811673,0.8639089826900996,0.0,0.0013794037229890588,-2.5,2.5,0.01228293566258357,1.3051444670385781,0.0
397,0.241960915784329,0.4129113733346149,0.03279742644612471,0.4796979262727699,0.07552516374238487,-0.9949999999999898,0.9949999999999898,0.02763085660548639,0.8652101938627792,0.0,0.0013746453722918162,-2.5,2.5,0.01223518167471759,1.3012111726795472,0.0
398,0.24117159089574722,0.4136910730336122,0.03285640223521542,0.4798103569088465,0.07552653366755202,-0.9974999999999897,0.9974999999999897,0.027643044230064393,0.8665074867875249,0.0,0.001369925167156394,-2.5,2.5,0.012187624578004876,1.297292924745666,0.0
399,0.24038238267032813,0.41447085891644714,0.032915384646790155,0.47992084343872443,0.07552789891006441,-0.9999999999999897,0.9999999999999897,0.027655184492974716,0.8678008763754681,0.0,0.0013652425123915624,-2.5,2.5,0.01214026291032419,1.293389587943179,0.0
