yagami-light7/MecArm_Kinematics/results/tcp_pose_6d_demo/null_space/20260423_001352/trajectory.csv
step,time,pos_err_norm,rot_err_norm,err_6d_norm,qdot_max,line_dev,phase_error,sigma_min,condition_number,joint_center_cost,joint_margin_min,qdot_norm,px,py,pz,roll,pitch,yaw,r11,r12,r13,r21,r22,r23,r31,r32,r33,epx,epy,epz,erx,ery,erz,q1,q2,q3,q4,q5,q6,qdot1,qdot2,qdot3,qdot4,qdot5,qdot6,qdot_null1,qdot_null2,qdot_null3,qdot_null4,qdot_null5,qdot_null6,qdot_primary_norm,qdot_null_norm,qdot_null_ratio,null_task_leak_norm
0,0.0,0.0,8.620652195328901e-10,8.620652195328901e-10,9.816777934241603e-09,0.0,0.0,4.5365982948088026e-05,17317.968371345567,1.000083246615735,3.2712555337268405e-13,1.0837101277956815e-08,0.3340806509489974,0.0010019155657902898,0.33093286030734786,-1.6757040199877338e-10,2.8786084627085984e-10,-1.2229417478692994e-10,0.9999999999414647,2.1832294947712118e-10,-4.556171412373189e-10,-1.2229413565316075e-10,1.0000000001134242,1.6757067017938358e-10,-2.8786104749878305e-10,2.5807600501082106e-10,1.0000000003226814,0.0,0.0,0.0,4.2564667531331177e-10,7.434781889873462e-10,-9.602881350464613e-11,-7.775264686871852e-13,-8.505264387689785e-13,3.270521479396565e-12,2.120328558804953e-12,1.5699999999901832,2.133913897383873e-12,-7.775264686871852e-10,-8.505264387689786e-10,3.2705214793965647e-09,2.120328558804953e-09,-9.816777934241603e-09,2.1339138973838727e-09,0.0,0.0,0.0,0.0,0.0,0.0,1.0837101277956815e-08,0.0,0.0,0.0
1,0.001,1.0874373363155916e-09,8.453671511244229e-10,1.3773763394996197e-09,1.6017018229959405e-05,2.4533261756319214e-13,-1.0874373086410733e-09,4.5365983495700566e-05,17317.968162299003,1.0000832300886022,2.138665716726853e-09,1.998939363540143e-05,0.33408065094907285,0.0010019155655308504,0.3309328603072717,-1.6331735963603933e-10,2.952575961501225e-10,-1.2316592190586562e-10,0.9999999999414647,2.1919454119431015e-10,-4.4822031849967026e-10,-1.2316573042305646e-10,1.0000000001134244,1.6331749720628665e-10,-2.952578685017082e-10,2.623290473735551e-10,1.0000000003226814,8.879247892501496e-10,-4.4374067918392934e-10,4.4407627575182573e-10,7.171467918885219e-10,4.403280783094578e-10,-8.035721832246229e-11,-3.451276044250425e-10,-1.6017868756398174e-08,8.554662866907412e-09,4.746154889916883e-10,1.570000008320456,4.137208856918809e-10,-3.4435007795635525e-07,-1.6017018229959405e-05,8.551392345428016e-06,4.724951604328833e-07,8.330272588490637e-06,4.11586971794497e-07,0.0,0.0,0.0,0.0,0.0,0.0,1.998939363540143e-05,0.0,0.0,0.0
2,0.002,6.35080230225564e-09,2.084742121789579e-09,6.684223185733646e-09,6.405868007936468e-05,9.727847877404615e-10,-6.275856884378304e-09,4.5365519238350846e-05,17318.145409249246,1.0000831639963976,1.0685628278496275e-08,7.995407210281169e-05,0.33408065318559044,0.0010019154505529007,0.3309328616369668,7.206093499689814e-10,-5.693845395171593e-10,-4.870770453635487e-10,0.9999999999414647,5.831060448418846e-10,-1.3128628600922454e-09,-4.870772340011742e-10,1.0000000001134244,-7.206093739458901e-10,5.6938466962142e-10,1.146256034534332e-09,1.0000000003226817,4.8603034374927745e-09,-3.433210847992446e-09,2.218829342481854e-09,1.9011264478221382e-09,-7.629358968728516e-10,3.8703586528603856e-10,-1.7195107879506294e-09,-8.007654883576285e-08,4.27425131139851e-08,2.3576226581602873e-09,1.5700000416702622,2.0525715009112355e-09,-1.374383183525587e-06,-6.405868007936468e-05,3.418785024707768e-05,1.8830071691685986e-06,3.334980616617291e-05,1.6388506152193546e-06,0.0,0.0,0.0,0.0,0.0,0.0,7.995407210281169e-05,0.0,0.0,0.0
3,0.003,1.7902118372847497e-08,5.359951002240385e-09,1.8687292928133322e-08,0.00014404766418729968,4.864615104760223e-09,-1.7228504348542685e-08,4.536366060686696e-05,17318.85504496148,1.000083015383809,2.9901216832849784e-08,0.0001797933317810289,0.3340806621304938,0.0010019149916480501,0.33093286695334095,4.241850426467408e-09,-4.048343882345762e-09,-1.939385985139097e-09,0.9999999999414648,2.0354148324234e-09,-4.791822133531909e-09,-1.9393860348480726e-09,1.0000000001134244,-4.241850339082381e-09,4.048343882345762e-09,4.667496888988154e-09,1.0000000003226814,1.2746561195431383e-08,-1.1389886560384671e-08,5.318035734003246e-09,3.985594865459176e-09,-2.88968599722523e-09,2.1198639466445946e-09,-4.807610766381317e-09,-2.2412421302306254e-07,1.1960486733139914e-07,6.588075685064102e-09,1.570000116684364,5.7325878962883365e-09,-3.0880999784306873e-06,-0.00014404766418729968,7.686235421741404e-05,4.230453026903815e-06,7.50141019029288e-05,3.6800163953771005e-06,0.0,0.0,0.0,0.0,0.0,0.0,0.0001797933317810289,0.0,0.0,0.0
4,0.004,3.811105988738986e-08,1.0927298654189073e-08,3.9646673777481744e-08,0.00025590533408088856,1.3614938856256709e-08,-3.559615605391505e-08,4.535947996402472e-05,17320.451449828117,1.0000827513809611,6.40323367106337e-08,0.0003194078068991203,0.33408068224484333,0.0010019139605349544,0.3309328789027097,1.2150934924903822e-08,-1.1877097083612398e-08,-5.20251530744531e-09,0.9999999999414646,5.29854398851295e-09,-1.26205754423514e-08,-5.202515327503897e-09,1.0000000001134242,-1.215093482090059e-08,1.1877097241472234e-08,1.257658144293572e-08,1.0000000003226814,2.5365730127457908e-08,-2.6725532694229018e-08,9.735426187429397e-09,6.9785859649371005e-09,-5.963008352764545e-09,5.928551694358877e-09,-1.0290338044456319e-08,-4.80029547103951e-07,2.561293468425348e-07,1.4099686759874987e-08,1.5700002499725194,1.2263792431189306e-08,-5.482727278075002e-06,-0.00025590533408088856,0.00013652447951113564,7.511611074810886e-06,0.00013328815535990565,6.5312045349009694e-06,0.0,0.0,0.0,0.0,0.0,0.0,0.0003194078068991203,0.0,0.0,0.0
5,0.005,6.943580754577585e-08,1.9440589522564413e-08,7.210594906468441e-08,0.0003995525851579186,2.9157576010908414e-08,-6.301719710927816e-08,4.535205162219997e-05,17323.28873506662,1.000082339203862,1.1731325393258513e-07,0.000498697566275398,0.33408071797875566,0.001001912129857967,0.33093290012081,2.619129313430335e-08,-2.5784329338307543e-08,-1.0995958810156026e-08,0.9999999999414645,1.1091986811876984e-08,-2.652780817236078e-08,-1.0995958682509008e-08,1.0000000001134237,-2.6191292829095595e-08,2.5784329683517515e-08,2.661693976335755e-08,1.0000000003226808,4.352653804051698e-08,-5.184221582533663e-08,1.5464686031751995e-08,1.0888156220527327e-08,-1.0005704347550015e-08,1.26202399189418e-08,-1.8845833420011145e-08,-8.795821322618697e-07,4.6925301573034053e-07,2.582291535182601e-08,1.5700004581091533,2.2452369066596394e-08,-8.555495375554828e-06,-0.0003995525851579186,0.00021312366888780572,1.1723228591951023e-05,0.00020813663391828528,1.0188576635407088e-05,0.0,0.0,0.0,0.0,0.0,0.0,0.000498697566275398,0.0,0.0,0.0
6,0.006,1.143614277950765e-07,3.16598832183158e-08,1.1866290225982967e-07,0.0005749098413343899,5.342046942575516e-08,-1.0111770177891045e-07,4.534045186021347e-05,17327.721170403554,1.0000817461548608,1.9396556266855464e-07,0.0007175621080740145,0.3340807737713415,0.001001909273185558,0.33093293323281125,4.8099265015366655e-08,-4.7491940602384375e-08,-2.003628463143059e-08,0.9999999999414633,2.0132311212977992e-08,-4.8235419887465714e-08,-2.003628470116173e-08,1.000000000113423,-4.809926401984931e-08,4.7491940652691356e-08,4.85249115889097e-08,1.000000000322679,6.80274991338159e-08,-8.913231686817451e-08,2.249945818544319e-08,1.5722384991355817e-08,-1.5040294081169465e-08,2.2998790610223885e-08,-3.1149471261014934e-08,-1.4544919735962597e-06,7.758622506742186e-07,4.268492432300976e-08,1.5700007576330244,3.7100717568898034e-08,-1.2303637841003787e-05,-0.0005749098413343899,0.000306609234943878,1.686200897118375e-05,0.0002995238711073097,1.4648348502301637e-05,0.0,0.0,0.0,0.0,0.0,0.0,0.0007175621080740145,0.0,0.0,0.0
7,0.007,1.7537720041592902e-07,4.837646421376809e-08,1.8192703129429367e-07,0.000781897051483941,8.832567673646015e-08,-1.515115086544285e-07,4.532375894081208e-05,17334.10375579584,1.000080939623112,2.9819815323884755e-07,0.0009759003552817787,0.33408085405064825,0.0010019051650086948,0.3309329808533299,7.960411130270018e-08,-7.871505181000771e-08,-3.3037141911052004e-08,0.9999999999414609,3.3133164321422926e-08,-7.945853272572911e-08,-3.3037141800793725e-08,1.0000000001134206,-7.960410864011066e-08,7.87150518828661e-08,8.002975793175438e-08,1.0000000003226748,9.965699970804209e-08,-1.4097854367906525e-07,3.0833343267477886e-08,2.1489372941468496e-08,-2.108901755595622e-08,3.7864792075660955e-08,-4.7873862584828444e-08,-2.2363890250802007e-06,1.1927926129553902e-06,6.560952310580097e-08,1.5700011650468852,5.700752063126616e-08,-1.6724391323813514e-05,-0.000781897051483941,0.00041693036228117157,2.292459878279122e-05,0.0004074138608653914,1.9906803062368126e-05,0.0,0.0,0.0,0.0,0.0,0.0,0.0009759003552817787,0.0,0.0,0.0
8,0.008,2.5496768266834443e-07,7.038931141363602e-08,2.6450552804535375e-07,0.0010204336860767005,1.357893608551746e-07,-2.1580029815421032e-07,4.530105312750754e-05,17342.79293863207,1.000079887085051,4.342071806785326e-07,0.0012736106515068774,0.33408096323360115,0.0010018995807393736,0.330933045586441,1.2242802371886796e-07,-1.2116201464351661e-07,-5.0709263010872974e-08,0.9999999999414558,5.080527704306568e-08,-1.2190549937909911e-07,-5.070926310772611e-08,1.0000000001134155,-1.224280174700928e-07,1.2116201493321543e-07,1.228536701813887e-07,1.0000000003226663,1.3919338570644868e-07,-2.097539438096572e-07,4.0459901595735204e-08,2.8197241436185888e-08,-2.817383630613774e-08,5.801556415713137e-08,-6.968885794282087e-08,-3.256822711156901e-06,1.7368287227141303e-06,9.551709784856182e-08,1.570001696817137,8.296782401728697e-08,-2.1814995357992417e-05,-0.0010204336860767005,0.0005440361097587401,2.990757474276084e-05,0.0005317702519217389,2.596030338602081e-05,0.0,0.0,0.0,0.0,0.0,0.0,0.0012736106515068774,0.0,0.0,0.0
9,0.009000000000000001,3.556089081385237e-07,9.849695370476712e-08,3.689977580373518e-07,0.001290438733724888,1.977217815571594e-07,-2.955736670376761e-07,4.527141670211212e-05,17354.14747795911,1.000078556104877,6.061760338413839e-07,0.0016105907566790585,0.33408110572594696,0.0010018922967088325,0.3309331300256921,1.7828613474435429e-07,-1.7653441819476257e-07,-7.376047150842169e-08,0.9999999999414461,7.385646873856223e-08,-1.7727790974086943e-07,-7.376047145967494e-08,1.0000000001134055,-1.7828612198523257e-07,1.7653441833527517e-07,1.787117814844308e-07,1.0000000003226495,1.8740504725833773e-07,-2.9782191694272334e-07,5.1372654186199185e-08,3.585413169387028e-08,-3.631643638447759e-08,8.424516352841769e-08,-9.726155011237321e-08,-4.547261444881789e-06,2.4247041353655355e-06,1.333245284306338e-07,1.5700023693734793,1.1577312982300553e-07,-2.757269216955234e-05,-0.001290438733724888,0.000687875412651405,3.7807430582071983e-05,0.0006725563421918545,3.280530580571856e-05,0.0,0.0,0.0,0.0,0.0,0.0,0.0016105907566790585,0.0,0.0,0.0
10,0.01,4.797666569472574e-07,1.3349478342354625e-07,4.979928737639193e-07,0.001591830697758872,2.760272872935337e-07,-3.9240920196137717e-07,4.5233933981408684e-05,17368.529459747482,1.0000769143350485,8.182753050375896e-07,0.0019867378427802854,0.3340812859221989,0.0010018830901658612,0.3309332367541164,2.488865296079723e-07,-2.465270951823584e-07,-1.0289568441734787e-07,0.9999999999414289,1.0299165189497925e-07,-2.472705992948021e-07,-1.0289568452673455e-07,1.000000000113388,-2.488865041270179e-07,2.4652709545470997e-07,2.4931217618151535e-07,1.0000000003226195,2.450505022233429e-07,-4.075362274233701e-07,6.356508330807031e-08,4.446820430406442e-08,-4.5538229632108135e-08,1.1734438908292503e-07,-1.3125627659942628e-07,-6.139092142640662e-06,3.2731012201503583e-06,1.7994509225321815e-07,1.5700031991085526,1.5621150295402527e-07,-3.399472648705307e-05,-0.001591830697758872,0.0008483970847848228,4.662056382258435e-05,0.0008297350732100156,4.0438373131019736e-05,0.0,0.0,0.0,0.0,0.0,0.0,0.0019867378427802854,0.0,0.0,0.0
11,0.011,6.298956261723989e-07,1.7617430453948083e-07,6.540687161538062e-07,0.0019245275928829004,3.726043066028053e-07,-5.078725534840829e-07,4.518769133456368e-05,17386.30546762617,1.0000749295167812,1.0746627602117265e-06,0.002401948489676236,0.3340815082055818,0.0010018717392750991,0.33093336834424536,3.35930252504113e-07,-3.328281312775516e-07,-1.3881692018102854e-07,0.9999999999413995,1.3891283693444763e-07,-3.3357165636280217e-07,-1.3881692004723036e-07,1.000000000113358,-3.3593020640433364e-07,3.328281314614323e-07,3.3635589929970067e-07,1.0000000003225693,3.128784795691786e-07,-5.412410167798375e-07,7.703063448216696e-08,5.404763839071665e-08,-5.5860356114299155e-08,1.5810078740834833e-07,-1.7233462195470057e-07,-8.063619735523562e-06,4.298651040846906e-06,2.362883547115586e-07,1.570004202377577,2.050676909082973e-07,-4.107834535527429e-05,-0.0019245275928829004,0.001025549820696548,5.6343262458340454e-05,0.0010032690246272818,4.885618795427204e-05,0.0,0.0,0.0,0.0,0.0,0.0,0.002401948489676236,0.0,0.0,0.0
12,0.012,8.084390167878559e-07,2.2732303300225643e-07,8.397912866886987e-07,0.0022884469417486872,4.893453406067003e-07,-6.435175067566139e-07,4.513177719998261e-05,17407.8479165501,1.000072569480561,1.379483309632862e-06,0.0028561186808435945,0.3340817769479799,0.0010018580231151515,0.33093352735812287,4.4111132213586757e-07,-4.371188708773843e-07,-1.822233013371033e-07,0.9999999999413525,1.823191370037314e-07,-4.37862429668312e-07,-1.8222330116589507e-07,1.0000000001133103,-4.4111124271391305e-07,4.371188709346302e-07,4.415369691534998e-07,1.0000000003224883,3.916279999183203e-07,-7.012708160617203e-07,9.176271620336962e-08,6.460063003226521e-08,-6.730368626462562e-08,2.0729865833616052e-07,-2.2115541990651174e-07,-1.035206667727225e-05,5.517933238531448e-06,3.0326004625445784e-07,1.5700053954979858,2.631232569507528e-07,-4.882079795181118e-05,-0.0022884469417486872,0.0012192821976845416,6.697169154289925e-05,0.0011931204087371535,5.80555660424555e-05,0.0,0.0,0.0,0.0,0.0,0.0,0.0028561186808435945,0.0,0.0,0.0
13,0.013000000000000001,1.0178283274611e-06,2.8772459266786226e-07,1.0577144914428218e-06,0.002683505771607716,6.281369553356041e-07,-8.008860527678812e-07,4.5065282102431994e-05,17433.536558289175,1.0000698021466634,1.7368689791059861e-06,0.003349143799190758,0.3340820965098851,0.0010018417216768462,0.3309337163473183,5.661167379322762e-07,-5.61073925542388e-07,-2.3381106206699087e-07,0.99999999994128,2.3390677287135634e-07,-5.618175363993061e-07,-2.3381106189095794e-07,1.0000000001132363,-5.661166066047543e-07,5.610739256672881e-07,5.665423844503081e-07,1.000000000322363,4.820284558726406e-07,-8.899505583193513e-07,1.077547013283997e-07,7.613539321407935e-08,-7.988882255329126e-08,2.6571906058292755e-07,-2.7837475531342714e-07,-1.3035572448879965e-05,6.9474759164239445e-06,3.81761925955905e-07,1.5700067947490508,3.311567267798874e-07,-5.7219335406915426e-05,-0.002683505771607716,0.0014295426778924967,7.850187970144718e-05,0.0013992510650386758,6.803346982913463e-05,0.0,0.0,0.0,0.0,0.0,0.0,0.003349143799190758,0.0,0.0,0.0
14,0.014,1.2604832553332911e-06,3.5815884830134486e-07,1.310380020296462e-06,0.0031096206110459846,7.908597738087892e-07,-9.81508459029318e-07,4.49872986698913e-05,17463.76017074412,1.00006659552568,2.150938881699212e-06,0.0038809186229780343,0.33408247124034496,0.0010018226158611705,0.3309339378529401,7.126264907064694e-07,-7.063611815461002e-07,-2.9427355263678123e-07,0.9999999999411723,2.943690778576857e-07,-7.071048699902605e-07,-2.9427355266426576e-07,1.0000000001131268,-7.126262829817202e-07,7.063611817612059e-07,7.130521376130794e-07,1.0000000003221774,5.847996922270227e-07,-1.1095955907622617e-06,1.2499992763093104e-07,8.866015731839798e-08,-9.36361014598761e-08,3.34139817477981e-07,-3.4464596594002555e-07,-1.614519305992595e-05,8.603755526796848e-06,4.7269163149604e-07,1.5700084163715058,4.0994374875410705e-07,-6.627121062659839e-05,-0.0031096206110459846,0.0016562796103729042,9.092970554013498e-05,0.0016216224549073079,7.878702197421965e-05,0.0,0.0,0.0,0.0,0.0,0.0,0.0038809186229780343,0.0,0.0,0.0
15,0.015,1.5388116537079044e-06,4.394020287055478e-07,1.6003172961690462e-06,0.0035667074865752984,9.793884692997164e-07,-1.1869033371675026e-06,4.489692165060028e-05,17498.918445712075,1.000062917719056,2.625799189964483e-06,0.004451337321565381,0.3340829054769151,0.0010018004874774611,0.3309341944056496,8.823135755342548e-07,-8.746418065364026e-07,-3.643012460585737e-07,0.9999999999410157,3.643965028205137e-07,-8.753856071408439e-07,-3.6430124602286197e-07,1.000000000112968,-8.82313256642514e-07,8.746418071383516e-07,8.827392220522867e-07,1.0000000003219087,7.006520822971929e-07,-1.3625116871713444e-06,1.4349169830119024e-07,1.0218316775792713e-07,-1.0856559623239546e-07,4.1333552275628435e-07,-4.20619644059807e-07,-1.971190054650125e-05,1.0503196759857931e-05,5.769425154843989e-07,1.570010276567162,5.002572677758815e-07,-7.597367811978144e-05,-0.0035667074865752984,0.0018994412330610823,0.00010425088398835889,0.0018601956562196553,9.031351902177444e-05,0.0,0.0,0.0,0.0,0.0,0.0,0.004451337321565381,0.0,0.0,0.0
16,0.016,1.85520952322911e-06,5.322268265325665e-07,1.9300434632310506e-06,0.0040546819193734,1.1955917583567735e-06,-1.41857771108829e-06,4.479324792998785e-05,17539.42409349804,1.0000587369196363,3.165543108656824e-06,0.0050602934513357305,0.3340834035456102,0.0010017751192413834,0.3309344885256747,1.0768439979713662e-06,-1.0675702584173052e-06,-4.4458174253136917e-07,0.9999999999407959,4.446766212308808e-07,-1.0683142160558545e-06,-4.445817424020467e-07,1.000000000112745,-1.0768435230881272e-06,1.0675702587590458e-06,1.077269644433887e-06,1.0000000003215308,8.302866051912439e-07,-1.6509950601011156e-06,1.632232821680013e-07,1.167126843133493e-07,-1.2469711844779818e-07,5.04077546466925e-07,-5.069436378887424e-07,-2.376658246587465e-05,1.2662172434627297e-05,6.954034680331998e-07,1.57001239149852,6.028677129026294e-07,-8.63239938289354e-05,-0.0040546819193734,0.002158975674769366,0.0001184609525488009,0.002114931358094967,0.0001026104451267479,0.0,0.0,0.0,0.0,0.0,0.0,0.0050602934513357305,0.0,0.0,0.0
17,0.017,2.2120610220637378e-06,6.374024770593213e-07,2.302063396845323e-06,0.004573458922054736,1.4413323936541014e-06,-1.6780270845184484e-06,4.46753765476119e-05,17585.70518662519,1.0000540214122178,3.7742508479498175e-06,0.005707679951656636,0.33408396976085625,0.001001746294772831,0.3309348227228239,1.2978767869320507e-06,-1.2867942897898388e-06,-5.35799776102408e-07,0.9999999999404929,5.358941342644652e-07,-1.287538464567195e-06,-5.357997760112639e-07,1.000000000112438,-1.2978760971658924e-06,1.2867942905427088e-06,1.2983024333390603e-06,1.00000000032101,9.743949220819559e-07,-1.977332373000445e-06,1.8418791447594174e-07,1.322569816159596e-07,-1.420502197127514e-07,6.071340409289808e-07,-6.042630528532868e-07,-2.834004138792939e-05,1.509700339179927e-05,8.289587255133839e-07,1.5700147772883757,7.185431987726629e-07,-9.731941496454442e-05,-0.004573458922054736,0.0024348309571719726,0.00013355525748018416,0.0023857898556782263,0.00011567548587003349,0.0,0.0,0.0,0.0,0.0,0.0,0.005707679951656636,0.0,0.0,0.0
18,0.018000000000000002,2.6117384867788116e-06,7.556948190206285e-07,2.718869725238099e-06,0.005122952995378613,1.7184671577085373e-06,-1.9667355061657e-06,4.454240871389623e-05,17638.20776971604,1.0000487395741116,4.455989597127736e-06,0.006393389140768451,0.3340846084254451,0.001001713798593929,0.33093519949649985,1.5470640035708527e-06,-1.5339549599424629e-06,-6.386372208844193e-07,0.9999999999400843,6.387308759745358e-07,-1.534699427440528e-06,-6.386372208321371e-07,1.0000000001120228,-1.5470630237084982e-06,1.5339549606623731e-06,1.5474896503109292e-06,1.0000000003203071,1.1336594499256059e-06,-2.3438007524393192e-06,2.063787968298314e-07,1.4882434761242232e-07,-1.6064419420172122e-07,7.232699467844886e-07,-7.132202526978587e-07,-3.3462994383308e-05,1.7823958388510942e-05,9.78487665407709e-07,1.5700174500194206,8.480497409113406e-07,-0.0001089571998445719,-0.005122952995378613,0.002726954996711673,0.00014952893989432517,0.002672731044947447,0.0001295065421386777,0.0,0.0,0.0,0.0,0.0,0.0,0.006393389140768451,0.0,0.0,0.0
19,0.019,3.0566024606738525e-06,8.878663420015633e-07,3.1829428590310397e-06,0.00570307812508204,2.028846856462691e-06,-2.2861756353319345e-06,4.439344782712527e-05,17697.39876782229,1.0000428598757134,5.214813498758882e-06,0.00711731271182505,0.33408532383048883,0.001001677416126818,0.3309356213357141,1.8260507528289338e-06,-1.8106866379596909e-06,-7.537730968287804e-07,0.9999999999395413,7.538658185273424e-07,-1.8114314938658116e-06,-7.537730967594558e-07,1.0000000001114722,-1.8260493876154538e-06,1.8106866385720483e-06,1.8264763993469657e-06,1.0000000003193732,1.3087534357358876e-06,-2.7526678001133474e-06,2.2978909736126596e-07,1.6642308256549986e-07,-1.804980810327985e-07,8.532469991697076e-07,-8.344548604353643e-07,-3.916607250839004e-05,2.085925399503553e-05,1.1448645871900511e-06,1.5700204257338382,9.9215148499325e-07,-0.0001212346077375056,-0.00570307812508204,0.0030352956065245866,0.000166376921782342,0.0029757144176259975,0.00014410174408190942,0.0,0.0,0.0,0.0,0.0,0.0,0.00711731271182505,0.0,0.0,0.0
20,0.02,3.5490017257513835e-06,1.0346762237196448e-06,3.696751024523702e-06,0.006313747778647082,2.374316313202811e-06,-2.6378088054819347e-06,4.422759949028045e-05,17763.769232243012,1.000036350881083,6.0547636233382515e-06,0.007879341728851404,0.33408612025537665,0.0010016369336915334,0.33093609071910046,2.1364751905394996e-06,-2.118617012047963e-06,-8.818835759427657e-07,0.9999999999388314,8.819750774548612e-07,-2.1193623761586733e-06,-8.818835757653733e-07,1.0000000001107523,-2.136473321989266e-06,2.1186170130037957e-06,2.136900837224065e-06,1.000000000318153,1.5003410281932972e-06,-3.2061916049473584e-06,2.5441195111719495e-07,1.8506149997884975e-07,-2.016306654539829e-07,9.978237338853525e-07,-9.68603759146378e-07,-4.5479820287037124e-05,2.4219054493353006e-05,1.328958479169757e-06,1.5700237204328942,1.1516109501404084e-06,-0.00013414889871101365,-0.006313747778647082,0.003359800498317478,0.00018409389197970576,0.003294699056065524,0.00015945946514715835,0.0,0.0,0.0,0.0,0.0,0.0,0.007879341728851404,0.0,0.0,0.0
21,0.021,4.091273337588244e-06,1.1968803596530803e-06,4.262750299769357e-06,0.00695487490215717,2.756714362577257e-06,-3.023085087461636e-06,4.404397152760629e-05,17837.837970325254,1.0000291812485294,6.979867944393415e-06,0.008679366622817992,0.33408700196773133,0.001001592138503752,0.33093661011492975,2.4799685371945657e-06,-2.4593670979733417e-06,-1.023641988506796e-06,0.9999999999379164,1.0237319170428418e-06,-2.460113116747875e-06,-1.0236419882533248e-06,1.0000000001098241,-2.47996601932233e-06,2.4593670990974426e-06,2.480394183934642e-06,1.0000000003165799,1.7090773492545175e-06,-3.706620755062175e-06,2.8024045972685485e-07,2.04747924450184e-07,-2.2406048176427686e-07,1.1577554937326744e-06,-1.116301092631665e-06,-5.2434695189194296e-05,2.791947177757366e-05,1.5316327712171592e-06,1.5700273500765225,1.3271892863093026e-06,-0.0001476973334852871,-0.00695487490215717,0.003700417284220655,0.00020267429204740218,0.003629643628259517,0.00017557833616889417,0.0,0.0,0.0,0.0,0.0,0.0,0.008679366622817992,0.0,0.0,0.0
22,0.022,4.685742661904022e-06,1.3752313871484758e-06,4.883384652245377e-06,0.00762637191719152,3.1778738449791448e-06,-3.4434433520819255e-06,4.384167400178988e-05,17920.155614309326,1.0000213197312064,7.994141314052296e-06,0.009517277187756457,0.3340879732233676,0.0010015428186725907,0.33093718198112404,2.8581550846062953e-06,-2.8345512452787602e-06,-1.1797188297357764e-06,0.9999999999367516,1.179806755699768e-06,-2.8352980972201625e-06,-1.1797188294754687e-06,1.0000000001086429,-2.8581517403499837e-06,2.8345512461686734e-06,2.858580731401883e-06,1.0000000003145773,1.9356085648181143e-06,-4.2561943497971145e-06,3.07267691346258e-07,2.2549069183773428e-07,-2.47805814198037e-07,1.3337944348896156e-06,-1.2781782659236847e-06,-6.0061067106385817e-05,3.197656525620918e-05,1.753745073315525e-06,1.5700313305829054,1.51964654584422e-06,-0.0001618771732920197,-0.00762637191719152,0.004057093478635525,0.00022211230209836589,0.003980506382880318,0.00019245725953491734,0.0,0.0,0.0,0.0,0.0,0.0,0.009517277187756457,0.0,0.0,0.0
23,0.023,5.334723411367587e-06,1.5704787058602214e-06,5.561085976799299e-06,0.008328150717681268,3.639621601042434e-06,-3.900311330791822e-06,4.361981923033505e-05,18011.309195892965,1.0000127351777148,9.10158543905754e-06,0.010392962576842423,0.3340890382662514,0.0010014887631981683,0.330937808765271,3.2726522078974085e-06,-3.2457771435012717e-06,-1.350781765996345e-06,0.9999999999352847,1.3508671714090954e-06,-3.246525044749149e-06,-1.3507817660424685e-06,1.0000000001071554,-3.272647823178765e-06,3.2457771447624156e-06,3.2730778547485073e-06,1.0000000003120562,2.1805719532252965e-06,-4.857142011493315e-06,3.3548668049165897e-07,2.472981491312783e-07,-2.7288470044550576e-07,1.5266895333562114e-06,-1.4548639456624026e-06,-6.838921782406708e-05,3.640634175623016e-05,1.9961468998741924e-06,1.5700356778280498,1.7297419692587934e-06,-0.00017668567973871792,-0.008328150717681268,0.004429776500020971,0.0002424018265586673,0.004347245144365633,0.00021009542341457346,0.0,0.0,0.0,0.0,0.0,0.0,0.010392962576842423,0.0,0.0,0.0
24,0.024,6.040517683567593e-06,1.7833684944633582e-06,6.298274134438521e-06,0.00906012266686261,4.143778466286273e-06,-4.395105676529565e-06,4.337752180249916e-05,18111.92730487184,1.000003396532714,1.0306188857230724e-05,0.011306311298591078,0.3340902013284604,0.0010014297619693807,0.3309384929046383,3.7250703752711445e-06,-3.69464583283019e-06,-1.5374956428004793e-06,0.9999999999334576,1.5375779072647612e-06,-3.695395040775873e-06,-1.537495642579773e-06,1.0000000001053027,-3.7250646943552348e-06,3.6946458339317395e-06,3.7254960221777544e-06,1.0000000003089153,2.444595973816188e-06,-5.511683897490866e-06,3.648904279840437e-07,2.7017865236271887e-07,-2.993149329416217e-07,1.7371865915238128e-06,-1.646984060342291e-06,-7.744934049092969e-05,4.12247554289229e-05,2.2596833797316464e-06,1.5700404076453578,1.9582342852970213e-06,-0.0001921201146798882,-0.00906012266686261,0.004818413672692742,0.00026353647985745415,0.004729817308066928,0.00022849231603822815,0.0,0.0,0.0,0.0,0.0,0.0,0.011306311298591078,0.0,0.0,0.0
25,0.025,6.805415999055287e-06,2.0146437257513668e-06,7.09735699129662e-06,0.009822198594280126,4.692159265878599e-06,-4.929232023720725e-06,4.31138985959811e-05,18222.685926501515,0.9999932728375382,1.1611926914379608e-05,0.012257211213121575,0.3340914666301441,0.0010013656057614173,0.3309392368261881,4.217013157337135e-06,-4.182751708103893e-06,-1.7405224883582093e-06,0.9999999999312021,1.740600877044822e-06,-4.1835025291689365e-06,-1.7405224884313108e-06,1.000000000103016,-4.217005876379769e-06,4.1827517096026945e-06,4.217438803966189e-06,1.0000000003050387,2.7283003347644552e-06,-6.222030711868333e-06,3.9547190050504e-07,2.9414056805210783e-07,-3.271140606948044e-07,1.96602824476941e-06,-1.8551618004361362e-06,-8.727153908520982e-05,4.644770765751843e-05,2.545192951806924e-06,1.5700455358251932,2.2058820253503293e-06,-0.00020817774009384516,-0.009822198594280126,0.005222952228595533,0.0002855095720752777,0.005128179835480912,0.000247647740053308,0.0,0.0,0.0,0.0,0.0,0.0,0.012257211213121575,0.0,0.0,0.0
26,0.026000000000000002,7.631697338762032e-06,2.2650441796579716e-06,7.960730456828062e-06,0.010614288792723574,5.286572810126905e-06,-5.504085046000651e-06,4.28280687934619e-05,18344.315070521145,0.9999823332308245,1.3022761741631356e-05,0.01324554952834779,0.33409283837948756,0.001001296086233312,0.3309400429465922,4.750077236881367e-06,-4.711682529467964e-06,-1.960521524679848e-06,0.999999999928443,1.9605951708042302e-06,-4.712435323645653e-06,-1.960521524518063e-06,1.0000000001002185,-4.750067998770787e-06,4.7116825310413585e-06,4.750502883510421e-06,1.0000000003002962,3.0322960582473968e-06,-6.990383717214808e-06,4.2722402987527275e-07,3.19192271084036e-07,-3.5629939187401486e-07,2.213953968182915e-06,-2.080017618402964e-06,-9.788582787793339e-05,5.209104696652542e-05,2.8535070463248166e-06,1.5700510781144428,2.4734438522691444e-06,-0.0002248558179668276,-0.010614288792723574,0.00564333930900699,0.00030831409451789266,0.0055422892494904645,0.0002675618269188151,0.0,0.0,0.0,0.0,0.0,0.0,0.01324554952834779,0.0,0.0,0.0
27,0.027,8.521629182026387e-06,2.535306455242345e-06,8.890778522601788e-06,0.011436303015299257,5.9288218893580425e-06,-6.121048514769602e-06,4.2519153899437726e-05,18477.606327329755,0.9999705469491448,1.454264223320042e-05,0.014271212796336584,0.33409432077267354,0.0010012209959254774,0.330940913672246,5.325852419968413e-06,-5.283019427260172e-06,-2.1981491702405265e-06,0.9999999999250935,2.1982170605993885e-06,-5.283774616164638e-06,-2.198149170243375e-06,1.0000000000968234,-5.325840806240133e-06,5.283019429027855e-06,5.326278066541956e-06,1.00000000029454,3.357185546282171e-06,-7.818934746387646e-06,4.6013971305436385e-07,3.453421454539103e-07,-3.868879954432548e-07,2.481700083319637e-06,-2.3221692285873366e-06,-0.00010932213089323265,5.817056893280168e-05,3.1854497515747095e-06,1.5700570502160724,2.7616789036374363e-06,-0.00024215161018437267,-0.011436303015299257,0.006079521966276258,0.0003319427052498929,0.005972101629696353,0.0002882350513682919,0.0,0.0,0.0,0.0,0.0,0.0,0.014271212796336584,0.0,0.0,0.0
28,0.028,9.477467544063841e-06,2.8261639815839384e-06,9.889873300481958e-06,0.012288150472497823,6.620703269670372e-06,-6.781495356022096e-06,4.218627775685446e-05,18623.421514965255,0.9999578833276477,1.617550402457599e-05,0.015334086909670766,0.3340959179938471,0.0010011401282571774,0.330941851399284,5.9459216448232155e-06,-5.8983369108922545e-06,-2.4540590506383353e-06,0.999999999921058,2.454120006207557e-06,-5.899094984680026e-06,-2.454059050539325e-06,1.0000000000927336,-5.945907168753603e-06,5.898336912776164e-06,5.946347291119203e-06,1.0000000002876048,3.7035626449521963e-06,-8.70986621420624e-06,4.942118111972427e-07,3.725985831105614e-07,-4.188967034531201e-07,2.7699997650726416e-06,-2.5822316070176463e-06,-0.00012161028136573047,6.470201609830396e-05,3.5418374661411007e-06,1.5700634677886802,3.0713471495527737e-06,-0.0002600623784303097,-0.012288150472497823,0.006531447165502277,0.0003563877145663913,0.006417572607812331,0.0003096682459153375,0.0,0.0,0.0,0.0,0.0,0.0,0.015334086909670766,0.0,0.0,0.0
29,0.029,1.050145701312671e-05,3.138347027985699e-06,1.0960375060490168e-05,0.013169739829305322,7.3640076885356036e-06,-7.4867877064704134e-06,4.1828566563518214e-05,18782.702614502432,0.9999443118007066,1.792526947112551e-05,0.016434057097871366,0.33409763421508054,0.0010010532775238795,0.33094285851359445,6.6118609916010485e-06,-6.559202875511261e-06,-2.7289020030352162e-06,0.9999999999162297,2.728954660943359e-06,-6.5599644013328295e-06,-2.728902002990597e-06,1.0000000000878395,-6.611843090812096e-06,6.559202877698747e-06,6.612286638008058e-06,1.0000000002793064,4.072012707745376e-06,-9.665351129026743e-06,5.294331488769899e-07,4.009699835598792e-07,-4.5234211291333935e-07,3.079583048601832e-06,-2.860816991111319e-06,-0.0001347800211950358,7.170107788450204e-05,3.923478536559872e-06,1.5700703464460433,3.403209764965044e-06,-0.0002785853840936725,-0.013169739829305322,0.006999061786198089,0.00038164107041877097,0.006878657363113643,0.00033186261541227034,0.0,0.0,0.0,0.0,0.0,0.0,0.016434057097871366,0.0,0.0,0.0
30,0.03,1.1595830787534314e-05,3.472582713684658e-06,1.2104632268537124e-05,0.014080979202358,8.160519850491413e-06,-8.238276969294265e-06,4.1445148888964316e-05,18956.483233400755,0.9999298019025757,1.9795847627112714e-05,0.017571007923884475,0.33409947359633935,0.0010009602388946898,0.3309439373908339,7.325239693489749e-06,-7.2671786104372416e-06,-3.023326085482836e-06,0.9999999999104884,3.023368877475306e-06,-7.267944240121893e-06,-3.023326085067416e-06,1.000000000082021,-7.325217721008137e-06,7.2671786128589155e-06,7.3256653398412475e-06,1.0000000002694405,4.463112658059654e-06,-1.0687553104400064e-05,5.657965139738153e-07,4.3046475317520764e-07,-4.872405882038552e-07,3.411176836351653e-06,-3.1585348792958346e-06,-0.0001488610003973938,7.918339050845086e-05,4.331172880351216e-06,1.5700777017566612,3.7580295166196014e-06,-0.0002977178881845159,-0.014080979202358,0.0074823126239488115,0.00040769434379134473,0.007355310617941297,0.00035481975165455775,0.0,0.0,0.0,0.0,0.0,0.0,0.017571007923884475,0.0,0.0,0.0
31,0.031,1.27628107120319e-05,3.829595017175045e-06,1.3324981623504332e-05,0.015021776157118494,9.012018423419179e-06,-9.037303868269687e-06,4.103515569075665e-05,19145.90188960452,0.9999143232680522,2.1791134225116497e-05,0.018744823280600464,0.3341014402854494,0.001000860808409595,0.3309450903964429,8.087620144703322e-06,-8.02381880582459e-06,-3.337976581807567e-06,0.9999999999037026,3.3380077137880494e-06,-8.02458928547689e-06,-3.337976581418192e-06,1.0000000000751452,-8.087593360025926e-06,8.02381880827055e-06,8.088045791332377e-06,1.0000000002577798,4.877431050487324e-06,-1.1778626370534916e-05,6.032946562317676e-07,4.610913060464899e-07,-5.236082626013067e-07,3.765504905108466e-06,-3.475992030554171e-06,-0.0001638827765545123,8.716453690046599e-05,4.765711594391403e-06,1.5700855492432944,4.136571164657661e-06,-0.000317457151258336,-0.015021776157118494,0.007981146392015125,0.0004345387140401869,0.007847486633273565,0.0003785416480380599,0.0,0.0,0.0,0.0,0.0,0.0,0.018744823280600464,0.0,0.0,0.0
32,0.032,1.4004607314004447e-05,4.21010478502329e-06,1.4623748094122206e-05,0.01599203770510079,9.920276034557252e-06,-9.885198501690502e-06,4.0597720331264124e-05,19352.21747397225,0.9998978456331464,2.3915011655851354e-05,0.019955386387446733,0.33410353841806484,0.0010007547829768047,0.33094631988566037,8.90055791291644e-06,-8.830671559767467e-06,-3.6734960118245397e-06,0.9999999998957271,3.6735134390925737e-06,-8.831447739995196e-06,-3.6734960113156092e-06,1.000000000067063,-8.900525471636858e-06,8.830671562678333e-06,8.900983559045894e-06,1.0000000002440743,5.315528131266678e-06,-1.2940715785863003e-05,6.419202868701568e-07,4.928580618166949e-07,-5.614610406591036e-07,4.143287913191682e-06,-3.8137924639046986e-06,-0.00017987481425961308,9.566004662340542e-05,5.22787654856523e-06,1.5700939043824986,4.539601878901571e-06,-0.00033780043335052796,-0.01599203770510079,0.008495509722939422,0.0004621649541738268,0.008355139204352527,0.00040303071424390954,0.0,0.0,0.0,0.0,0.0,0.0,0.019955386387446733,0.0,0.0,0.0
33,0.033,1.5323419839491195e-05,4.614829740745129e-06,1.6003244955738764e-05,0.016991670301185348,1.0887059266992162e-05,-1.0783280395792697e-05,4.013197859399818e-05,19576.827332150944,0.9998803388357593,2.617134894838281e-05,0.021202579787101918,0.33410577211763626,0.0010006419603699314,0.3309476282035395,9.765601745481689e-06,-9.689278387625677e-06,-4.030524136666713e-06,0.999999999886401,4.030525539882104e-06,-9.690061232456304e-06,-4.030524136137441e-06,1.0000000000576141,-9.765562690528802e-06,9.689278390585115e-06,9.76602739144461e-06,1.0000000002280494,5.777955898733644e-06,-1.4175956848441577e-05,6.816660771402638e-07,5.257734466674293e-07,-6.008146003268659e-07,4.545243407660285e-06,-4.1725374578251245e-06,-0.00019686648456079844,0.00010468539579353124,5.718439964674106e-06,1.5701027826041551,4.967891669881103e-06,-0.00035874499392042565,-0.016991670301185348,0.009025349170125822,0.0004905634161088758,0.008878221656424394,0.00042828979097953186,0.0,0.0,0.0,0.0,0.0,0.0,0.021202579787101918,0.0,0.0,0.0
34,0.034,1.6721436288190886e-05,5.044484493218519e-06,1.7465773826039003e-05,0.01802057984087222,1.191412865627477e-05,-1.1732858556281318e-05,3.96370687002601e-05,19821.288510921688,0.9998617728163661,2.8564001750728983e-05,0.022486285342144176,0.33410814549538137,0.0010005221392251867,0.33094901768496254,1.0684293582308158e-05,-1.0601174227353738e-05,-4.409697967666659e-06,0.9999999998755497,4.409680725974157e-06,-1.0601964826550958e-05,-4.409697966977552e-06,1.00000000004662,-1.068424683202068e-05,1.060117423051267e-05,1.0684719228160056e-05,1.000000000209404,6.2652581609978775e-06,-1.548647570737095e-05,7.225246577702293e-07,5.598458924025304e-07,-6.416843943718437e-07,4.9720858316306e-06,-4.5528255496312345e-06,-0.00021488706440167066,0.00011425600700291593,6.23816398055158e-06,1.5701121992909957,5.422213834629532e-06,-0.00038028809180611035,-0.01802057984087222,0.009570611209384693,0.0005197240158774741,0.00941668684044695,0.00045432216474842937,0.0,0.0,0.0,0.0,0.0,0.0,0.022486285342144176,0.0,0.0,0.0
35,0.035,1.8200833448714383e-05,5.499780545304492e-06,1.901362470110184e-05,0.019078671657681075,1.3003238686801929e-05,-1.2735231520536967e-05,3.911213132552978e-05,20087.342848051903,0.9998421176187059,3.1096812310849345e-05,0.023806384231901546,0.33411066265025463,0.0010003951190384643,0.3309504906546556,1.1658168563855043e-05,-1.1567887447050396e-05,-4.8116517730179e-06,0.9999999998629805,4.8116129366497125e-06,-1.1568687027632696e-05,-4.811651772318244e-06,1.0000000000338871,-1.1658112900886818e-05,1.1567887450858114e-05,1.1658594209762452e-05,1.000000000187808,6.7779705946180435e-06,-1.6874389174100337e-05,7.644886181878974e-07,5.950838364054888e-07,-6.840856537943236e-07,5.424526531636793e-06,-4.95525253482144e-06,-0.00023396573605935175,0.00012438724924339738,6.787800199354081e-06,1.5701221697781247,5.903345417290074e-06,-0.00040242698519020556,-0.019078671657681075,0.010131242240481439,0.0005496362188025004,0.009970487128959635,0.0004811315826605413,0.0,0.0,0.0,0.0,0.0,0.0,0.023806384231901546,0.0,0.0,0.0
36,0.036000000000000004,1.9763776933184634e-05,5.981426301866793e-06,2.0649075990691324e-05,0.020165850520558654,1.4156137789250021e-05,-1.3791687407874557e-05,3.855630961592538e-05,20376.946755465808,0.9998213433904799,3.377360945800639e-05,0.02516275694931188,0.33411332766891894,0.001000260700162482,0.33095204942720535,1.2688755043122057e-05,-1.2590939856060857e-05,-5.237017086656692e-06,0.9999999998484858,5.2369533468253675e-06,-1.259174979292843e-05,-5.237017085830205e-06,1.000000000019204,-1.268868910112299e-05,1.2590939859943168e-05,1.2689180688363333e-05,1.000000000162904,7.316620801667284e-06,-1.834180473379225e-05,8.07550504133836e-07,6.314957206391492e-07,-7.280333878000967e-07,5.903273765100735e-06,-5.380411466398919e-06,-0.0002541315865799104,0.00013509443783202556,7.368089223988151e-06,1.5701327093525366,6.412067684561398e-06,-0.00042515893157747946,-0.020165850520558654,0.010707188588628172,0.0005802890246340704,0.010539574411984087,0.0005087222672713244,0.0,0.0,0.0,0.0,0.0,0.0,0.02516275694931188,0.0,0.0,0.0
37,0.037,2.1412421211371616e-05,6.490127078433503e-06,2.237439455331502e-05,0.02128202063132214,1.537456833697444e-05,-1.490350397004094e-05,3.796874920480371e-05,20692.306766941696,0.9997994203840549,3.65982085845059e-05,0.026555283297862685,0.3341161446257177,0.0010001186838037327,0.3309536963070729,1.3777574590978503e-05,-1.3671846706309054e-05,-5.686422714923367e-06,0.9999999998318372,5.686330373284435e-06,-1.3672668537287325e-05,-5.686422714210301e-06,1.0000000000023404,-1.3777496843989606e-05,1.3671846710349225e-05,1.3778000236108756e-05,1.0000000001343006,7.881728365799479e-06,-1.989082055649477e-05,8.517028180499153e-07,6.690899923522924e-07,-7.735423882502757e-07,6.409032707821819e-06,-5.828892654183256e-06,-0.00027541360721123254,0.0001463928343380236,7.979760176650817e-06,1.5701438332526296,6.949166616022244e-06,-0.00044848118778433727,-0.02128202063132214,0.011298396505998025,0.0006116709526626661,0.01112390009298318,0.0005370989314608457,0.0,0.0,0.0,0.0,0.0,0.0,0.026555283297862685,0.0,0.0,0.0
38,0.038,2.3148909644375655e-05,7.026585109002695e-06,2.4191835730624637e-05,0.022427085622143673,1.6660266643789608e-05,-1.6071948639846712e-05,3.734859822883078e-05,21035.922210182416,0.9997763189571734,3.957441162779916e-05,0.027983842388575993,0.33411911758264834,0.0009999688720194705,0.3309554335886104,1.49261420112623e-05,-1.4812116705620326e-05,-6.16049474633229e-06,0.9999999998127893,6.160369680944527e-06,-1.4812952144279551e-05,-6.16049474514565e-06,0.9999999999830481,-1.492605075782933e-05,1.4812116709903358e-05,1.4926567655892953e-05,1.0000000001015756,8.47380490742733e-06,-2.15235255083511e-05,8.969380166368168e-07,7.078751029965012e-07,-8.206272287768633e-07,6.942505461575534e-06,-6.30128366412463e-06,-0.00029784069283337624,0.00015829764651119663,8.623530203443616e-06,1.5701555566677146,7.515433409356289e-06,-0.0004723910099413744,-0.022427085622143673,0.011904812173173048,0.0006437700267927992,0.011723415084874664,0.0005662667933340441,0.0,0.0,0.0,0.0,0.0,0.0,0.027983842388575993,0.0,0.0,0.0
39,0.039,2.4975374518313623e-05,7.5914995546893535e-06,2.6103643382081326e-05,0.023600948553136873,1.8014962960863234e-05,-1.7298278580510883e-05,3.6695007344722914e-05,21410.636740599242,0.9997520095736705,4.270600705295174e-05,0.02944831263716278,0.3341222505893353,0.0009998110677146683,0.3309572635560761,1.613596534655315e-05,-1.6013252021718216e-05,-6.659856556456845e-06,0.9999999997910757,6.659694189189261e-06,-1.601410297123046e-05,-6.659856555345507e-06,0.999999999961057,-1.6135858696550505e-05,1.6013252026183394e-05,1.613639099062869e-05,1.0000000000642726,9.093354138900445e-06,-2.3241999162778573e-05,9.432485101878996e-07,7.478595084618576e-07,-8.693022699779344e-07,7.504391061762643e-06,-6.798169317633903e-06,-0.00032144164138651313,0.00017082402821180697,9.30010396404023e-06,1.5701678947375208,8.111665000510085e-06,-0.0004968856535092736,-0.023600948553136873,0.012526381700610326,0.0006765737605966142,0.012338069806189352,0.0005962315911537954,0.0,0.0,0.0,0.0,0.0,0.0,0.02944831263716278,0.0,0.0,0.0
40,0.04,2.689393707705608e-05,8.185566511620218e-06,2.8112049918510214e-05,0.02480351190990857,1.944038147457305e-05,-1.8583740732908396e-05,3.6007129745397934e-05,21819.700976727974,0.9997264628041959,4.5996769835467134e-05,0.030948571761132256,0.33412554768300584,0.0009996450746388894,0.33095918848364964,1.7408545888830673e-05,-1.727674829066217e-05,-7.1851288203639285e-06,0.9999999997664087,7.184924078255524e-06,-1.727761685980239e-05,-7.18512881863938e-06,0.9999999999360766,-1.7408421748663804e-05,1.7276748295519395e-05,1.7408971532295592e-05,1.0000000000218965,9.74087191751849e-06,-2.5048311811562635e-05,9.906266612014214e-07,7.890516687444646e-07,-9.195816590800347e-07,8.09538548510777e-06,-7.32013169094279e-06,-0.0003462451532964217,0.00018398707934186854,1.0010173106379046e-05,1.570180862551698,8.738664598806632e-06,-0.000521962373308887,-0.02480351190990857,0.013163051130061575,0.0007100691423388161,0.012967814177186739,0.0006269995982965474,0.0,0.0,0.0,0.0,0.0,0.0,0.030948571761132256,0.0,0.0,0.0
41,0.041,2.8906707555027237e-05,8.809479019253259e-06,3.021927633585113e-05,0.026034677601260305,2.0938240303667534e-05,-1.992957186338986e-05,3.528412117651552e-05,22266.849145990745,0.9996996493269432,4.9450461444466557e-05,0.03248449677711948,0.3341290128884642,0.0009994706973829508,0.33096121063544803,1.8745378190576645e-05,-1.8604094625285228e-05,-7.736929516166668e-06,0.9999999997384788,7.73667679563286e-06,-1.8604983143290926e-05,-7.736929514214544e-06,0.9999999999077936,-1.8745234246650103e-05,1.8604094630121637e-05,1.874580383287583e-05,0.9999999999739166,1.0416846299377003e-05,-2.694452447574245e-05,1.039064782937249e-06,8.314600472683082e-07,-9.714793329008483e-07,8.716181657480898e-06,-7.86775011450784e-06,-0.000372279830897682,0.00019780184577786623,1.0754415726354943e-05,1.5701944751493142,9.397242237036407e-06,-0.0005476184235650512,-0.026034677601260305,0.013814766435997678,0.0007442426199758964,0.013612597616148069,0.0006585776382297762,0.0,0.0,0.0,0.0,0.0,0.0,0.03248449677711948,0.0,0.0,0.0
42,0.042,3.10157852094288e-05,9.463927068588333e-06,3.24275322483377e-05,0.027294346956862316,2.251025149763901e-05,-2.1336998609701204e-05,3.452513995256453e-05,22756.3935548209,0.9996715399283843,5.307082982620962e-05,0.034055963998198074,0.3341326502180687,0.0009992877413758723,0.3309633322655418,2.0147950071880416e-05,-1.999677362096719e-05,-8.315873937014828e-06,0.9999999997069522,8.315567062565193e-06,-1.99976846550938e-05,-8.315873934858625e-06,0.9999999998758714,-2.014778377538287e-05,1.999677362627024e-05,2.0148375713013866e-05,0.9999999999197609,1.1121757591103787e-05,-2.893268891678252e-05,1.088555137251923e-06,8.750931111380428e-07,-1.0250090196532904e-06,9.36746946170774e-06,-8.441601172475041e-06,-0.0003995741778545443,0.00021228331930483847,1.1533495812494884e-05,1.57020874751835,1.0088215336550104e-05,-0.0005738510579672001,-0.027294346956862316,0.014481473526972237,0.0007790800861399408,0.014272369035692184,0.0006909730995136967,0.0,0.0,0.0,0.0,0.0,0.0,0.034055963998198074,0.0,0.0,0.0
43,0.043000000000000003,3.3223258351828195e-05,1.0149597610477728e-05,3.4739015921107166e-05,0.028582420724974727,2.4158121034246822e-05,-2.2807237526864775e-05,3.372934697335763e-05,23293.34192945897,0.9996421055040111,5.68616093879623e-05,0.03566284903127707,0.3341364636717091,0.0009990960128814553,0.3309655556179696,2.1617742631985237e-05,-2.1456261364960483e-05,-8.922574698200236e-06,0.999999999671473,8.922206880549128e-06,-2.1457197736895334e-05,-8.922574695298977e-06,0.9999999998399487,-2.161755118016018e-05,2.145626137052027e-05,2.1618168272063976e-05,0.9999999998588163,1.1856078400707126e-05,-3.101484764737297e-05,1.139089934487636e-06,9.199593317682938e-07,-1.0801842410482057e-06,1.0049935745461199e-05,-9.042258702219788e-06,-0.000428156598579519,0.0002274464375518492,1.2348062675600229e-05,1.570223694595189,1.0812409287373491e-05,-0.0006006575297447468,-0.028582420724974727,0.015163118247010745,0.0008145668631053435,0.014947076839116306,0.0007241939508233866,0.0,0.0,0.0,0.0,0.0,0.0,0.03566284903127707,0.0,0.0,0.0
44,0.044,3.553120438011476e-05,1.0867174563729799e-05,3.71559143031101e-05,0.029898799070345823,2.588354881748354e-05,-2.4341495133092204e-05,3.2895905740282576e-05,23883.544375527814,0.9996113170590806,6.082652098220352e-05,0.03730502677473863,0.33414045723678293,0.0009988953189948818,0.3309678829267549,2.315623025861413e-05,-2.2984027442607413e-05,-9.557641743818124e-06,0.9999999996316576,9.55720553790678e-06,-2.2984992247020858e-05,-9.557641740701908e-06,0.9999999997996387,-2.3156010577954653e-05,2.2984027448332e-05,2.3156655897138556e-05,0.9999999997904259,1.2620273689811778e-05,-3.319303394225129e-05,1.1906613306411629e-06,9.66067182281029e-07,-1.1370183142406813e-06,1.0764264329297048e-05,-9.670293793979015e-06,-0.0004580553976498648,0.00024330608392881408,1.3198750363321376e-05,1.570239331264106,1.1570658043346031e-05,-0.0006280350917592264,-0.029898799070345823,0.015859646376964878,0.0008506876877211479,0.01563666891694723,0.0007582487559725407,0.0,0.0,0.0,0.0,0.0,0.0,0.03730502677473863,0.0,0.0,0.0
45,0.045,3.794168980920179e-05,1.1617338823582105e-05,3.968040305893572e-05,0.031243381571996767,2.7688228675971564e-05,-2.5940967953523065e-05,3.202398237244162e-05,24533.87907825833,0.9995791457093678,6.496927189116222e-05,0.03898237141596603,0.33414463488817525,0.0009986854676393734,0.3309703164159213,2.4764880636407582e-05,-2.458153494577786e-05,-1.0221682358757533e-05,0.9999999995870974,1.0221169616384671e-05,-2.4582531568929922e-05,-1.0221682355104667e-05,0.9999999997545279,-2.476462936327713e-05,2.4581534951505918e-05,2.4765306273155652e-05,0.9999999997138875,1.3414800822175721e-05,-3.546927184908371e-05,1.243261426586706e-06,1.0134251402759873e-06,-1.1955243536510646e-06,1.1511136014607414e-05,-1.0326274790593336e-05,-0.0004892987792218616,0.0002598770875646489,1.408617705967864e-05,1.5702556723567496,1.236380473232258e-05,-0.0006559809966143207,-0.031243381571996767,0.016571003635834816,0.0008874266963572642,0.01634109264341055,0.0007931466889765479,0.0,0.0,0.0,0.0,0.0,0.0,0.03898237141596603,0.0,0.0,0.0
46,0.046,4.045677030192479e-05,1.2400768269896333e-05,4.23146466007501e-05,0.03261606722117381,2.9573848361230325e-05,-2.7606842564279204e-05,3.111274562311575e-05,25252.48922222592,0.9995455626819222,6.92935558116813e-05,0.040694756429104986,0.3341490005882375,0.0009984662675626803,0.33097285829950895,2.644515475758169e-05,-2.6250240479530618e-05,-1.0915301174474479e-05,0.9999999995373549,1.0914702997816797e-05,-2.6251272619605415e-05,-1.0915301170028676e-05,0.9999999997041745,-2.6444868218701614e-05,2.625024048531592e-05,2.6445580392220336e-05,0.9999999996284512,1.4240109613483654e-05,-3.784557619917572e-05,1.2968822656889145e-06,1.0620416859263206e-06,-1.2557152729030386e-06,1.2291228591740554e-05,-1.1010767287376865e-05,-0.0005219148464430354,0.0002771742232467252,1.5010944469491956e-05,1.5702727326516226,1.3192702281428337e-05,-0.0006844924967835282,-0.03261606722117381,0.017297135682076314,0.0009247674098133163,0.017060294873084,0.0008288975491057565,0.0,0.0,0.0,0.0,0.0,0.0,0.040694756429104986,0.0,0.0,0.0
47,0.047,4.307849069937488e-05,1.3218137775656404e-05,4.5060798119788804e-05,0.03401675441932787,3.1542089545856384e-05,-2.934029563615725e-05,3.016136689576695e-05,26049.088424759786,0.9995105393158322,7.380305284041104e-05,0.04244205457289525,0.3341535582867674,0.0009982375283334596,0.3309755107815895,2.819850693125403e-05,-2.7991594170106993e-05,-1.1639100178761908e-05,0.9999999994819654,1.1638406870806782e-05,-2.799266585680818e-05,-1.163910017313828e-05,0.999999999648108,-2.819818112344572e-05,2.7991594175812498e-05,2.819893256322814e-05,0.9999999995333178,1.5096642379808234e-05,-4.0323952618073495e-05,1.351515833303285e-06,1.1119253020060702e-06,-1.3176037879092466e-06,1.310521684815176e-05,-1.1724334132133147e-05,-0.0005559316008623633,0.00029521221136164416,1.59736371877196e-05,1.57029052687356,1.405821405738574e-05,-0.0007135668447562816,-0.03401675441932787,0.01803798811491896,0.0009626927182276464,0.017794221937578906,0.0008655117759574042,0.0,0.0,0.0,0.0,0.0,0.0,0.04244205457289525,0.0,0.0,0.0
48,0.048,4.5808885050929245e-05,1.4070119215179167e-05,4.792099961748088e-05,0.03544534097615373,3.359462782230051e-05,-3.114249397673405e-05,2.9169020260327044e-05,26935.35898596073,0.9994740470629915,7.850142945931539e-05,0.044224137888593994,0.33415831192098955,0.0009979990603377089,0.3309782760562831,3.0026384792769534e-05,-2.9807039673368507e-05,-1.2393678723299217e-05,0.9999999994204332,1.2392879737460322e-05,-2.980815528964148e-05,-1.2393678716927202e-05,0.9999999995858279,-3.0026015361283412e-05,2.9807039678477268e-05,3.0026810421468486e-05,0.9999999994276373,1.598483398546069e-05,-4.290639753621911e-05,1.4071540535565141e-06,1.1630844745724576e-06,-1.3812024166595046e-06,1.3953772576567831e-05,-1.2467535425337277e-05,-0.000591376941838517,0.00031400571783726154,1.697482205370024e-05,1.5703090696932025,1.4961214521925009e-05,-0.0007432012932041307,-0.03544534097615373,0.018793506475617353,0.0010011848659806396,0.01854281964231583,0.0009030004645392673,0.0,0.0,0.0,0.0,0.0,0.0,0.044224137888593994,0.0,0.0,0.0
49,0.049,4.864997664391398e-05,1.4957381472714664e-05,5.089738193634014e-05,0.03690172410768692,3.573313270125877e-05,-3.301459457282403e-05,2.8134882469399125e-05,27925.477636227293,0.9994360574888732,8.339233852149735e-05,0.046040877698020705,0.33416326541553676,0.0009977506747750622,0.33098115630777386,3.193022931213818e-05,-3.1698014180125966e-05,-1.3179633535198576e-05,0.9999999993522312,1.3178717420161008e-05,-3.1699178485233154e-05,-1.3179633527531996e-05,0.9999999995168017,-3.192981152962197e-05,3.169801418514452e-05,3.193065493745095e-05,0.999999999310506,1.6905111890064273e-05,-4.5594898199468725e-05,1.4637887886803647e-06,1.2155276924717035e-06,-1.4465234829036072e-06,1.4837564583264694e-05,-1.3240928520503895e-05,-0.0006282786659462039,0.0003335693540859894,1.8015047490286273e-05,1.5703283757264659,1.5902589902278065e-05,-0.0007733930951666179,-0.03690172410768692,0.019563636248727853,0.001040225436586033,0.01930603326337165,0.0009413753803530575,0.0,0.0,0.0,0.0,0.0,0.0,0.046040877698020705,0.0,0.0,0.0
50,0.05,5.160377803264224e-05,1.5880590450824004e-05,5.399206479019869e-05,0.03838580043442529,3.795926761057163e-05,-3.495774463135564e-05,2.705813297438935e-05,29036.81910495299,0.9993965422733081,8.847941923733113e-05,0.047892144601660434,0.3341684226824327,0.0009974921836549881,0.3309841537103256,3.391147480602541e-05,-3.36659484267976e-05,-1.399755872277808e-05,0.9999999992768009,1.39965130683826e-05,-3.3667166577436985e-05,-1.3997558713572808e-05,0.9999999994404645,-3.391100354879949e-05,3.366594843122808e-05,3.391190042723036e-05,0.9999999991809643,1.7857896194350964e-05,-4.8391432679513154e-05,1.5214118371242868e-06,1.2692634466120027e-06,-1.513579117826888e-06,1.5757258696358818e-05,-1.4045068024762322e-05,-0.0006666644663806292,0.00035391767694932454,1.9094842827862827e-05,1.5703484595340103,1.688323887675871e-05,-0.0008041395042584266,-0.03838580043442529,0.02034832286333515,0.0010797953375765547,0.02008380754438233,0.0009806489744806457,0.0,0.0,0.0,0.0,0.0,0.0,0.047892144601660434,0.0,0.0,0.0
51,0.051000000000000004,5.467229106791531e-05,1.6840409078966835e-05,5.7207156794948305e-05,0.0398974659796345,4.02746898939699e-05,-3.697308162106451e-05,2.5937953941598734e-05,30290.911889375922,0.9993554732112674,9.376629716090323e-05,0.04977780847702973,0.33417378762107325,0.0009972233997930452,0.3309872704282986,3.5971548944857545e-05,-3.571226669984995e-05,-1.484804578577581e-05,0.9999999991935496,1.4846857165534217e-05,-3.5713544275697146e-05,-1.4848045775057987e-05,0.9999999993562183,-3.597101866910504e-05,3.571226670372185e-05,3.597197456101098e-05,0.9999999990379955,1.8843599687345947e-05,-5.129796988435551e-05,1.5800149308353717e-06,1.32430023150234e-06,-1.5823812615746782e-06,1.6713517774149426e-05,-1.4880505799660502e-05,-0.0007065619323602637,0.00037506518864361294,2.0214717613262162e-05,1.5703693356207038,1.790407327544133e-05,-0.0008354377748981805,-0.0398974659796345,0.021147511694288388,0.001119874785399335,0.02087608669361818,0.001020834398682622,0.0,0.0,0.0,0.0,0.0,0.0,0.04977780847702973,0.0,0.0,0.0
52,0.052000000000000005,5.785750692497537e-05,1.783749732195765e-05,6.054475549776726e-05,0.04143661616753466,4.268105080987997e-05,-3.9061733312002156e-05,2.4773530268354096e-05,31714.75841607618,0.9993128222136505,9.925658417675497e-05,0.05169773847693973,0.3341793641182115,0.0009969441368068393,0.33099050861616486,3.811187276347994e-05,-3.783838684556784e-05,-1.5731683625119786e-05,0.9999999991018498,1.5730337535831577e-05,-3.7839729873413025e-05,-1.5731683612367603e-05,0.9999999992634286,-3.811127748068393e-05,3.783838684899912e-05,3.8112298373638165e-05,0.9999999988805239,1.986262788983284e-05,-5.431646956849032e-05,1.6395897349252841e-06,1.3806465438940718e-06,-1.6529416652875117e-06,1.7707001713526665e-05,-1.574779096222001e-05,-0.0007479985485277984,0.0003970263367070199,2.137516090355869e-05,1.5703910184350849,1.8966018795923478e-05,-0.0008672851625595073,-0.04143661616753466,0.021961148063406967,0.0011604432902965302,0.021682814380977255,0.0010619455204821473,0.0,0.0,0.0,0.0,0.0,0.0,0.05169773847693973,0.0,0.0,0.0
53,0.053,6.116140613204169e-05,1.8872512188574236e-05,6.400694740695285e-05,0.04300314582168465,4.5179995530700115e-05,-4.122481781516006e-05,2.35640495991172e-05,33342.692696171944,0.9992685613080768,0.00010495387848691694,0.0536518030280425,0.33418515604794075,0.0009966542091121508,0.330993870418525,4.033386066959466e-05,-4.004572027804798e-05,-1.664905855047749e-05,0.9999999990010393,1.6647539351230695e-05,-4.0047135256425503e-05,-1.664905853529459e-05,0.9999999991614268,-4.033319392188744e-05,4.0045720280285774e-05,4.0334286272980524e-05,0.9999999987074117,2.0915379099428755e-05,-5.7448882343253673e-05,1.7001278442285717e-06,1.4383108829671472e-06,-1.7252718930263483e-06,1.8738367458424832e-05,-1.6647469886265855e-05,-0.000791001694349483,0.00041981551394766777,2.257664054475268e-05,1.57041352236882,2.0070015734179106e-05,-0.0008996789240458439,-0.04300314582168465,0.02278917724064788,0.0012014796411939917,0.02250393373521348,0.0011039969382556276,0.0,0.0,0.0,0.0,0.0,0.0,0.0536518030280425,0.0,0.0,0.0
54,0.054,6.458595859844984e-05,1.994610774026319e-05,6.759580802140667e-05,0.044596949163439294,4.7773163141459555e-05,-4.346344362266444e-05,2.2308702341566017e-05,35219.049392029825,0.9992226626396843,0.00011086176459824699,0.05563986982951295,0.3341911672716791,0.0009963534319187963,0.33099735797012375,4.263892045441864e-05,-4.2335671983639855e-05,-1.7600754290025833e-05,0.9999999988904169,1.7599045138352863e-05,-4.2337165911128516e-05,-1.7600754272108572e-05,0.9999999990495041,-4.263817528678847e-05,4.233567198469457e-05,4.263934604969988e-05,0.9999999985174566,2.2002244435159746e-05,-6.06971496869065e-05,1.7616207825255081e-06,1.4973017513390698e-06,-1.7993833240832476e-06,1.980826900828629e-05,-1.758008620405478e-05,-0.0008355986435129223,0.00044344705839298795,2.3819602435354786e-05,1.5704368617561613,2.1217019730497987e-05,-0.000932616317788925,-0.044596949163439294,0.023631544445320167,0.0012429618906021052,0.023339387341195304,0.0011470039963188813,0.0,0.0,0.0,0.0,0.0,0.0,0.05563986982951295,0.0,0.0,0.0
55,0.055,6.813312364163088e-05,2.10589350996772e-05,7.13134018589646e-05,0.046217919810335795,5.046218663941935e-05,-4.5778709644694334e-05,2.100668168251849e-05,37402.09027416311,0.9991750984719281,0.00011698381331004475,0.0576618058516854,0.3341974016381554,0.0009960416212264555,0.3310009733958666,4.5028453300233195e-05,-4.4709640532047956e-05,-1.8587351999332924e-05,0.9999999987692438,1.8585434785479073e-05,-4.4711220933680434e-05,-1.8587351978726794e-05,0.999999998926915,-4.5027622234694455e-05,4.470964053182071e-05,4.502887888646612e-05,0.999999998309391,2.3123607879038666e-05,-6.406320395468425e-05,1.8240599997665363e-06,1.5576276540659662e-06,-1.8752871542031476e-06,2.0917357426620266e-05,-1.8546180808227048e-05,-0.0008818165633232582,0.000467935253240179,2.5104469774862645e-05,1.5704610508733985,2.2408002530499403e-05,-0.000966094604172267,-0.046217919810335795,0.024488194847191006,0.0012848673395078592,0.024189117237191502,0.0011909828000014155,0.0,0.0,0.0,0.0,0.0,0.0,0.0576618058516854,0.0,0.0,0.0
56,0.056,7.180485001489977e-05,2.22116424593791e-05,7.516178248555275e-05,0.04786595077471438,5.3248692932912177e-05,-4.817170524902412e-05,1.9657183604059604e-05,39969.93805681013,0.9991258411873878,0.000123323581701963,0.05971747733502921,0.33420386298339466,0.0009957185938204898,0.33100471881083554,4.750385379193034e-05,-4.716901808299312e-05,-1.9609430272016226e-05,0.9999999986367415,1.9607285549553082e-05,-4.717069303834462e-05,-1.960943024789598e-05,0.9999999987928734,-4.7502928798493296e-05,4.716901808095482e-05,4.750427936806023e-05,0.9999999980818803,2.4279846320029996e-05,-6.754896838883707e-05,1.8874368709620448e-06,1.619297098799923e-06,-1.95299439768662e-06,2.2066280849561287e-05,-1.95462918541078e-05,-0.0009296825140979726,0.000493294326807852,2.643164229714637e-05,1.570486103938311,2.364395276121424e-05,-0.0010001110458807507,-0.04786595077471438,0.02535907356767298,0.0013271725222837238,0.025053064912319515,0.0012359502307148359,0.0,0.0,0.0,0.0,0.0,0.0,0.05971747733502921,0.0,0.0,0.0
57,0.057,7.560307593393643e-05,2.3404875090660384e-05,7.914299254313027e-05,0.049540934462270744,5.613430284102448e-05,-5.064351029722056e-05,1.825940689953302e-05,43029.826467919134,0.9990748632885756,0.0001298846131221894,0.06180674978909182,0.33421055513070497,0.0009953841672676134,0.3310085963203057,5.0066509925006386e-05,-4.9715190392873865e-05,-2.0667565146847977e-05,0.9999999984920904,2.0665172063201838e-05,-4.9716968565774455e-05,-2.0667565118431895e-05,0.9999999986465505,-5.006548239199896e-05,4.9715190388646344e-05,5.0066935488923825e-05,0.9999999978335165,2.5471329594850545e-05,-7.115635712852365e-05,1.9517426933512994e-06,1.6823185969360924e-06,-2.0325158895581883e-06,2.325568449447385e-05,-2.0580954762384136e-05,-0.0009792234485602434,0.0005195384524887576,2.7801495488757476e-05,1.570512035109615,2.4925876722230197e-05,-0.0010346629082763387,-0.049540934462270744,0.026244125680905585,0.0013698531916111062,0.02593117130403237,0.001281923961015957,0.0,0.0,0.0,0.0,0.0,0.0,0.06180674978909182,0.0,0.0,0.0
58,0.058,7.95297291036645e-05,2.4639275352200597e-05,8.325906377796846e-05,0.05124276267079271,5.912063109252101e-05,-5.319519518271005e-05,1.681255318939951e-05,46733.05090111648,0.9990221373987503,0.00013667043717591461,0.063929487991719,0.33421748189066397,0.0009950381599114274,0.3310126080197611,5.271780311488783e-05,-5.234953682320409e-05,-2.1762330117525153e-05,0.9999999983344282,2.1759666341818324e-05,-5.235142749147187e-05,-2.1762330084539813e-05,0.9999999984870772,-5.271666382012711e-05,5.234953681622877e-05,5.271822866498299e-05,0.9999999975628221,2.669842053032445e-05,-7.488727521956723e-05,2.0169686851811974e-06,1.7467006619204806e-06,-2.1138622875718077e-06,2.448621066862711e-05,-2.1650702222185475e-05,-0.0010304662112310362,0.0005466817487036585,2.9214379792158882e-05,1.5705388584864106,2.6254799191873507e-05,-0.0010697474598013374,-0.05124276267079271,0.02714329621490091,0.0014128843034014052,0.026823376795724854,0.0013289224696433114,0.0,0.0,0.0,0.0,0.0,0.0,0.063929487991719,0.0,0.0,0.0
59,0.059000000000000004,8.358672674421659e-05,2.591548269888583e-05,8.751201706810661e-05,0.05297132658887212,6.220928632544182e-05,-5.5827820866408205e-05,1.5315826937360925e-05,51300.18749935575,0.9989676362627337,0.0001436845697140675,0.06608555598829638,0.334224647061107,0.000994680390867868,0.33101675599491137,5.545910820625721e-05,-5.507343034816259e-05,-2.2894296143327608e-05,0.9999999981628487,2.2891337790613235e-05,-5.50754434352381e-05,-2.2894296105123346e-05,0.9999999983135379,-5.545784728535038e-05,5.507343033803354e-05,5.5459533740420675e-05,0.9999999972682425,2.7961474983517753e-05,-7.874361862412636e-05,2.083105983041733e-06,1.8124518112672724e-06,-2.1970440732326062e-06,2.575849877784725e-05,-2.2756064194595193e-05,-0.0010834375378199084,0.00057473827885627,3.067061979390849e-05,1.570566588107625,2.763176424843103e-05,-0.0011053619724097172,-0.05297132658887212,0.028056530152611517,0.001456240001749605,0.027729621214383368,0.0013769650565575236,0.0,0.0,0.0,0.0,0.0,0.0,0.06608555598829638,0.0,0.0,0.0
60,0.06,8.777597561697305e-05,2.723413369057966e-05,9.190386245086664e-05,0.054726516794726815,6.540187108670916e-05,-5.854243891288428e-05,1.3768435466094386e-05,57065.87234180932,0.9989113327477314,0.0001509305128223223,0.06827481709118832,0.33423205442711557,0.000994310680020742,0.3310210423217074,5.8291793482823095e-05,-5.7888237562142564e-05,-2.4064031657111684e-05,0.9999999979764017,2.4060753211741194e-05,-5.7890383669233214e-05,-2.406403161317954e-05,0.9999999981249732,-5.8290400397483445e-05,5.7888237548577026e-05,5.829221899888992e-05,0.9999999969481477,2.9260841881872945e-05,-8.272727423045225e-05,2.150145640422707e-06,1.8795805652374374e-06,-2.282071554220253e-06,2.707318533524577e-05,-2.3897567916623595e-05,-0.0011381640546146352,0.0006037220512892892,3.217051339779605e-05,1.5705952379514534,2.9057836106378966e-05,-0.0011415037220284,-0.054726516794726815,0.028983772433019212,0.0014998936038875628,0.02864984382833948,0.0014260718579479346,0.0,0.0,0.0,0.0,0.0,0.0,0.06827481709118832,0.0,0.0,0.0
61,0.061,9.209937205004781e-05,2.859586200100115e-05,9.643659914987374e-05,0.056508223255114426,6.869998183135617e-05,-6.134009152572193e-05,1.2169588973210499e-05,64563.46787014281,0.9988531998441564,0.00015841175481037014,0.07049713387934542,0.33423970776100553,0.0009939288480167942,0.33102546906635855,6.121722067620183e-05,-6.0795318688633415e-05,-2.5272102575968347e-05,0.9999999977740895,2.5268476811416592e-05,-6.0797609126996693e-05,-2.5272102525219706e-05,0.9999999979203763,-6.121568418096907e-05,6.079531867108495e-05,6.121764617145198e-05,0.9999999966008268,3.059686326323252e-05,-8.684011986217848e-05,2.21807862499368e-06,1.948095448006843e-06,-2.3689548658597246e-06,2.843090396996332e-05,-2.507573790567067e-05,-0.0011946722778697497,0.0006336470192414806,3.3714330982964434e-05,1.5706248219347985,3.053409996761133e-05,-0.0011781699890470758,-0.056508223255114426,0.029924967952191392,0.0015438175851683823,0.02958398334513911,0.001476263861232369,0.0,0.0,0.0,0.0,0.0,0.0,0.07049713387934542,0.0,0.0,0.0
62,0.062,9.655880196359376e-05,3.0001298426628267e-05,0.00010111221560191492,0.05831633532427378,7.21052089221896e-05,-6.422181158244645e-05,1.0518500547230502e-05,74698.29464732941,0.998793210666458,0.00016613177020145353,0.07275236819801426,0.33424761082231724,0.0009935347162610992,0.3310300382853476,6.423674497435528e-05,-6.37960275859939e-05,-2.6519072309216796e-05,0.9999999975548675,2.6515070207050222e-05,-6.379847441092754e-05,-2.6519072250729042e-05,0.9999999976986931,-6.423505308399529e-05,6.379602756361596e-05,6.423717044634625e-05,0.9999999962244877,3.196987431441922e-05,-9.108402428793533e-05,2.286895817382728e-06,2.01800498699419e-06,-2.4577039741420186e-06,2.9832285435942733e-05,-2.6291095964511205e-05,-0.0012529886131940236,0.0006645270808058141,3.5302314547025445e-05,1.570655353912708,3.2061662887638854e-05,-0.0012153580588405368,-0.05831633532427378,0.030880061564333525,0.001587983564061008,0.030531977909459218,0.0015275629200275239,0.0,0.0,0.0,0.0,0.0,0.0,0.07275236819801426,0.0,0.0,0.0
63,0.063,0.00010115614089475014,3.1451070895443766e-05,0.00010593268948341097,0.060150741742998025,7.561913662930475e-05,-6.718862266900328e-05,8.814386183313407e-06,89140.33549132445,0.99873133845395,0.00017409401972215958,0.07504038115865867,0.33425576735780466,0.0009931281069119654,0.3310347520254484,6.735171503313708e-05,-6.689171175722208e-05,-2.78055017690626e-05,0.9999999973176412,2.7801092434405016e-05,-6.689432780322344e-05,-2.7805501701641825e-05,0.9999999974588185,-6.734985498577976e-05,6.689171172888884e-05,6.735214047826066e-05,0.9999999958172543,3.33802034103714e-05,-9.546084723047567e-05,2.3565880082343504e-06,2.0893177140125134e-06,-2.548328675293721e-06,3.127795762070822e-05,-2.7544161186832655e-05,-0.0013131393549370217,0.0006963760788886383,3.693467683420125e-05,1.570686847677809,3.364165465674475e-05,-0.0012530652223214497,-0.060150741742998025,0.03184899808282422,0.0016323622871758042,0.031493765101139666,0.0015799917691058955,0.0,0.0,0.0,0.0,0.0,0.0,0.07504038115865867,0.0,0.0,0.0
64,0.064,0.00010589325402209192,3.294580447597698e-05,0.00011089998773650334,0.06201133063770289,7.924334312962222e-05,-7.024153911345943e-05,7.05646479903295e-06,111347.64442930819,0.9986675565716465,0.0001823019502924673,0.07736103313896031,0.3342641811014266,0.00099270884287599,0.331039612323741,7.056347298295407e-05,-7.008371235484034e-05,-2.9131949379479494e-05,0.999999997061266,2.912709995477605e-05,-7.008651127254212e-05,-2.9131949301902413e-05,0.9999999971995985,-7.056143120579646e-05,7.008371232035404e-05,7.056389839776855e-05,0.999999995377164,3.482817215133549e-05,-9.997243937595211e-05,2.4271458970992477e-06,2.1620421644704263e-06,-2.640838599633627e-06,3.276854555422077e-05,-2.883544996335915e-05,-0.0013751506855747245,0.0007292078011698692,3.86116004485081e-05,1.5707193169597424,3.527522869606047e-05,-0.0012912887765264944,-0.06201133063770289,0.03283172228123089,0.0016769236143068535,0.032469281933273544,0.0016335740393157263,0.0,0.0,0.0,0.0,0.0,0.0,0.07736103313896031,0.0,0.0,0.0
65,0.065,0.00011077199619001655,3.448612138615336e-05,0.00011601606659502616,0.063897989519664,8.29794005066e-05,-7.338156601957233e-05,5.243958250356347e-06,149834.18872099373,0.9986018385110972,0.00019075899501604543,0.07971418378308205,0.3342728557743371,0.0009922767478027874,0.3310446212076289,7.387335443898024e-05,-7.337336419288576e-05,-3.049897108553523e-05,0.9999999967845457,3.0493646662158426e-05,-7.337636048390661e-05,-3.0498970996985445e-05,0.9999999969198253,-7.387111651111418e-05,7.337336415081872e-05,7.387377981965537e-05,0.999999994902165,3.631409540105768e-05,-0.00010462064238286797,2.4985600893256965e-06,2.2361868784525027e-06,-2.735243212192844e-06,3.430467141768441e-05,-3.0165475988594815e-05,-0.0014390486750943884,0.0007630359800641817,4.0333236952014116e-05,1.570752775424593,3.696356296854766e-05,-0.0013300260252356658,-0.063897989519664,0.033828178894312576,0.001721636503506013,0.033458464850447234,0.0016883342724871898,0.0,0.0,0.0,0.0,0.0,0.0,0.07971418378308205,0.0,0.0,0.0
66,0.066,0.00011579421193275411,3.607264100224333e-05,0.00012128287161015071,0.06581060528425269,8.682887474970129e-05,-7.660969929995217e-05,3.376091347159643e-06,232732.98986554428,0.9985341578912262,0.00019946857317080176,0.08209969200200842,0.3342817950848773,0.0009918316460798898,0.33104978069485436,7.72826885104827e-05,-7.676199575046283e-05,-3.1907120364937924e-05,0.9999999964862306,3.190128389044636e-05,-7.676520480719151e-05,-3.1907120263491526e-05,0.9999999966182385,-7.72802391249557e-05,7.676199569998411e-05,7.728311385241105e-05,0.999999994390115,3.783828132331024e-05,-0.00010940728889120008,2.5708210951158605e-06,2.3117604005712318e-06,-2.8315518147625016e-06,3.5886954552419084e-05,-3.153475026822156e-05,-0.0015048592803786412,0.0007978742926832071,4.209970594819595e-05,1.5707872366743199,3.870786090484828e-05,-0.0013692742796267425,-0.06581060528425269,0.03483831261902532,0.001766468996181831,0.03446124972699189,0.0017442979363006177,0.0,0.0,0.0,0.0,0.0,0.0,0.08209969200200842,0.0,0.0,0.0
67,0.067,0.00012096173549782638,3.770597986783222e-05,0.00012670233767551203,0.06774906421029696,9.079332575406387e-05,-7.99269257081996e-05,1.4520918692786735e-06,541103.1911485806,0.998464488459175,0.00020843409019967197,0.0845174159741139,0.33429100272856727,0.0009913733628271353,0.3310550927935156,8.079279780970339e-05,-8.025092918240162e-05,-3.335694823425328e-05,0.9999999961650158,3.335056042062012e-05,-8.025436732559538e-05,-3.335694811876607e-05,0.9999999962935218,-8.079012073514541e-05,8.0250929122231e-05,8.079322310827752e-05,0.9999999938387775,3.94010314184734e-05,-0.00011433420253100857,2.643919326472677e-06,2.38877127992225e-06,-2.929773547962284e-06,3.751601146874822e-05,-3.29437811271855e-05,-0.0015726083445889382,0.0008337363607986879,4.3911094150424775e-05,1.5708227142461852,4.0509352343972874e-05,-0.0014090308589639403,-0.06774906421029696,0.03586206811548083,0.001811388202228827,0.03547757186540747,0.0018014914391245934,0.0,0.0,0.0,0.0,0.0,0.0,0.0845174159741139,0.0,0.0,0.0
68,0.068,0.00012627639086936477,3.938675170274355e-05,0.00013227638905218936,0.06971325195948085,9.48743073201636e-05,-8.333422287098058e-05,5.288094180939566e-07,1485857.357646868,0.9983928040911463,0.00021765893770165213,0.08696721314585183,0.3343004823880988,0.0009909017238912345,0.33106055950208246,8.440499846118499e-05,-8.3841480325475e-05,-3.4849003262227285e-05,0.9999999958195411,3.484202248796077e-05,-8.384516484525456e-05,-3.484900313049038e-05,0.999999995944303,-8.440207650133522e-05,8.384148025458726e-05,8.440542371079829e-05,0.9999999932458199,4.1002640559173464e-05,-0.00011940319793122623,2.7178450957010547e-06,2.467228071253949e-06,-3.029917392175721e-06,3.919245585485272e-05,-3.439307421850948e-05,-0.0016423215965484191,0.0008706357508066085,4.5767454435618805e-05,1.57085922161218,4.2369294488800906e-05,-0.0014492930913239735,-0.06971325195948085,0.036899390007920696,0.0018563602851940286,0.03650736599479911,0.0018599421448280292,0.0,0.0,0.0,0.0,0.0,0.0,0.08696721314585183,0.0,0.0,0.0
69,0.069,0.0001317399917913491,4.111556741204256e-05,0.0001380069393936368,0.07170305357589883,9.907336715322971e-05,-8.683255932025213e-05,2.567378748522551e-06,306047.2851067273,0.9983190787932493,0.00022714649342307248,0.08944894023271904,0.3343102377333277,0.0009904165558400975,0.33106618280941297,8.81206001106527e-05,-8.753495870816863e-05,-3.6383831576003445e-05,0.9999999954483885,3.637621378923708e-05,-8.753890790348662e-05,-3.638383142636787e-05,0.9999999955691521,-8.81174150640063e-05,8.753495862456016e-05,8.812102530536547e-05,0.9999999926088119,4.264339702653164e-05,-0.00012461608072820778,2.7925886132984523e-06,2.547139334353234e-06,-3.131992169862929e-06,4.091689858571302e-05,-3.588313253286814e-05,-0.001714024650124318,0.0009085859736922899,4.766880488308568e-05,1.5708967721784495,4.428897287635109e-05,-0.0014900583143586566,-0.07170305357589883,0.037950222885681416,0.0019013504474668804,0.03755056626949225,0.0019196783875501796,0.0,0.0,0.0,0.0,0.0,0.0,0.08944894023271904,0.0,0.0,0.0
70,0.07,0.00013735434178994732,4.289303509494438e-05,0.00014389589176972984,0.07371835348558792,0.00010339204686300015,-9.042289452360173e-05,4.664379338719897e-06,168456.14007323913,0.9982432867023503,0.00023690012124909997,0.09196245322027312,0.33432027242126794,0.00098991768595698,0.3310719646947696,9.194090593389603e-05,-9.13326675555659e-05,-3.796197687355729e-05,0.9999999950500809,3.79536754899272e-05,-9.133690077799822e-05,-3.796197670374775e-05,0.9999999951665793,-9.193743855174978e-05,9.13326674583017e-05,9.194133106749103e-05,0.9999999919252203,4.432358254430335e-05,-0.00012997464757409758,2.868139985623408e-06,2.62851363514795e-06,-3.2360065469123695e-06,4.2689947731922926e-05,-3.741445640896455e-05,-0.001787743003609906,0.0009476004849963999,4.961512779860538e-05,1.5709353792847172,4.626970236278743e-05,-0.0015313238760964081,-0.07371835348558792,0.03901451130410992,0.001946322915519697,0.03860710626766645,0.0019807294864363435,0.0,0.0,0.0,0.0,0.0,0.0,0.09196245322027312,0.0,0.0,0.0
71,0.07100000000000001,0.0001431212341959942,4.471976005395603e-05,0.000149945138691016,0.07575903549622127,0.00010783188196302002,-9.41061789156071e-05,6.820571372955953e-06,115202.59130637092,0.9981654020869218,0.0002469231711954792,0.09450760736543662,0.33433059009608534,0.0009894049422345202,0.3310779071278351,9.586721264653875e-05,-9.523590380045022e-05,-3.958398043168998e-05,0.9999999946230802,3.9574946231400394e-05,-9.524044149530897e-05,-3.9583980239318694e-05,0.9999999947350344,-9.586344259021239e-05,9.523590368727859e-05,9.586763771185502e-05,0.9999999911924106,4.60434723137948e-05,-0.00013548068614508974,2.944489213618784e-06,2.71135954512738e-06,-3.341969034795713e-06,4.451220856878385e-05,-3.898754354474534e-05,-0.0018635020391061274,0.0009876926847819168,5.160636872377642e-05,1.5709750562037073,4.831282812312031e-05,-0.0015730871357807889,-0.07575903549622127,0.04009219978551696,0.0019912409251710383,0.03967691899012116,0.00204312576033288,0.0,0.0,0.0,0.0,0.0,0.0,0.09450760736543662,0.0,0.0,0.0
72,0.07200000000000001,0.00014904245216700108,4.6596344803640025e-05,0.00015615656213240775,0.07782498279683973,0.00011239440187051703,-9.788335392762419e-05,9.036711987412034e-06,86951.069118372,0.9980853993478951,0.00025721897940049525,0.09708425719793184,0.33434119438909204,0.0009888781533687015,0.3310840120687293,9.990081051292066e-05,-9.924595808863401e-05,-4.125038111624235e-05,0.9999999941657877,4.124056213813003e-05,-9.925082184049708e-05,-4.12503808987775e-05,0.9999999942729038,-9.989671630915458e-05,9.924595795765545e-05,9.990123550135399e-05,0.9999999904076412,4.7803335047780227e-05,-0.0001411359751496118,3.0216261897586527e-06,2.7956856426600085e-06,-3.4498879913873752e-06,4.638428358500341e-05,-4.0602889009497794e-05,-0.0019413270219029671,0.001028875917601981,5.36424354306777e-05,1.5710158161405663,5.041972666556833e-05,-0.00161534546475246,-0.07782498279683973,0.041183232820064156,0.002036066706901282,0.04075993685913356,0.0021068985424480156,0.0,0.0,0.0,0.0,0.0,0.0,0.09708425719793184,0.0,0.0,0.0
73,0.073,0.00015511976870893963,4.8523389079743084e-05,0.00016253203355677014,0.07991607795771197,0.00011708112990549385,-0.00010175535201830576,1.1313555254610287e-05,69452.6291507134,0.9980032530195144,0.0002677908681171688,0.09969225652197292,0.3343520889187409,0.0009883371487525484,0.33109028146802494,0.00010404298335409123,-0.00010336411478784058,-4.2961715391864885e-05,0.9999999936765404,4.295105682486143e-05,-0.0001033693273651895,-4.296171514651099e-05,0.9999999937785122,-0.00010403854235084068,0.00010336411463745046,0.00010404340825742597,0.9999999895680629,4.9603433004474784e-05,-0.00014694228433624384,3.0995406969380745e-06,2.8815005129586723e-06,-3.5597716235631196e-06,4.830677249171201e-05,-4.226098525686694e-05,-0.002021243099860679,0.0010711634724686753,5.572319690188299e-05,1.5710576722322838,5.259180686052935e-05,-0.0016580962473691486,-0.07991607795771197,0.042287554866694256,0.002080761471205295,0.041856091717420815,0.0021720801949610237,0.0,0.0,0.0,0.0,0.0,0.0,0.09969225652197292,0.0,0.0,0.0
74,0.074,0.00016135494669731811,5.05014898480432e-05,0.00016907341393775183,0.08203220293021267,0.00012189358329047182,-0.00010572309670220132,1.3651852167902738e-05,57557.073918405455,0.997918937770193,0.00027864214570566775,0.10233145841806418,0.3343632772906215,0.0009877817584696212,0.3310967172667643,0.00010829500855846774,-0.00010759165199791809,-4.4718517331787666e-05,0.9999999931536102,4.470696140379535e-05,-0.0001075972373980709,-4.471851705530595e-05,0.9999999932501175,-0.00010829019687842915,0.00010759165182509974,0.00010829543336643432,0.9999999886707154,5.144402202011955e-05,-0.00015290137450143506,3.1782224056420283e-06,2.968812748044008e-06,-3.6716279872790598e-06,5.028027223138406e-05,-4.3962322138835156e-05,-0.0021032753027908917,0.001114568582822671,5.7848482295868125e-05,1.5711006375471108,5.4830510984119684e-05,-0.001701336881968214,-0.08203220293021267,0.04340511035399573,0.002125285393985132,0.04296531482716082,0.002238704123590331,0.0,0.0,0.0,0.0,0.0,0.0,0.10233145841806418,0.0,0.0,0.0
75,0.075,0.00016774973889870995,5.253124131342208e-05,0.0001757825537831168,0.08417323904687943,0.00012683327314954543,-0.0001097875025800206,1.605235062590871e-05,48950.16991529668,0.9978324284033689,0.00028977610662594695,0.10500171524513262,0.33437476309745484,0.0009872118132876432,0.3311033213964748,0.00011265815708894067,-0.00011192984155394825,-4.652131862714626e-05,0.9999999925952032,4.650880449176455e-05,-0.00011193582505160393,-4.6521318316011405e-05,0.9999999926859117,-0.0001126529495833079,0.00011192984135628692,0.00011265858179149157,0.9999999877125232,5.332535154256579e-05,-0.00015901499749735335,3.257660873057233e-06,3.0576309477599722e-06,-3.7854649914419426e-06,5.230537698664307e-05,-4.570738692070882e-05,-0.002187448541837771,0.0011591044265037878,6.00180798978651e-05,1.57114472508398,5.713731577623645e-05,-0.0017450647818736645,-0.08417323904687943,0.04453584368111675,0.002169597601996972,0.04408753686918197,0.002306804792116764,0.0,0.0,0.0,0.0,0.0,0.0,0.10500171524513262,0.0,0.0,0.0
76,0.076,0.0001743058879907728,5.4613234928821304e-05,0.00018266129315660297,0.08633906702141393,0.00013190170450797523,-0.00011394947536581709,1.8515795417187667e-05,42437.82241992237,0.997743699858364,0.0003011960314305964,0.10770287864267233,0.3343865499190909,0.000986627144651468,0.3311100957791854,0.00011713369349397595,-0.00011637994903823667,-4.8370648596307575e-05,0.9999999919994587,4.8357112217349594e-05,-0.00011638635723379073,-4.837064824722315e-05,0.9999999920840182,-0.00011712806369298507,0.00011637994881309038,0.00011713411807956486,0.9999999866902973,5.5247664662305684e-05,-0.00016528489623907452,3.3378455404076135e-06,3.147963720214815e-06,-3.901290396758719e-06,5.438267818935545e-05,-4.7496664297151765e-05,-0.002273787608859185,0.0012047841257223856,6.223173605620697e-05,1.5711899477719222,5.951373351309265e-05,-0.0017892773764429468,-0.08633906702141393,0.045679699218597866,0.0022136561583418687,0.04522268794212886,0.0023764177368562032,0.0,0.0,0.0,0.0,0.0,0.0,0.10770287864267233,0.0,0.0,0.0
77,0.077,0.0001810251265833422,5.6748059404016854e-05,0.00018971146170075463,0.08852956694895613,0.00013710037629129627,-0.00011820991191647628,2.1042928204526942e-05,37341.51919024741,0.9976527272112415,0.00031290518675790947,0.11043479953334852,0.33439864132250363,0.0009860275846764173,0.331117042327443,0.00012172287591516451,-0.00012094323378741834,-5.0267034196860294e-05,0.9999999913644446,5.025240822804674e-05,-0.00012095009465498685,-5.026703380498079e-05,0.999999991442491,-0.00012171679597975686,0.00012094323353150672,0.00012172330037102386,0.9999999856007291,5.721119814583453e-05,-0.00017171280471214238,3.418765730900386e-06,3.2398196814640237e-06,-4.019111819512307e-06,5.6512764529225434e-05,-4.9330636409316336e-05,-0.002362317175808141,0.0012516207470316379,6.448915410420878e-05,1.5712363184694842,6.19613130941708e-05,-0.0018339721121645735,-0.08852956694895613,0.04683662130925235,0.0022574180480017985,0.046370697561903325,0.002447579581078146,0.0,0.0,0.0,0.0,0.0,0.0,0.11043479953334852,0.0,0.0,0.0
78,0.078,0.000187909177238035,5.893630071473005e-05,0.00019693487865843457,0.09074461830628877,0.0001424307813243169,-0.00012256970025915844,2.3634487509785946e-05,33247.17323506895,0.9975594856756673,0.000324906825325163,0.11319732812561074,0.33441104086178863,0.000985412966140939,0.3311241629443281,0.00012642695609654808,-0.0001256209488991189,-5.221100003094392e-05,0.999999990688159,5.2195213697331705e-05,-0.00012562829183815696,-5.221099959240943e-05,0.9999999907593129,-0.000126420396767655,0.00012562094860949988,0.00012642738040868906,0.9999999844403891,5.921618246640392e-05,-0.00017830044797944916,3.500410648560326e-06,3.333207456880489e-06,-4.138936731929098e-06,5.869622196287912e-05,-5.1209782863111384e-05,-0.00245306179411443,0.001299627301300652,6.678999326764698e-05,1.5712838499641453,6.448164114354827e-05,-0.0018791464537950473,-0.09074461830628877,0.048006554269014186,0.0023008391634382077,0.047531494661035435,0.0025203280493774696,0.0,0.0,0.0,0.0,0.0,0.0,0.11319732812561074,0.0,0.0,0.0
79,0.079,0.0001949597524880856,6.11785421113601e-05,0.0002043333528944481,0.09298409995219667,0.0001478944063303926,-0.00012702971961866557,2.629120869831168e-05,29887.747949346827,0.9974639506037702,0.0003372041859221056,0.11599031391661194,0.33442375207816066,0.0009847831224794681,0.3311314595234709,0.00013124717939305697,-0.00013041434124261286,-5.420306835990374e-05,0.9999999899685281,5.41860473317703e-05,-0.00013042219712787115,-5.420306786937904e-05,0.9999999900323937,-0.00013124010994094865,0.000130414340915019,0.00013124760354688014,0.9999999832057229,6.126284183505248e-05,-0.00018504954218831905,3.5827693761203427e-06,3.42813568098479e-06,-4.26077246379085e-06,6.093363372256755e-05,-5.313458074865851e-05,-0.0025460458940666265,0.0013488167436884223,6.91338675578804e-05,1.5713325549717334,6.707634312553498e-05,-0.0019247978855471272,-0.09298409995219667,0.049189442387770385,0.0023438742902334156,0.0487050075882383,0.0025947019819867133,0.0,0.0,0.0,0.0,0.0,0.0,0.11599031391661194,0.0,0.0,0.0
80,0.08,0.000202178554857635,6.34753641280853e-05,0.0002119086829167572,0.09524789012790577,0.0001534927319305025,-0.00013159084044428633,2.9013823963768202e-05,27083.30569064362,0.997366097487002,0.00034980049340464846,0.11881360569534109,0.33443677849995124,0.0009841378877748419,0.33113893394906785,0.00013618478478116813,-0.00013532465146326444,-5.624375911006396e-05,0.9999999892034038,5.6225425378052746e-05,-0.00013533305269911727,-5.6243758562137844e-05,0.9999999892595695,-0.000136177172951592,0.0001353246510941604,0.00013618520875979812,0.9999999818930523,6.335139423135905e-05,-0.00019196179457714468,3.6658308726345012e-06,3.524612998308621e-06,-4.384626204252559e-06,6.322558032516706e-05,-5.510550466098029e-05,-0.0026412937841945325,0.0013992019736185938,7.152034465067695e-05,1.5713824461358414,6.974708447456784e-05,-0.0019709239123217826,-0.09524789012790577,0.05038522993017158,0.0023864770927965527,0.049891164108067106,0.0026707413490328564,0.0,0.0,0.0,0.0,0.0,0.0,0.11881360569534109,0.0,0.0,0.0
81,0.081,0.00020956727688103667,6.582734459135784e-05,0.00021966265689753108,0.09753586645766109,0.00015922723264167433,-0.00013625392443743787,3.180306231261118e-05,24708.17522695966,0.9972659019569997,0.0003626989586887697,0.12166705154603882,0.334450123642606,0.0009834770967506114,0.3311465880958971,0.00014124100486512248,-0.0001403531139949621,-5.833358988382997e-05,0.9999999883905624,5.831386163002445e-05,-0.00014036209456738669,-5.833358927291205e-05,0.9999999884386004,-0.00014123281682722772,0.0001403531135796398,0.00014124142865118428,0.9999999804985682,6.548205143458441e-05,-0.00019903890348192156,3.749583972367798e-06,3.6226480637188153e-06,-4.510505002367276e-06,6.557263958069266e-05,-5.7123026721973465e-05,-0.0027388296506521935,0.0014507958347550788,7.394894475079767e-05,1.571433536027242,7.249557173930402e-05,-0.0020175220609931765,-0.09753586645766109,0.05159386113648505,0.0024286001001207233,0.051089891400663126,0.0027484872647361835,0.0,0.0,0.0,0.0,0.0,0.0,0.12166705154603882,0.0,0.0,0.0
82,0.082,0.00021712760112117924,6.823505862907428e-05,0.00022759705269346332,0.09984790594927813,0.00016509937687617576,-0.00014101982457703901,3.465964954912073e-05,22671.929710662658,0.9971633397864469,0.00037590277874461356,0.1245504988517108,0.33446379100868456,0.0009828005847631839,0.3311544238293343,0.00014641706588891523,-0.00014550095706500343,-6.047307596990237e-05,0.999999987527704,6.0451867435666585e-05,-0.00014551055259681353,-6.047307528951285e-05,0.9999999875671695,-0.0001464082661794126,0.00014550095659848945,0.0001464174894623138,0.9999999790183305,6.765501905231508e-05,-0.0002062825583426126,3.834017383297361e-06,3.722249542487931e-06,-4.638415769591232e-06,6.79753866013652e-05,-5.91876166037115e-05,-0.0028386775566014715,0.0015036111149784542,7.641913944240043e-05,1.5714858371433036,7.532355374084668e-05,-0.002064589881738032,-0.09984790594927813,0.05281528022337539,0.002470194691602753,0.052301116061564214,0.002827982001542669,0.0,0.0,0.0,0.0,0.0,0.0,0.1245504988517108,0.0,0.0,0.0
83,0.083,0.00022486120018814376,7.069907867901774e-05,0.0002357136378661922,0.10218388499492805,0.00017111062693985464,-0.0001458893851460882,3.7584308259711564e-05,20907.841794468874,0.997058386889935,0.0003894151365907908,0.12746379429804527,0.3344777840878578,0.0009821081877936374,0.33116244300536923,0.00015171418774162504,-0.00015076940270297712,-6.266273035171466e-05,0.9999999866124494,6.263995170405574e-05,-0.0001507796505100696,-6.266272959485686e-05,0.9999999866428808,-0.00015170473921006784,0.00015076940218032402,0.00015171461108187678,0.9999999774482655,6.987049655132749e-05,-0.0002136944397091847,3.919119684447914e-06,3.823426112165657e-06,-4.768365280505297e-06,7.043439380997342e-05,-6.129974155313214e-05,-0.0029408614415963995,0.0015576605463631633,7.893035052533081e-05,1.5715393619074054,7.823282274505216e-05,-0.0021121249494206393,-0.10218388499492805,0.0540494313847091,0.0025112110829303863,0.053524764101708255,0.0029092690042054796,0.0,0.0,0.0,0.0,0.0,0.0,0.12746379429804527,0.0,0.0,0.0
84,0.084,0.000232769736756875,7.321997449797054e-05,0.0002440141697019834,0.10454367937188457,0.00017726243903092663,-0.0001508634417566697,4.0577757798226935e-05,19365.59776623111,0.996951019324825,0.0004032392012888751,0.1304067838774151,0.3344921063569085,0.000981399742439407,0.3311706474706212,0.00015713358396984844,-0.00015615966675008863,-6.490306371720322e-05,0.99999998564234,6.487862091226293e-05,-0.0001561706058977319,-6.490306287652996e-05,0.9999999856632581,-0.00015712344772114944,0.00015615966616593611,0.0001571340070538052,0.9999999757841631,7.212867728567662e-05,-0.00022127621924751724,4.0048793250591075e-06,3.926186461187442e-06,-4.9003601741075066e-06,7.295023094904817e-05,-6.345986641815469e-05,-0.003045405120968284,0.0016129568051555005,8.148194883734885e-05,1.5715941226683527,8.122521564883602e-05,-0.0021601248650225426,-0.10454367937188457,0.05529625879233715,0.0025515983120180416,0.05476076094742773,0.002992392903783859,0.0,0.0,0.0,0.0,0.0,0.0,0.1304067838774151,0.0,0.0,0.0
85,0.085,0.0002408548635851844,7.579831317011679e-05,0.00025250039523151815,0.106927164243493,0.00018355626323790503,-0.00015594282137621211,4.3640714270247273e-05,18006.543821950032,0.9968412132921083,0.0004173781279381004,0.13337931289328606,0.3345067612797299,0.0009806750859057082,0.3311790390623544,0.00016267646178391715,-0.00016167295886626576,-6.719458446902138e-05,0.9999999846148357,6.71683791122231e-05,-0.00016168463022725107,-6.719458353624165e-05,0.9999999846257439,-0.00016266559712048933,0.0001616729582144226,0.00016267688458687646,0.999999974021673,7.442974852678308e-05,-0.000229029559745048,4.091284623086722e-06,4.030539291349736e-06,-5.034406955465994e-06,7.552346508908832e-05,-6.566845367528637e-05,-0.0031523322852117772,0.0016695125117524017,8.40732530623768e-05,1.5716501316997933,8.43026151804298e-05,-0.002208587257131676,-0.106927164243493,0.0565557065969012,0.0025913042250279602,0.056009031440646596,0.003077399531593773,0.0,0.0,0.0,0.0,0.0,0.0,0.13337931289328606,0.0,0.0,0.0
86,0.08600000000000001,0.0002491182235309033,7.843465911578341e-05,0.0002611740512489751,0.10933421416014162,0.00018999354353814045,-0.00016112834235172647,4.677389051849785e-05,16800.49399700322,0.9967289451372671,0.0004318350576702455,0.13638122596476268,0.33452175230732545,0.0009799340559967819,0.3311876196084946,0.00016834402206811205,-0.00016731048253948444,-6.953779873253296e-05,0.9999999835273129,6.95097279375387e-05,-0.0001673229288523502,-6.953779769929141e-05,0.999999983527697,-0.00016833238643113456,0.00016731048181301174,0.00016834444456353959,0.9999999721563034,7.677389149146618e-05,-0.0002369561151162403,4.178323763037728e-06,4.136493316756096e-06,-5.170511996972139e-06,7.815466063734616e-05,-6.792596345876651e-05,-0.0032616664993719187,0.001727340230680982,8.670352852481818e-05,1.5717074011996324,8.746695111350148e-05,-0.0022575097834801523,-0.10933421416014162,0.05782771892858044,0.002630275462441377,0.05726949983913674,0.003164335933071683,0.0,0.0,0.0,0.0,0.0,0.0,0.13638122596476268,0.0,0.0,0.0
87,0.08700000000000001,0.00025756144956847946,8.11295741000497e-05,0.00027003686433054255,0.11176470306031704,0.00019657571779604777,-0.00016642081443372393,4.997799610721068e-05,15723.532297767826,0.9966141913511345,0.00044661311764470615,0.13941236703137472,0.33453708287781037,0.0009791764911067482,0.3311963909276445,0.00017413745938954506,-0.00017307343509243012,-7.193321036735867e-05,0.9999999823770643,7.190316661027457e-05,-0.00017308670102306536,-7.193320922395548e-05,0.9999999823663902,-0.00017412500829768978,0.00017307343428447572,0.0001741378815479644,0.9999999701834182,7.916128136942202e-05,-0.00024505753040765846,4.265984794527e-06,4.24405726576383e-06,-5.308681538948204e-06,8.084437934636151e-05,-7.023285359130342e-05,-0.0033734312024322356,0.0017864524705788246,8.937198597003353e-05,1.5717659432894493,9.072020149508251e-05,-0.002306890132536906,-0.11176470306031704,0.059112239897842596,0.0026684574452153615,0.05854208981684904,0.0032532503815810307,0.0,0.0,0.0,0.0,0.0,0.0,0.13941236703137472,0.0,0.0,0.0
88,0.088,0.0002661861648061787,8.388361724142661e-05,0.00027909055085353267,0.11421850427187805,0.00020330421776025917,-0.0001718210388023402,5.325373730755993e-05,14756.465598578448,0.996496928570754,0.0004617154210437703,0.14247257935827884,0.33455275641641036,0.0009784022302104214,0.3312053548290987,0.00018005796200570856,-0.00017896300769315587,-7.438132097492556e-05,0.9999999811612952,7.434919194764359e-05,-0.0001789771398948009,-7.438131971085445e-05,0.9999999811390121,-0.0001800446489952144,0.00017896300679551974,0.00018005838379614447,0.9999999680982348,8.159208735281087e-05,-0.0002533354418030058,4.3542556320552706e-06,4.353239880365495e-06,-5.448921691251058e-06,8.35931803226362e-05,-7.258957961645819e-05,-0.0034876497067041134,0.0018468616841750812,9.207778033102776e-05,1.5718257700139138,9.406439388721938e-05,-0.0023567260251547645,-0.11421850427187805,0.06040921359625657,0.0027057943609942263,0.05982672446441168,0.003344192392136857,0.0,0.0,0.0,0.0,0.0,0.0,0.14247257935827884,0.0,0.0,0.0
89,0.089,0.0002749939825015183,8.669734502014241e-05,0.00028833681701369144,0.11669549051325676,0.00021018046906231717,-0.00017732980808873064,5.660181708221594e-05,13883.713077565935,0.9963771335802363,0.00047714506706806004,0.14556170554152117,0.3345687763354642,0.0009776111128536448,0.3312145131128605,0.00018610671187468952,-0.00018498038535996741,-7.688262990779293e-05,0.9999999798771242,7.684829836867316e-05,-0.00018499543253703427,-7.688262851224371e-05,0.9999999798426611,-0.00018609248843606704,0.0001849803843650532,0.00018610713326283612,0.9999999658958187,8.406647266184786e-05,-0.00026179147662768083,4.44312405167846e-06,4.464049917640029e-06,-5.591238435205303e-06,8.640162003478355e-05,-7.499659483273476e-05,-0.00360434519721737,0.0019085802682722401,9.482000948144151e-05,1.5718868933402035,9.750160662227594e-05,-0.002407015216276563,-0.11669549051325676,0.0617185840971589,0.00274222915041376,0.06112332628970749,0.003437212735056567,0.0,0.0,0.0,0.0,0.0,0.0,0.14556170554152117,0.0,0.0,0.0
90,0.09,0.00028398650607793993,8.957131128664345e-05,0.0002977773588437586,0.11919553389494426,0.00021720589121316118,-0.0001829479064013932,6.002293507073348e-05,13092.49494011855,0.9962547833116172,0.0004929051409321804,0.14867958751379157,0.334585146034423,0.000976802979143594,0.3312238675696561,0.00019228488466271898,-0.00019112674697474574,-7.943763428031048e-05,0.9999999785215792,7.940097790078851e-05,-0.00019114275994394983,-7.943763274125738e-05,0.999999978474347,-0.0001922697001776949,0.00019112674587309225,0.00019228530561227197,0.9999999635710842,8.658459457439038e-05,-0.0002704272533533042,4.532577691784834e-06,4.576496150236144e-06,-5.735637623635035e-06,8.927025232206972e-05,-7.745435032942969e-05,-0.0037235407311123144,0.0019716205637287216,9.75977129749092e-05,1.5719493251574221,0.00010103397007181295,-0.002457755496694922,-0.11919553389494426,0.06304029545648158,0.0027777034934676767,0.06243181721855551,0.003532363449537004,0.0,0.0,0.0,0.0,0.0,0.0,0.14867958751379157,0.0,0.0,0.0
91,0.091,0.00029316532913935923,9.250606727010616e-05,0.0003074138622300078,0.12171850592087731,0.00022438189760146178,-0.00018867610934656797,6.351778757423957e-05,12372.230377102793,0.9961298548457123,0.0005089987138605312,0.15182606655021746,0.33460186889985377,0.0009759776697385592,0.33123341998095146,0.0001985936497543861,-0.00019740326528694396,-8.204682897661186e-05,0.999999977091599,8.200772018635783e-05,-0.00019742029704396605,-8.204682728109913e-05,0.9999999770309885,-0.00019857745143053533,0.00019740326406867716,0.0001985940702261546,0.9999999611187917,8.914660445052958e-05,-0.00027924438160172125,4.622604049875356e-06,4.690587366738452e-06,-5.882124982003095e-06,9.21996284028981e-05,-7.996329502429866e-05,-0.003845259237033192,0.002035994855442125,0.000100409870770864,1.5720130772760177,0.00010466366792896073,-0.002508944694868977,-0.12171850592087731,0.06437429171340314,0.0028121577959548125,0.06375211859548395,0.00362969785714777,0.0,0.0,0.0,0.0,0.0,0.0,0.15182606655021746,0.0,0.0,0.0
92,0.092,0.00030253203548579,9.5502161586532e-05,0.000317248002929688,0.12426427749008737,0.00023170989548992126,-0.0001945151840531317,6.708706754092579e-05,11714.084395108026,0.9960023254129722,0.0005254288430833142,0.15500098327464187,0.3346189483054397,0.000975135025837638,0.3312431721189663,0.00020503417026018766,-0.00020381110692380133,-8.471070665994063e-05,0.9999999755840292,8.466901248912627e-05,-0.00020382921270853047,-8.471070479416359e-05,0.9999999755094114,-0.00020501690306597484,0.00020381110557863777,0.00020503459021165016,0.9999999585335411,9.175264776084546e-05,-0.0002882444621489185,4.713190483118801e-06,4.806332371992974e-06,-6.030706110264323e-06,9.519029688283161e-05,-8.252387570310249e-05,-0.003969523514523279,0.0021017153723332568,0.00010325540194687421,1.5720781614272024,0.00010839293850419912,-0.002560580678803835,-0.12426427749008737,0.0657205168911321,0.002845531176010198,0.06508415118464057,0.0037292705752383975,0.0,0.0,0.0,0.0,0.0,0.0,0.15500098327464187,0.0,0.0,0.0
93,0.093,0.0003120881991278612,9.856014024714748e-05,0.0003272814465875035,0.126832718898373,0.00023919128601265793,-0.00020046588919434244,7.07314645508815e-05,11110.622270714533,0.9958721723943322,0.0005421985718327139,0.15820417766608927,0.33463638761198267,0.0009742748891700924,0.33125312574669047,0.00021160760302585402,-0.00021035143239922505,-8.742975778197604e-05,0.999999973995621,8.738533970061366e-05,-0.0002103706697620597,-8.742975573106725e-05,0.9999999739063474,-0.00021158920962264374,0.0002103514309158474,0.00021160802241154686,0.9999999558097739,9.440286411233068e-05,-0.00029742908692860254,4.804324206186816e-06,4.923739989077482e-06,-6.181386483598433e-06,9.824280376291042e-05,-8.513653706108825e-05,-0.004096356233421652,0.0021687942873308557,0.00010613316339759262,1.572144589262373,0.00011222407603447678,-0.0026126613579857535,-0.126832718898373,0.06707891499759883,0.0028777614507184196,0.06642783517080843,0.003831137530277667,0.0,0.0,0.0,0.0,0.0,0.0,0.15820417766608927,0.0,0.0,0.0
94,0.094,0.0003218353843010669,0.00010168054666644229,0.0003375158487517319,0.12942369984010044,0.0002468274641715967,-0.00020652897501036009,7.445166480154798e-05,10555.542944309369,0.9957393733220662,0.0005593109293392604,0.16143548906555533,0.33465419016740555,0.0009733971019843339,0.3312632826178984,0.0002183150986407867,-0.00021702539612178384,-9.020447059171488e-05,0.9999999723230303,9.015718434642538e-05,-0.0002170458249921084,-9.020446833964973e-05,0.9999999722184324,-0.00021829551931565487,0.00021702539448834914,0.00021831551741163802,0.9999999529417682,9.709738727459172e-05,-0.0003067998390354071,4.895992290809836e-06,5.042819058330074e-06,-6.334171452903952e-06,0.00010135769244776988,-8.780172174646744e-05,-0.004225779933261752,0.0022372437173570417,0.00010904194852039732,1.5722123723525336,0.00011615943200556058,-0.0026651846853791824,-0.12942369984010044,0.06844943002618611,0.0029087851228046923,0.0677830901605105,0.003935355971083796,0.0,0.0,0.0,0.0,0.0,0.0,0.16143548906555533,0.0,0.0,0.0
95,0.095,0.00033177514547947946,0.00010486392167032576,0.00034795285488986864,0.13203708941005574,0.0002546198188332894,-0.0002127051833294884,7.824835109273041e-05,10043.47108613402,0.9956039058806309,0.0005767689308283613,0.1646947561830356,0.33467235930675515,0.0009725015070366585,0.33127364447716523,0.0002251578014464961,-0.00022383414640403387,-9.303533114390916e-05,0.9999999705628158,9.298502659248356e-05,-0.00022385582915879568,-9.3035328673846e-05,0.9999999704422042,-0.00022513697404295759,0.00022383414460731658,0.0002251582195505475,0.9999999499236354,9.983634520521756e-05,-0.0003163582927278503,4.988181664111746e-06,5.163578439259029e-06,-6.48906624604133e-06,0.00010453550375368323,-9.0519870405952e-05,-0.004357817022671808,0.002307075723313445,0.0001119804858878173,1.5722815221877169,0.00012020141648754788,-0.002718148659484572,-0.13203708941005574,0.06983200595640358,0.0029385373674199774,0.0691498351832302,0.004041984481987296,0.0,0.0,0.0,0.0,0.0,0.0,0.1646947561830356,0.0,0.0,0.0
96,0.096,0.0003419090273894266,0.00010811080350414838,0.00035859410040419836,0.13467275610547186,0.00026256973272465443,-0.00021899524759064822,8.212220281203543e-05,9569.79330348957,0.9954657479075155,0.0005945755775170177,0.16798181710494517,0.3346908983522048,0.0009715879475797284,0.3312842130598806,0.00023213684954725977,-0.00023077882547006823,-9.592282330972424e-05,0.9999999687114376,9.586934425114879e-05,-0.0002308018270041519,-9.59228206025333e-05,0.999999968574103,-0.0002321147093939136,0.00023077882349596332,0.00023213726692744574,0.999999946749319,0.00010261986007581436,-0.0003261060134310388,5.080879108887437e-06,5.28602701022995e-06,-6.646075969157244e-06,0.00010777677591657625,-9.32914217324104e-05,-0.00449248977877728,0.0023783023100680707,0.00011494743790682572,1.5723520501764097,0.000124352499483435,-0.002771551326458396,-0.13467275610547186,0.07122658675462533,0.0029669520190084182,0.07052798869274622,0.004151082995887099,0.0,0.0,0.0,0.0,0.0,0.0,0.16798181710494517,0.0,0.0,0.0
